(G-CODE GENERATED BY FLATCAM v8.912 - www.flatcam.org - Version Date: 2019/03/17)

(Name: cortessss_iso_cnc)
(Type: G-code from Geometry)
(Units: MM)

(Created on Monday, 13 May 2019 at 14:06)

(TOOL DIAMETER: 0.41 mm)
(Feedrate: 76.2 mm/min)
(Feedrate_Z: 76.2 mm/min)
(Feedrate rapids 76.2 mm/min)

(Z_Cut: -0.4 mm)
(Z_Move: 2.54 mm)
(Z Toolchange: 25.4 mm)
(X,Y Toolchange: 0.0000, 0.0000 mm)
(Z Start: None mm)
(Z End: 50.8 mm)
(Steps per circle: 64)
(Postprocessor Geometry: default)

(X range:    0.5924 ...   51.8988  mm)
(Y range:    0.3628 ...   59.2892  mm)

(Spindle Speed: None RPM)

G21
G90
G94

G01 F76.20
G00 Z2.5400

M03
G00 X0.5927 Y59.0474
G01 F76.20
G01 Z-0.4000
G01 F76.20
G01 X0.5924 Y0.6160
G01 X0.5940 Y0.5877
G01 X0.5965 Y0.5708
G01 X0.6016 Y0.5486
G01 X0.6066 Y0.5324
G01 X0.6175 Y0.5061
G01 X0.6254 Y0.4911
G01 X0.6408 Y0.4672
G01 X0.6550 Y0.4494
G01 X0.6665 Y0.4369
G01 X0.6877 Y0.4180
G01 X0.7109 Y0.4016
G01 X0.7357 Y0.3879
G01 X0.7620 Y0.3770
G01 X0.7893 Y0.3691
G01 X0.8172 Y0.3644
G01 X0.8456 Y0.3628
G01 X51.6456 Y0.3628
G01 X51.6740 Y0.3644
G01 X51.6908 Y0.3669
G01 X51.7130 Y0.3720
G01 X51.7292 Y0.3770
G01 X51.7555 Y0.3879
G01 X51.7705 Y0.3958
G01 X51.7944 Y0.4112
G01 X51.8122 Y0.4254
G01 X51.8247 Y0.4369
G01 X51.8436 Y0.4581
G01 X51.8600 Y0.4813
G01 X51.8737 Y0.5061
G01 X51.8846 Y0.5324
G01 X51.8925 Y0.5597
G01 X51.8972 Y0.5877
G01 X51.8988 Y0.6160
G01 X51.8988 Y59.0360
G01 X51.8972 Y59.0643
G01 X51.8947 Y59.0812
G01 X51.8896 Y59.1034
G01 X51.8846 Y59.1196
G01 X51.8737 Y59.1459
G01 X51.8658 Y59.1609
G01 X51.8537 Y59.1802
G01 X51.8362 Y59.2026
G01 X51.8247 Y59.2151
G01 X51.8035 Y59.2340
G01 X51.7803 Y59.2504
G01 X51.7555 Y59.2641
G01 X51.7292 Y59.2750
G01 X51.7020 Y59.2829
G01 X51.6740 Y59.2876
G01 X51.6456 Y59.2892
G01 X0.8456 Y59.2892
G01 X0.8173 Y59.2876
G01 X0.8004 Y59.2851
G01 X0.7728 Y59.2785
G01 X0.7513 Y59.2710
G01 X0.7357 Y59.2641
G01 X0.7109 Y59.2504
G01 X0.6877 Y59.2340
G01 X0.6665 Y59.2151
G01 X0.6476 Y59.1939
G01 X0.6375 Y59.1802
G01 X0.6227 Y59.1560
G01 X0.6128 Y59.1355
G01 X0.6066 Y59.1196
G01 X0.5987 Y59.0924
G01 X0.5940 Y59.0643
G01 X0.5927 Y59.0474
G00 Z2.5400
G00 X51.3924 Y58.7828
G01 F76.20
G01 Z-0.4000
G01 F76.20
G01 X1.0988 Y58.7828
G01 X1.0988 Y0.8692
G01 X51.3924 Y0.8692
G01 X51.3924 Y58.7828
G00 Z2.5400
M05
G00 Z2.5400
G00 Z50.80
G00 X0.0 Y0.0

