(G-CODE GENERATED BY FLATCAM v8.912 - www.flatcam.org - Version Date: 2019/03/17)

(Name: rojjjjo_iso_cnc)
(Type: G-code from Geometry)
(Units: MM)

(Created on Monday, 13 May 2019 at 14:13)

(TOOL DIAMETER: 0.41 mm)
(Feedrate: 76.2 mm/min)
(Feedrate_Z: 76.2 mm/min)
(Feedrate rapids 76.2 mm/min)

(Z_Cut: -0.2 mm)
(Z_Move: 2.54 mm)
(Z Toolchange: 25.4 mm)
(X,Y Toolchange: 0.0000, 0.0000 mm)
(Z Start: None mm)
(Z End: 50.8 mm)
(Steps per circle: 64)
(Postprocessor Geometry: default)

(X range:    1.6661 ...   49.5028  mm)
(Y range:    3.7308 ...   56.2750  mm)

(Spindle Speed: None RPM)

G21
G90
G94

G01 F76.20
G00 Z2.5400

M03
G00 X5.8585 Y4.9226
G01 F76.20
G01 Z-0.2000
G01 F76.20
G01 X5.8585 Y4.9454
G01 X5.8512 Y5.0687
G01 X5.8309 Y5.1906
G01 X5.8258 Y5.2128
G01 X5.7947 Y5.3205
G01 X5.7872 Y5.3420
G01 X5.7396 Y5.4560
G01 X5.6744 Y5.5741
G01 X5.5963 Y5.6842
G01 X5.5064 Y5.7848
G01 X5.4058 Y5.8747
G01 X5.3052 Y5.9464
G01 X5.2859 Y5.9586
G01 X5.1878 Y6.0128
G01 X5.1672 Y6.0227
G01 X5.0530 Y6.0697
G01 X4.9233 Y6.1070
G01 X4.7903 Y6.1296
G01 X4.6556 Y6.1372
G01 X4.5209 Y6.1296
G01 X4.3879 Y6.1070
G01 X4.2582 Y6.0697
G01 X4.1440 Y6.0227
G01 X4.1234 Y6.0128
G01 X4.0253 Y5.9586
G01 X4.0060 Y5.9464
G01 X3.9054 Y5.8747
G01 X3.8048 Y5.7848
G01 X3.7149 Y5.6842
G01 X3.6368 Y5.5741
G01 X3.5716 Y5.4560
G01 X3.5240 Y5.3420
G01 X3.5165 Y5.3205
G01 X3.4854 Y5.2128
G01 X3.4803 Y5.1906
G01 X3.4600 Y5.0687
G01 X3.4524 Y4.9340
G01 X3.4600 Y4.7993
G01 X3.4803 Y4.6774
G01 X3.4854 Y4.6552
G01 X3.5165 Y4.5475
G01 X3.5240 Y4.5260
G01 X3.5716 Y4.4120
G01 X3.6368 Y4.2939
G01 X3.7149 Y4.1838
G01 X3.8048 Y4.0832
G01 X3.9054 Y3.9933
G01 X4.0060 Y3.9216
G01 X4.0253 Y3.9094
G01 X4.1234 Y3.8552
G01 X4.1440 Y3.8453
G01 X4.2582 Y3.7983
G01 X4.3879 Y3.7610
G01 X4.5209 Y3.7384
G01 X4.6556 Y3.7308
G01 X4.7903 Y3.7384
G01 X4.9233 Y3.7610
G01 X5.0530 Y3.7983
G01 X5.1672 Y3.8453
G01 X5.1878 Y3.8552
G01 X5.2859 Y3.9094
G01 X5.3052 Y3.9216
G01 X5.4058 Y3.9933
G01 X5.5064 Y4.0832
G01 X5.5963 Y4.1838
G01 X5.6680 Y4.2844
G01 X5.6802 Y4.3037
G01 X5.7344 Y4.4018
G01 X5.7443 Y4.4224
G01 X5.7913 Y4.5366
G01 X5.8286 Y4.6663
G01 X5.8512 Y4.7993
G01 X5.8585 Y4.9226
G00 Z2.5400
G00 X8.3985 Y4.9226
G01 F76.20
G01 Z-0.2000
G01 F76.20
G01 X8.3985 Y4.9454
G01 X8.3912 Y5.0687
G01 X8.3709 Y5.1906
G01 X8.3658 Y5.2128
G01 X8.3347 Y5.3205
G01 X8.3272 Y5.3420
G01 X8.2796 Y5.4560
G01 X8.2144 Y5.5741
G01 X8.1363 Y5.6842
G01 X8.0464 Y5.7848
G01 X7.9458 Y5.8747
G01 X7.8452 Y5.9464
G01 X7.8259 Y5.9586
G01 X7.7278 Y6.0128
G01 X7.7072 Y6.0227
G01 X7.5930 Y6.0697
G01 X7.4633 Y6.1070
G01 X7.3303 Y6.1296
G01 X7.1956 Y6.1372
G01 X7.0609 Y6.1296
G01 X6.9279 Y6.1070
G01 X6.7982 Y6.0697
G01 X6.6840 Y6.0227
G01 X6.6634 Y6.0128
G01 X6.5653 Y5.9586
G01 X6.5460 Y5.9464
G01 X6.4454 Y5.8747
G01 X6.3448 Y5.7848
G01 X6.2549 Y5.6842
G01 X6.1768 Y5.5741
G01 X6.1116 Y5.4560
G01 X6.0640 Y5.3420
G01 X6.0565 Y5.3205
G01 X6.0254 Y5.2128
G01 X6.0203 Y5.1906
G01 X6.0000 Y5.0687
G01 X5.9924 Y4.9340
G01 X6.0000 Y4.7993
G01 X6.0203 Y4.6774
G01 X6.0254 Y4.6552
G01 X6.0565 Y4.5475
G01 X6.0640 Y4.5260
G01 X6.1116 Y4.4120
G01 X6.1768 Y4.2939
G01 X6.2549 Y4.1838
G01 X6.3448 Y4.0832
G01 X6.4454 Y3.9933
G01 X6.5460 Y3.9216
G01 X6.5653 Y3.9094
G01 X6.6634 Y3.8552
G01 X6.6840 Y3.8453
G01 X6.7982 Y3.7983
G01 X6.9279 Y3.7610
G01 X7.0609 Y3.7384
G01 X7.1956 Y3.7308
G01 X7.3303 Y3.7384
G01 X7.4633 Y3.7610
G01 X7.5930 Y3.7983
G01 X7.7072 Y3.8453
G01 X7.7278 Y3.8552
G01 X7.8259 Y3.9094
G01 X7.8452 Y3.9216
G01 X7.9458 Y3.9933
G01 X8.0464 Y4.0832
G01 X8.1363 Y4.1838
G01 X8.2080 Y4.2844
G01 X8.2202 Y4.3037
G01 X8.2744 Y4.4018
G01 X8.2843 Y4.4224
G01 X8.3313 Y4.5366
G01 X8.3686 Y4.6663
G01 X8.3912 Y4.7993
G01 X8.3985 Y4.9226
G00 Z2.5400
G00 X10.9385 Y4.9226
G01 F76.20
G01 Z-0.2000
G01 F76.20
G01 X10.9385 Y4.9454
G01 X10.9312 Y5.0687
G01 X10.9109 Y5.1906
G01 X10.9058 Y5.2128
G01 X10.8747 Y5.3205
G01 X10.8672 Y5.3420
G01 X10.8196 Y5.4560
G01 X10.7544 Y5.5741
G01 X10.6763 Y5.6842
G01 X10.5864 Y5.7848
G01 X10.4858 Y5.8747
G01 X10.3852 Y5.9464
G01 X10.3659 Y5.9586
G01 X10.2678 Y6.0128
G01 X10.2472 Y6.0227
G01 X10.1330 Y6.0697
G01 X10.0033 Y6.1070
G01 X9.8703 Y6.1296
G01 X9.7356 Y6.1372
G01 X9.6009 Y6.1296
G01 X9.4679 Y6.1070
G01 X9.3382 Y6.0697
G01 X9.2240 Y6.0227
G01 X9.2034 Y6.0128
G01 X9.1053 Y5.9586
G01 X9.0860 Y5.9464
G01 X8.9854 Y5.8747
G01 X8.8848 Y5.7848
G01 X8.7949 Y5.6842
G01 X8.7168 Y5.5741
G01 X8.6516 Y5.4560
G01 X8.6040 Y5.3420
G01 X8.5965 Y5.3205
G01 X8.5654 Y5.2128
G01 X8.5603 Y5.1906
G01 X8.5400 Y5.0687
G01 X8.5324 Y4.9340
G01 X8.5400 Y4.7993
G01 X8.5603 Y4.6774
G01 X8.5654 Y4.6552
G01 X8.5965 Y4.5475
G01 X8.6040 Y4.5260
G01 X8.6516 Y4.4120
G01 X8.7168 Y4.2939
G01 X8.7949 Y4.1838
G01 X8.8848 Y4.0832
G01 X8.9854 Y3.9933
G01 X9.0860 Y3.9216
G01 X9.1053 Y3.9094
G01 X9.2034 Y3.8552
G01 X9.2240 Y3.8453
G01 X9.3382 Y3.7983
G01 X9.4679 Y3.7610
G01 X9.6009 Y3.7384
G01 X9.7356 Y3.7308
G01 X9.8703 Y3.7384
G01 X10.0033 Y3.7610
G01 X10.1330 Y3.7983
G01 X10.2472 Y3.8453
G01 X10.2678 Y3.8552
G01 X10.3659 Y3.9094
G01 X10.3852 Y3.9216
G01 X10.4858 Y3.9933
G01 X10.5864 Y4.0832
G01 X10.6763 Y4.1838
G01 X10.7480 Y4.2844
G01 X10.7602 Y4.3037
G01 X10.8144 Y4.4018
G01 X10.8243 Y4.4224
G01 X10.8713 Y4.5366
G01 X10.9086 Y4.6663
G01 X10.9312 Y4.7993
G01 X10.9385 Y4.9226
G00 Z2.5400
G00 X13.4785 Y4.9226
G01 F76.20
G01 Z-0.2000
G01 F76.20
G01 X13.4785 Y4.9454
G01 X13.4712 Y5.0687
G01 X13.4509 Y5.1906
G01 X13.4458 Y5.2128
G01 X13.4147 Y5.3205
G01 X13.4072 Y5.3420
G01 X13.3596 Y5.4560
G01 X13.2944 Y5.5741
G01 X13.2163 Y5.6842
G01 X13.1264 Y5.7848
G01 X13.0258 Y5.8747
G01 X12.9252 Y5.9464
G01 X12.9059 Y5.9586
G01 X12.8078 Y6.0128
G01 X12.7872 Y6.0227
G01 X12.6730 Y6.0697
G01 X12.5433 Y6.1070
G01 X12.4103 Y6.1296
G01 X12.2756 Y6.1372
G01 X12.1409 Y6.1296
G01 X12.0079 Y6.1070
G01 X11.8782 Y6.0697
G01 X11.7640 Y6.0227
G01 X11.7434 Y6.0128
G01 X11.6453 Y5.9586
G01 X11.6260 Y5.9464
G01 X11.5254 Y5.8747
G01 X11.4248 Y5.7848
G01 X11.3349 Y5.6842
G01 X11.2568 Y5.5741
G01 X11.1916 Y5.4560
G01 X11.1440 Y5.3420
G01 X11.1365 Y5.3205
G01 X11.1054 Y5.2128
G01 X11.1003 Y5.1906
G01 X11.0800 Y5.0687
G01 X11.0724 Y4.9340
G01 X11.0800 Y4.7993
G01 X11.1003 Y4.6774
G01 X11.1054 Y4.6552
G01 X11.1365 Y4.5475
G01 X11.1440 Y4.5260
G01 X11.1916 Y4.4120
G01 X11.2568 Y4.2939
G01 X11.3349 Y4.1838
G01 X11.4248 Y4.0832
G01 X11.5254 Y3.9933
G01 X11.6260 Y3.9216
G01 X11.6453 Y3.9094
G01 X11.7434 Y3.8552
G01 X11.7640 Y3.8453
G01 X11.8782 Y3.7983
G01 X12.0079 Y3.7610
G01 X12.1409 Y3.7384
G01 X12.2756 Y3.7308
G01 X12.4103 Y3.7384
G01 X12.5433 Y3.7610
G01 X12.6730 Y3.7983
G01 X12.7872 Y3.8453
G01 X12.8078 Y3.8552
G01 X12.9059 Y3.9094
G01 X12.9252 Y3.9216
G01 X13.0258 Y3.9933
G01 X13.1264 Y4.0832
G01 X13.2163 Y4.1838
G01 X13.2880 Y4.2844
G01 X13.3002 Y4.3037
G01 X13.3544 Y4.4018
G01 X13.3643 Y4.4224
G01 X13.4113 Y4.5366
G01 X13.4486 Y4.6663
G01 X13.4712 Y4.7993
G01 X13.4785 Y4.9226
G00 Z2.5400
G00 X16.0185 Y4.9226
G01 F76.20
G01 Z-0.2000
G01 F76.20
G01 X16.0185 Y4.9454
G01 X16.0112 Y5.0687
G01 X15.9909 Y5.1906
G01 X15.9858 Y5.2128
G01 X15.9547 Y5.3205
G01 X15.9472 Y5.3420
G01 X15.8996 Y5.4560
G01 X15.8344 Y5.5741
G01 X15.7563 Y5.6842
G01 X15.6664 Y5.7848
G01 X15.5658 Y5.8747
G01 X15.4652 Y5.9464
G01 X15.4459 Y5.9586
G01 X15.3478 Y6.0128
G01 X15.3272 Y6.0227
G01 X15.2130 Y6.0697
G01 X15.0833 Y6.1070
G01 X14.9503 Y6.1296
G01 X14.8156 Y6.1372
G01 X14.6809 Y6.1296
G01 X14.5479 Y6.1070
G01 X14.4182 Y6.0697
G01 X14.3040 Y6.0227
G01 X14.2834 Y6.0128
G01 X14.1853 Y5.9586
G01 X14.1660 Y5.9464
G01 X14.0654 Y5.8747
G01 X13.9648 Y5.7848
G01 X13.8749 Y5.6842
G01 X13.7968 Y5.5741
G01 X13.7316 Y5.4560
G01 X13.6840 Y5.3420
G01 X13.6765 Y5.3205
G01 X13.6454 Y5.2128
G01 X13.6403 Y5.1906
G01 X13.6200 Y5.0687
G01 X13.6124 Y4.9340
G01 X13.6200 Y4.7993
G01 X13.6403 Y4.6774
G01 X13.6454 Y4.6552
G01 X13.6765 Y4.5475
G01 X13.6840 Y4.5260
G01 X13.7316 Y4.4120
G01 X13.7968 Y4.2939
G01 X13.8749 Y4.1838
G01 X13.9648 Y4.0832
G01 X14.0654 Y3.9933
G01 X14.1660 Y3.9216
G01 X14.1853 Y3.9094
G01 X14.2834 Y3.8552
G01 X14.3040 Y3.8453
G01 X14.4182 Y3.7983
G01 X14.5479 Y3.7610
G01 X14.6809 Y3.7384
G01 X14.8156 Y3.7308
G01 X14.9503 Y3.7384
G01 X15.0833 Y3.7610
G01 X15.2130 Y3.7983
G01 X15.3272 Y3.8453
G01 X15.3478 Y3.8552
G01 X15.4459 Y3.9094
G01 X15.4652 Y3.9216
G01 X15.5658 Y3.9933
G01 X15.6664 Y4.0832
G01 X15.7563 Y4.1838
G01 X15.8280 Y4.2844
G01 X15.8402 Y4.3037
G01 X15.8944 Y4.4018
G01 X15.9043 Y4.4224
G01 X15.9513 Y4.5366
G01 X15.9886 Y4.6663
G01 X16.0112 Y4.7993
G01 X16.0185 Y4.9226
G00 Z2.5400
G00 X18.5585 Y4.9226
G01 F76.20
G01 Z-0.2000
G01 F76.20
G01 X18.5585 Y4.9454
G01 X18.5522 Y5.0574
G01 X18.5496 Y5.0800
G01 X18.5286 Y5.2017
G01 X18.4947 Y5.3205
G01 X18.4872 Y5.3420
G01 X18.4396 Y5.4560
G01 X18.3744 Y5.5741
G01 X18.2963 Y5.6842
G01 X18.2064 Y5.7848
G01 X18.1058 Y5.8747
G01 X18.0052 Y5.9464
G01 X17.9859 Y5.9586
G01 X17.8878 Y6.0128
G01 X17.8672 Y6.0227
G01 X17.7530 Y6.0697
G01 X17.6233 Y6.1070
G01 X17.4903 Y6.1296
G01 X17.3556 Y6.1372
G01 X17.2209 Y6.1296
G01 X17.0879 Y6.1070
G01 X16.9582 Y6.0697
G01 X16.8440 Y6.0227
G01 X16.8234 Y6.0128
G01 X16.7253 Y5.9586
G01 X16.7060 Y5.9464
G01 X16.6054 Y5.8747
G01 X16.5048 Y5.7848
G01 X16.4149 Y5.6842
G01 X16.3368 Y5.5741
G01 X16.2716 Y5.4560
G01 X16.2240 Y5.3420
G01 X16.2165 Y5.3205
G01 X16.1854 Y5.2128
G01 X16.1803 Y5.1906
G01 X16.1600 Y5.0687
G01 X16.1524 Y4.9340
G01 X16.1600 Y4.7993
G01 X16.1803 Y4.6774
G01 X16.1854 Y4.6552
G01 X16.2165 Y4.5475
G01 X16.2240 Y4.5260
G01 X16.2716 Y4.4120
G01 X16.3368 Y4.2939
G01 X16.4149 Y4.1838
G01 X16.5048 Y4.0832
G01 X16.6054 Y3.9933
G01 X16.7060 Y3.9216
G01 X16.7253 Y3.9094
G01 X16.8234 Y3.8552
G01 X16.8440 Y3.8453
G01 X16.9582 Y3.7983
G01 X17.0879 Y3.7610
G01 X17.2209 Y3.7384
G01 X17.3556 Y3.7308
G01 X17.4903 Y3.7384
G01 X17.6122 Y3.7587
G01 X17.6344 Y3.7638
G01 X17.7421 Y3.7949
G01 X17.7636 Y3.8024
G01 X17.8776 Y3.8500
G01 X17.9957 Y3.9152
G01 X18.1058 Y3.9933
G01 X18.2064 Y4.0832
G01 X18.2963 Y4.1838
G01 X18.3680 Y4.2844
G01 X18.3802 Y4.3037
G01 X18.4344 Y4.4018
G01 X18.4443 Y4.4224
G01 X18.4913 Y4.5366
G01 X18.5286 Y4.6663
G01 X18.5512 Y4.7993
G01 X18.5585 Y4.9226
G00 Z2.5400
G00 X21.0985 Y4.9226
G01 F76.20
G01 Z-0.2000
G01 F76.20
G01 X21.0985 Y4.9454
G01 X21.0922 Y5.0574
G01 X21.0896 Y5.0800
G01 X21.0686 Y5.2017
G01 X21.0347 Y5.3205
G01 X21.0272 Y5.3420
G01 X20.9796 Y5.4560
G01 X20.9144 Y5.5741
G01 X20.8363 Y5.6842
G01 X20.7464 Y5.7848
G01 X20.6458 Y5.8747
G01 X20.5452 Y5.9464
G01 X20.5259 Y5.9586
G01 X20.4278 Y6.0128
G01 X20.4072 Y6.0227
G01 X20.2930 Y6.0697
G01 X20.1633 Y6.1070
G01 X20.0303 Y6.1296
G01 X19.8956 Y6.1372
G01 X19.7609 Y6.1296
G01 X19.6390 Y6.1093
G01 X19.6168 Y6.1042
G01 X19.5091 Y6.0731
G01 X19.4876 Y6.0656
G01 X19.3736 Y6.0180
G01 X19.2555 Y5.9528
G01 X19.1454 Y5.8747
G01 X19.0448 Y5.7848
G01 X18.9549 Y5.6842
G01 X18.8832 Y5.5836
G01 X18.8710 Y5.5643
G01 X18.8168 Y5.4662
G01 X18.8069 Y5.4456
G01 X18.7599 Y5.3314
G01 X18.7226 Y5.2017
G01 X18.7000 Y5.0687
G01 X18.6924 Y4.9340
G01 X18.7000 Y4.7993
G01 X18.7203 Y4.6774
G01 X18.7254 Y4.6552
G01 X18.7565 Y4.5475
G01 X18.7640 Y4.5260
G01 X18.8116 Y4.4120
G01 X18.8768 Y4.2939
G01 X18.9549 Y4.1838
G01 X19.0448 Y4.0832
G01 X19.1454 Y3.9933
G01 X19.2460 Y3.9216
G01 X19.2653 Y3.9094
G01 X19.3634 Y3.8552
G01 X19.3840 Y3.8453
G01 X19.4982 Y3.7983
G01 X19.6279 Y3.7610
G01 X19.7609 Y3.7384
G01 X19.8956 Y3.7308
G01 X20.0303 Y3.7384
G01 X20.1522 Y3.7587
G01 X20.1744 Y3.7638
G01 X20.2821 Y3.7949
G01 X20.3036 Y3.8024
G01 X20.4176 Y3.8500
G01 X20.5357 Y3.9152
G01 X20.6458 Y3.9933
G01 X20.7464 Y4.0832
G01 X20.8363 Y4.1838
G01 X20.9080 Y4.2844
G01 X20.9202 Y4.3037
G01 X20.9744 Y4.4018
G01 X20.9843 Y4.4224
G01 X21.0313 Y4.5366
G01 X21.0686 Y4.6663
G01 X21.0912 Y4.7993
G01 X21.0985 Y4.9226
G00 Z2.5400
G00 X23.6385 Y4.9226
G01 F76.20
G01 Z-0.2000
G01 F76.20
G01 X23.6385 Y4.9454
G01 X23.6322 Y5.0574
G01 X23.6296 Y5.0800
G01 X23.6086 Y5.2017
G01 X23.5747 Y5.3205
G01 X23.5672 Y5.3420
G01 X23.5196 Y5.4560
G01 X23.4544 Y5.5741
G01 X23.3763 Y5.6842
G01 X23.2864 Y5.7848
G01 X23.1858 Y5.8747
G01 X23.0852 Y5.9464
G01 X23.0659 Y5.9586
G01 X22.9678 Y6.0128
G01 X22.9472 Y6.0227
G01 X22.8330 Y6.0697
G01 X22.7033 Y6.1070
G01 X22.5703 Y6.1296
G01 X22.4356 Y6.1372
G01 X22.3009 Y6.1296
G01 X22.1790 Y6.1093
G01 X22.1568 Y6.1042
G01 X22.0491 Y6.0731
G01 X22.0276 Y6.0656
G01 X21.9136 Y6.0180
G01 X21.7955 Y5.9528
G01 X21.6854 Y5.8747
G01 X21.5848 Y5.7848
G01 X21.4949 Y5.6842
G01 X21.4232 Y5.5836
G01 X21.4110 Y5.5643
G01 X21.3568 Y5.4662
G01 X21.3469 Y5.4456
G01 X21.2999 Y5.3314
G01 X21.2626 Y5.2017
G01 X21.2400 Y5.0687
G01 X21.2324 Y4.9340
G01 X21.2400 Y4.7993
G01 X21.2603 Y4.6774
G01 X21.2654 Y4.6552
G01 X21.2965 Y4.5475
G01 X21.3040 Y4.5260
G01 X21.3516 Y4.4120
G01 X21.4168 Y4.2939
G01 X21.4949 Y4.1838
G01 X21.5848 Y4.0832
G01 X21.6854 Y3.9933
G01 X21.7860 Y3.9216
G01 X21.8053 Y3.9094
G01 X21.9034 Y3.8552
G01 X21.9240 Y3.8453
G01 X22.0382 Y3.7983
G01 X22.1679 Y3.7610
G01 X22.3009 Y3.7384
G01 X22.4356 Y3.7308
G01 X22.5703 Y3.7384
G01 X22.6922 Y3.7587
G01 X22.7144 Y3.7638
G01 X22.8221 Y3.7949
G01 X22.8436 Y3.8024
G01 X22.9576 Y3.8500
G01 X23.0757 Y3.9152
G01 X23.1858 Y3.9933
G01 X23.2864 Y4.0832
G01 X23.3763 Y4.1838
G01 X23.4480 Y4.2844
G01 X23.4602 Y4.3037
G01 X23.5144 Y4.4018
G01 X23.5243 Y4.4224
G01 X23.5713 Y4.5366
G01 X23.6086 Y4.6663
G01 X23.6312 Y4.7993
G01 X23.6385 Y4.9226
G00 Z2.5400
G00 X26.4369 Y8.9820
G01 F76.20
G01 Z-0.2000
G01 F76.20
G01 X26.3986 Y8.9799
G01 X26.3760 Y8.9773
G01 X26.2875 Y8.9623
G01 X26.2653 Y8.9572
G01 X26.1683 Y8.9289
G01 X26.0747 Y8.8905
G01 X26.0542 Y8.8806
G01 X25.9659 Y8.8314
G01 X25.8741 Y8.7663
G01 X25.7902 Y8.6914
G01 X25.7153 Y8.6075
G01 X25.6502 Y8.5157
G01 X25.6010 Y8.4274
G01 X25.5911 Y8.4069
G01 X25.5568 Y8.3240
G01 X25.5492 Y8.3025
G01 X25.5216 Y8.2052
G01 X25.5027 Y8.0943
G01 X25.4964 Y7.9820
G01 X25.5027 Y7.8697
G01 X25.5216 Y7.7588
G01 X25.5492 Y7.6615
G01 X25.5568 Y7.6400
G01 X25.5911 Y7.5571
G01 X25.6010 Y7.5366
G01 X25.6502 Y7.4483
G01 X25.7153 Y7.3565
G01 X25.7902 Y7.2726
G01 X25.8741 Y7.1977
G01 X25.9659 Y7.1326
G01 X26.0542 Y7.0834
G01 X26.0747 Y7.0735
G01 X26.1576 Y7.0392
G01 X26.1791 Y7.0316
G01 X26.2764 Y7.0040
G01 X26.3873 Y6.9851
G01 X26.4996 Y6.9788
G01 X26.6119 Y6.9851
G01 X26.7228 Y7.0040
G01 X26.8201 Y7.0316
G01 X26.8416 Y7.0392
G01 X26.9245 Y7.0735
G01 X26.9450 Y7.0834
G01 X27.0333 Y7.1326
G01 X27.1251 Y7.1977
G01 X27.2090 Y7.2726
G01 X27.2766 Y7.3478
G01 X27.2908 Y7.3656
G01 X27.3427 Y7.4388
G01 X27.3548 Y7.4581
G01 X27.4035 Y7.5467
G01 X27.4465 Y7.6507
G01 X27.4748 Y7.7477
G01 X27.4799 Y7.7699
G01 X27.4965 Y7.8697
G01 X27.5028 Y7.9820
G01 X27.4965 Y8.0943
G01 X27.4799 Y8.1941
G01 X27.4748 Y8.2163
G01 X27.4500 Y8.3025
G01 X27.4424 Y8.3240
G01 X27.4035 Y8.4173
G01 X27.3490 Y8.5157
G01 X27.2839 Y8.6075
G01 X27.2168 Y8.6831
G01 X27.2007 Y8.6992
G01 X27.1338 Y8.7590
G01 X27.1160 Y8.7732
G01 X27.0333 Y8.8314
G01 X26.9349 Y8.8859
G01 X26.8309 Y8.9289
G01 X26.7339 Y8.9572
G01 X26.7117 Y8.9623
G01 X26.6232 Y8.9773
G01 X26.6006 Y8.9799
G01 X26.5623 Y8.9820
G01 X26.6006 Y8.9841
G01 X26.6232 Y8.9867
G01 X26.7117 Y9.0017
G01 X26.7339 Y9.0068
G01 X26.8309 Y9.0351
G01 X26.9349 Y9.0781
G01 X27.0333 Y9.1326
G01 X27.1160 Y9.1908
G01 X27.1338 Y9.2050
G01 X27.2007 Y9.2648
G01 X27.2168 Y9.2809
G01 X27.2839 Y9.3565
G01 X27.3490 Y9.4483
G01 X27.4035 Y9.5467
G01 X27.4424 Y9.6400
G01 X27.4500 Y9.6615
G01 X27.4748 Y9.7477
G01 X27.4799 Y9.7699
G01 X27.4965 Y9.8697
G01 X27.5028 Y9.9820
G01 X27.4965 Y10.0943
G01 X27.4799 Y10.1941
G01 X27.4748 Y10.2163
G01 X27.4500 Y10.3025
G01 X27.4424 Y10.3240
G01 X27.4035 Y10.4173
G01 X27.3490 Y10.5157
G01 X27.2839 Y10.6075
G01 X27.2168 Y10.6831
G01 X27.2007 Y10.6992
G01 X27.1338 Y10.7590
G01 X27.1160 Y10.7732
G01 X27.0333 Y10.8314
G01 X26.9349 Y10.8859
G01 X26.8309 Y10.9289
G01 X26.7339 Y10.9572
G01 X26.7117 Y10.9623
G01 X26.6232 Y10.9773
G01 X26.6006 Y10.9799
G01 X26.5623 Y10.9820
G01 X26.6006 Y10.9841
G01 X26.6232 Y10.9867
G01 X26.7117 Y11.0017
G01 X26.7339 Y11.0068
G01 X26.8309 Y11.0351
G01 X26.9349 Y11.0781
G01 X27.0333 Y11.1326
G01 X27.1160 Y11.1908
G01 X27.1338 Y11.2050
G01 X27.2007 Y11.2648
G01 X27.2168 Y11.2809
G01 X27.2839 Y11.3565
G01 X27.3490 Y11.4483
G01 X27.4035 Y11.5467
G01 X27.4424 Y11.6400
G01 X27.4500 Y11.6615
G01 X27.4748 Y11.7477
G01 X27.4799 Y11.7699
G01 X27.4965 Y11.8697
G01 X27.5028 Y11.9820
G01 X27.4965 Y12.0943
G01 X27.4799 Y12.1941
G01 X27.4748 Y12.2163
G01 X27.4500 Y12.3025
G01 X27.4424 Y12.3240
G01 X27.4035 Y12.4173
G01 X27.3490 Y12.5157
G01 X27.2839 Y12.6075
G01 X27.2090 Y12.6914
G01 X27.1251 Y12.7663
G01 X27.0428 Y12.8251
G01 X27.0235 Y12.8372
G01 X26.9450 Y12.8806
G01 X26.9245 Y12.8905
G01 X26.8309 Y12.9289
G01 X26.7228 Y12.9600
G01 X26.6119 Y12.9789
G01 X26.4996 Y12.9852
G01 X26.3873 Y12.9789
G01 X26.2875 Y12.9623
G01 X26.2653 Y12.9572
G01 X26.1791 Y12.9324
G01 X26.1576 Y12.9248
G01 X26.0643 Y12.8859
G01 X25.9659 Y12.8314
G01 X25.8741 Y12.7663
G01 X25.7902 Y12.6914
G01 X25.7153 Y12.6075
G01 X25.6565 Y12.5252
G01 X25.6444 Y12.5059
G01 X25.6010 Y12.4274
G01 X25.5911 Y12.4069
G01 X25.5527 Y12.3133
G01 X25.5216 Y12.2052
G01 X25.5027 Y12.0943
G01 X25.4964 Y11.9820
G01 X25.5027 Y11.8697
G01 X25.5193 Y11.7699
G01 X25.5244 Y11.7477
G01 X25.5492 Y11.6615
G01 X25.5568 Y11.6400
G01 X25.5957 Y11.5467
G01 X25.6502 Y11.4483
G01 X25.7153 Y11.3565
G01 X25.7824 Y11.2809
G01 X25.7985 Y11.2648
G01 X25.8654 Y11.2050
G01 X25.8832 Y11.1908
G01 X25.9659 Y11.1326
G01 X26.0643 Y11.0781
G01 X26.1683 Y11.0351
G01 X26.2653 Y11.0068
G01 X26.2875 Y11.0017
G01 X26.3760 Y10.9867
G01 X26.3986 Y10.9841
G01 X26.4369 Y10.9820
G01 X26.3873 Y10.9789
G01 X26.2875 Y10.9623
G01 X26.2653 Y10.9572
G01 X26.1791 Y10.9324
G01 X26.1576 Y10.9248
G01 X26.0643 Y10.8859
G01 X25.9757 Y10.8372
G01 X25.9564 Y10.8251
G01 X25.8741 Y10.7663
G01 X25.7902 Y10.6914
G01 X25.7153 Y10.6075
G01 X25.6565 Y10.5252
G01 X25.6444 Y10.5059
G01 X25.5957 Y10.4173
G01 X25.5527 Y10.3133
G01 X25.5216 Y10.2052
G01 X25.5027 Y10.0943
G01 X25.4964 Y9.9820
G01 X25.5027 Y9.8697
G01 X25.5216 Y9.7588
G01 X25.5492 Y9.6615
G01 X25.5568 Y9.6400
G01 X25.5957 Y9.5467
G01 X25.6444 Y9.4581
G01 X25.6565 Y9.4388
G01 X25.7153 Y9.3565
G01 X25.7824 Y9.2809
G01 X25.7985 Y9.2648
G01 X25.8741 Y9.1977
G01 X25.9564 Y9.1389
G01 X25.9757 Y9.1268
G01 X26.0643 Y9.0781
G01 X26.1576 Y9.0392
G01 X26.1791 Y9.0316
G01 X26.2764 Y9.0040
G01 X26.3873 Y8.9851
G01 X26.4369 Y8.9820
G00 Z2.5400
G00 X21.3525 Y14.3206
G01 F76.20
G01 Z-0.2000
G01 F76.20
G01 X21.3525 Y14.3434
G01 X21.3462 Y14.4554
G01 X21.3436 Y14.4780
G01 X21.3226 Y14.5997
G01 X21.2887 Y14.7185
G01 X21.2812 Y14.7400
G01 X21.2336 Y14.8540
G01 X21.1684 Y14.9721
G01 X21.0903 Y15.0822
G01 X21.0004 Y15.1828
G01 X20.8998 Y15.2727
G01 X20.7992 Y15.3444
G01 X20.7799 Y15.3566
G01 X20.6818 Y15.4108
G01 X20.6612 Y15.4207
G01 X20.5470 Y15.4677
G01 X20.4173 Y15.5050
G01 X20.2843 Y15.5276
G01 X20.1496 Y15.5352
G01 X20.0149 Y15.5276
G01 X19.8930 Y15.5073
G01 X19.8708 Y15.5022
G01 X19.7631 Y15.4711
G01 X19.7416 Y15.4636
G01 X19.6276 Y15.4160
G01 X19.5095 Y15.3508
G01 X19.3994 Y15.2727
G01 X19.2988 Y15.1828
G01 X19.2089 Y15.0822
G01 X19.1372 Y14.9816
G01 X19.1250 Y14.9623
G01 X19.0708 Y14.8642
G01 X19.0609 Y14.8436
G01 X19.0139 Y14.7294
G01 X18.9766 Y14.5997
G01 X18.9540 Y14.4667
G01 X18.9464 Y14.3320
G01 X18.9540 Y14.1973
G01 X18.9743 Y14.0754
G01 X18.9794 Y14.0532
G01 X19.0105 Y13.9455
G01 X19.0180 Y13.9240
G01 X19.0656 Y13.8100
G01 X19.1308 Y13.6919
G01 X19.2089 Y13.5818
G01 X19.2988 Y13.4812
G01 X19.3994 Y13.3913
G01 X19.5000 Y13.3196
G01 X19.5193 Y13.3074
G01 X19.6174 Y13.2532
G01 X19.6380 Y13.2433
G01 X19.7522 Y13.1963
G01 X19.8819 Y13.1590
G01 X20.0149 Y13.1364
G01 X20.1496 Y13.1288
G01 X20.2843 Y13.1364
G01 X20.4062 Y13.1567
G01 X20.4284 Y13.1618
G01 X20.5361 Y13.1929
G01 X20.5576 Y13.2004
G01 X20.6716 Y13.2480
G01 X20.7897 Y13.3132
G01 X20.8998 Y13.3913
G01 X21.0004 Y13.4812
G01 X21.0903 Y13.5818
G01 X21.1620 Y13.6824
G01 X21.1742 Y13.7017
G01 X21.2284 Y13.7998
G01 X21.2383 Y13.8204
G01 X21.2853 Y13.9346
G01 X21.3226 Y14.0643
G01 X21.3452 Y14.1973
G01 X21.3525 Y14.3206
G00 Z2.5400
G00 X12.7165 Y14.3206
G01 F76.20
G01 Z-0.2000
G01 F76.20
G01 X12.7165 Y14.3434
G01 X12.7092 Y14.4667
G01 X12.6889 Y14.5886
G01 X12.6838 Y14.6108
G01 X12.6527 Y14.7185
G01 X12.6452 Y14.7400
G01 X12.5976 Y14.8540
G01 X12.5324 Y14.9721
G01 X12.4543 Y15.0822
G01 X12.3644 Y15.1828
G01 X12.2638 Y15.2727
G01 X12.1632 Y15.3444
G01 X12.1439 Y15.3566
G01 X12.0458 Y15.4108
G01 X12.0252 Y15.4207
G01 X11.9110 Y15.4677
G01 X11.7813 Y15.5050
G01 X11.6483 Y15.5276
G01 X11.5136 Y15.5352
G01 X11.3789 Y15.5276
G01 X11.2459 Y15.5050
G01 X11.1162 Y15.4677
G01 X11.0020 Y15.4207
G01 X10.9814 Y15.4108
G01 X10.8833 Y15.3566
G01 X10.8640 Y15.3444
G01 X10.7634 Y15.2727
G01 X10.6628 Y15.1828
G01 X10.5729 Y15.0822
G01 X10.4948 Y14.9721
G01 X10.4296 Y14.8540
G01 X10.3820 Y14.7400
G01 X10.3745 Y14.7185
G01 X10.3434 Y14.6108
G01 X10.3383 Y14.5886
G01 X10.3180 Y14.4667
G01 X10.3104 Y14.3320
G01 X10.3180 Y14.1973
G01 X10.3383 Y14.0754
G01 X10.3434 Y14.0532
G01 X10.3745 Y13.9455
G01 X10.3820 Y13.9240
G01 X10.4296 Y13.8100
G01 X10.4948 Y13.6919
G01 X10.5729 Y13.5818
G01 X10.6628 Y13.4812
G01 X10.7634 Y13.3913
G01 X10.8640 Y13.3196
G01 X10.8833 Y13.3074
G01 X10.9814 Y13.2532
G01 X11.0020 Y13.2433
G01 X11.1162 Y13.1963
G01 X11.2459 Y13.1590
G01 X11.3789 Y13.1364
G01 X11.5136 Y13.1288
G01 X11.6483 Y13.1364
G01 X11.7813 Y13.1590
G01 X11.9110 Y13.1963
G01 X12.0252 Y13.2433
G01 X12.0458 Y13.2532
G01 X12.1439 Y13.3074
G01 X12.1632 Y13.3196
G01 X12.2638 Y13.3913
G01 X12.3644 Y13.4812
G01 X12.4543 Y13.5818
G01 X12.5260 Y13.6824
G01 X12.5382 Y13.7017
G01 X12.5924 Y13.7998
G01 X12.6023 Y13.8204
G01 X12.6493 Y13.9346
G01 X12.6866 Y14.0643
G01 X12.7092 Y14.1973
G01 X12.7165 Y14.3206
G00 Z2.5400
G00 X8.2701 Y13.3577
G01 F76.20
G01 Z-0.2000
G01 F76.20
G01 X8.2702 Y11.7863
G01 X8.2746 Y11.7132
G01 X8.2878 Y11.6355
G01 X8.3096 Y11.5597
G01 X8.3352 Y11.4972
G01 X8.3450 Y11.4767
G01 X8.3722 Y11.4276
G01 X8.3843 Y11.4083
G01 X8.4236 Y11.3534
G01 X8.4762 Y11.2946
G01 X9.4963 Y10.2746
G01 X9.5510 Y10.2260
G01 X9.6059 Y10.1867
G01 X9.6252 Y10.1746
G01 X9.6743 Y10.1474
G01 X9.6948 Y10.1376
G01 X9.7573 Y10.1120
G01 X9.8331 Y10.0902
G01 X9.9108 Y10.0770
G01 X9.9896 Y10.0725
G01 X16.0856 Y10.0725
G01 X16.1644 Y10.0770
G01 X16.2421 Y10.0902
G01 X16.3071 Y10.1086
G01 X16.3286 Y10.1161
G01 X16.3908 Y10.1422
G01 X16.4500 Y10.1746
G01 X16.4693 Y10.1867
G01 X16.5242 Y10.2260
G01 X16.5747 Y10.2708
G01 X18.1070 Y11.8026
G01 X18.1596 Y11.8614
G01 X18.2052 Y11.9257
G01 X18.2434 Y11.9948
G01 X18.2736 Y12.0677
G01 X18.2954 Y12.1435
G01 X18.3070 Y12.2100
G01 X18.3096 Y12.2326
G01 X18.3131 Y12.3000
G01 X18.3131 Y13.3577
G01 X18.3598 Y13.3913
G01 X18.4521 Y13.4734
G01 X18.4682 Y13.4895
G01 X18.5503 Y13.5818
G01 X18.6284 Y13.6919
G01 X18.6884 Y13.7998
G01 X18.6983 Y13.8204
G01 X18.7412 Y13.9240
G01 X18.7487 Y13.9455
G01 X18.7826 Y14.0643
G01 X18.8036 Y14.1860
G01 X18.8062 Y14.2086
G01 X18.8128 Y14.3320
G01 X18.8052 Y14.4667
G01 X18.7826 Y14.5997
G01 X18.7487 Y14.7185
G01 X18.7412 Y14.7400
G01 X18.6936 Y14.8540
G01 X18.6342 Y14.9623
G01 X18.6220 Y14.9816
G01 X18.5503 Y15.0822
G01 X18.4604 Y15.1828
G01 X18.3685 Y15.2653
G01 X18.3507 Y15.2796
G01 X18.2497 Y15.3508
G01 X18.1418 Y15.4108
G01 X18.1212 Y15.4207
G01 X18.0070 Y15.4677
G01 X17.8884 Y15.5022
G01 X17.8662 Y15.5073
G01 X17.7443 Y15.5276
G01 X17.6210 Y15.5349
G01 X17.5982 Y15.5349
G01 X17.4749 Y15.5276
G01 X17.3419 Y15.5050
G01 X17.2231 Y15.4711
G01 X17.2016 Y15.4636
G01 X17.0876 Y15.4160
G01 X16.9793 Y15.3566
G01 X16.9600 Y15.3444
G01 X16.8594 Y15.2727
G01 X16.7588 Y15.1828
G01 X16.6689 Y15.0822
G01 X16.5908 Y14.9721
G01 X16.5256 Y14.8540
G01 X16.4739 Y14.7294
G01 X16.4366 Y14.5997
G01 X16.4140 Y14.4667
G01 X16.4064 Y14.3320
G01 X16.4130 Y14.2086
G01 X16.4156 Y14.1860
G01 X16.4366 Y14.0643
G01 X16.4739 Y13.9346
G01 X16.5256 Y13.8100
G01 X16.5850 Y13.7017
G01 X16.5972 Y13.6824
G01 X16.6689 Y13.5818
G01 X16.7510 Y13.4895
G01 X16.7671 Y13.4734
G01 X16.8507 Y13.3987
G01 X16.8685 Y13.3844
G01 X16.9061 Y13.3577
G01 X16.9061 Y12.5914
G01 X15.7942 Y11.4795
G01 X10.2810 Y11.4795
G01 X9.6771 Y12.0834
G01 X9.6771 Y13.3577
G01 X9.7238 Y13.3913
G01 X9.8244 Y13.4812
G01 X9.9069 Y13.5731
G01 X9.9212 Y13.5909
G01 X9.9924 Y13.6919
G01 X10.0524 Y13.7998
G01 X10.0623 Y13.8204
G01 X10.1093 Y13.9346
G01 X10.1438 Y14.0532
G01 X10.1489 Y14.0754
G01 X10.1692 Y14.1973
G01 X10.1765 Y14.3206
G01 X10.1765 Y14.3434
G01 X10.1692 Y14.4667
G01 X10.1489 Y14.5886
G01 X10.1438 Y14.6108
G01 X10.1093 Y14.7294
G01 X10.0623 Y14.8436
G01 X10.0524 Y14.8642
G01 X9.9982 Y14.9623
G01 X9.9860 Y14.9816
G01 X9.9143 Y15.0822
G01 X9.8244 Y15.1828
G01 X9.7238 Y15.2727
G01 X9.6232 Y15.3444
G01 X9.6039 Y15.3566
G01 X9.4956 Y15.4160
G01 X9.3816 Y15.4636
G01 X9.3601 Y15.4711
G01 X9.2413 Y15.5050
G01 X9.1196 Y15.5260
G01 X9.0970 Y15.5286
G01 X8.9736 Y15.5352
G01 X8.8389 Y15.5276
G01 X8.7059 Y15.5050
G01 X8.5871 Y15.4711
G01 X8.5656 Y15.4636
G01 X8.4516 Y15.4160
G01 X8.3335 Y15.3508
G01 X8.2325 Y15.2796
G01 X8.2147 Y15.2653
G01 X8.1228 Y15.1828
G01 X8.0329 Y15.0822
G01 X7.9612 Y14.9816
G01 X7.9490 Y14.9623
G01 X7.8896 Y14.8540
G01 X7.8379 Y14.7294
G01 X7.8034 Y14.6108
G01 X7.7983 Y14.5886
G01 X7.7780 Y14.4667
G01 X7.7704 Y14.3320
G01 X7.7770 Y14.2086
G01 X7.7796 Y14.1860
G01 X7.8006 Y14.0643
G01 X7.8345 Y13.9455
G01 X7.8420 Y13.9240
G01 X7.8896 Y13.8100
G01 X7.9548 Y13.6919
G01 X8.0329 Y13.5818
G01 X8.1150 Y13.4895
G01 X8.1311 Y13.4734
G01 X8.2147 Y13.3987
G01 X8.2325 Y13.3844
G01 X8.2701 Y13.3577
G00 Z2.5400
G00 X7.6365 Y14.3206
G01 F76.20
G01 Z-0.2000
G01 F76.20
G01 X7.6365 Y14.3434
G01 X7.6292 Y14.4667
G01 X7.6089 Y14.5886
G01 X7.6038 Y14.6108
G01 X7.5727 Y14.7185
G01 X7.5652 Y14.7400
G01 X7.5176 Y14.8540
G01 X7.4524 Y14.9721
G01 X7.3743 Y15.0822
G01 X7.2844 Y15.1828
G01 X7.1838 Y15.2727
G01 X7.0832 Y15.3444
G01 X7.0639 Y15.3566
G01 X6.9658 Y15.4108
G01 X6.9452 Y15.4207
G01 X6.8310 Y15.4677
G01 X6.7013 Y15.5050
G01 X6.5683 Y15.5276
G01 X6.4336 Y15.5352
G01 X6.2989 Y15.5276
G01 X6.1659 Y15.5050
G01 X6.0362 Y15.4677
G01 X5.9220 Y15.4207
G01 X5.9014 Y15.4108
G01 X5.8033 Y15.3566
G01 X5.7840 Y15.3444
G01 X5.6834 Y15.2727
G01 X5.5828 Y15.1828
G01 X5.4929 Y15.0822
G01 X5.4148 Y14.9721
G01 X5.3496 Y14.8540
G01 X5.3020 Y14.7400
G01 X5.2945 Y14.7185
G01 X5.2634 Y14.6108
G01 X5.2583 Y14.5886
G01 X5.2380 Y14.4667
G01 X5.2304 Y14.3320
G01 X5.2380 Y14.1973
G01 X5.2583 Y14.0754
G01 X5.2634 Y14.0532
G01 X5.2945 Y13.9455
G01 X5.3020 Y13.9240
G01 X5.3496 Y13.8100
G01 X5.4148 Y13.6919
G01 X5.4929 Y13.5818
G01 X5.5828 Y13.4812
G01 X5.6834 Y13.3913
G01 X5.7840 Y13.3196
G01 X5.8033 Y13.3074
G01 X5.9014 Y13.2532
G01 X5.9220 Y13.2433
G01 X6.0362 Y13.1963
G01 X6.1659 Y13.1590
G01 X6.2989 Y13.1364
G01 X6.4336 Y13.1288
G01 X6.5683 Y13.1364
G01 X6.7013 Y13.1590
G01 X6.8310 Y13.1963
G01 X6.9452 Y13.2433
G01 X6.9658 Y13.2532
G01 X7.0639 Y13.3074
G01 X7.0832 Y13.3196
G01 X7.1838 Y13.3913
G01 X7.2844 Y13.4812
G01 X7.3743 Y13.5818
G01 X7.4460 Y13.6824
G01 X7.4582 Y13.7017
G01 X7.5124 Y13.7998
G01 X7.5223 Y13.8204
G01 X7.5693 Y13.9346
G01 X7.6066 Y14.0643
G01 X7.6292 Y14.1973
G01 X7.6365 Y14.3206
G00 Z2.5400
G00 X7.6365 Y23.4646
G01 F76.20
G01 Z-0.2000
G01 F76.20
G01 X7.6365 Y23.4874
G01 X7.6292 Y23.6107
G01 X7.6089 Y23.7326
G01 X7.6038 Y23.7548
G01 X7.5727 Y23.8625
G01 X7.5652 Y23.8840
G01 X7.5176 Y23.9980
G01 X7.4524 Y24.1161
G01 X7.3743 Y24.2262
G01 X7.2844 Y24.3268
G01 X7.1838 Y24.4167
G01 X7.0832 Y24.4884
G01 X7.0639 Y24.5006
G01 X6.9658 Y24.5548
G01 X6.9452 Y24.5647
G01 X6.8310 Y24.6117
G01 X6.7013 Y24.6490
G01 X6.5683 Y24.6716
G01 X6.4336 Y24.6792
G01 X6.2989 Y24.6716
G01 X6.1659 Y24.6490
G01 X6.0362 Y24.6117
G01 X5.9220 Y24.5647
G01 X5.9014 Y24.5548
G01 X5.8033 Y24.5006
G01 X5.7840 Y24.4884
G01 X5.6834 Y24.4167
G01 X5.5828 Y24.3268
G01 X5.4929 Y24.2262
G01 X5.4148 Y24.1161
G01 X5.3496 Y23.9980
G01 X5.3020 Y23.8840
G01 X5.2945 Y23.8625
G01 X5.2634 Y23.7548
G01 X5.2583 Y23.7326
G01 X5.2380 Y23.6107
G01 X5.2304 Y23.4760
G01 X5.2380 Y23.3413
G01 X5.2583 Y23.2194
G01 X5.2634 Y23.1972
G01 X5.2945 Y23.0895
G01 X5.3020 Y23.0680
G01 X5.3496 Y22.9540
G01 X5.4148 Y22.8359
G01 X5.4929 Y22.7258
G01 X5.5828 Y22.6252
G01 X5.6834 Y22.5353
G01 X5.7840 Y22.4636
G01 X5.8033 Y22.4514
G01 X5.9014 Y22.3972
G01 X5.9220 Y22.3873
G01 X6.0362 Y22.3403
G01 X6.1659 Y22.3030
G01 X6.2989 Y22.2804
G01 X6.4336 Y22.2728
G01 X6.5683 Y22.2804
G01 X6.7013 Y22.3030
G01 X6.8310 Y22.3403
G01 X6.9452 Y22.3873
G01 X6.9658 Y22.3972
G01 X7.0639 Y22.4514
G01 X7.0832 Y22.4636
G01 X7.1838 Y22.5353
G01 X7.2844 Y22.6252
G01 X7.3743 Y22.7258
G01 X7.4460 Y22.8264
G01 X7.4582 Y22.8457
G01 X7.5124 Y22.9438
G01 X7.5223 Y22.9644
G01 X7.5693 Y23.0786
G01 X7.6066 Y23.2083
G01 X7.6292 Y23.3413
G01 X7.6365 Y23.4646
G00 Z2.5400
G00 X10.1765 Y23.4646
G01 F76.20
G01 Z-0.2000
G01 F76.20
G01 X10.1765 Y23.4874
G01 X10.1692 Y23.6107
G01 X10.1489 Y23.7326
G01 X10.1438 Y23.7548
G01 X10.1127 Y23.8625
G01 X10.1052 Y23.8840
G01 X10.0576 Y23.9980
G01 X9.9924 Y24.1161
G01 X9.9143 Y24.2262
G01 X9.8244 Y24.3268
G01 X9.7238 Y24.4167
G01 X9.6232 Y24.4884
G01 X9.6039 Y24.5006
G01 X9.5058 Y24.5548
G01 X9.4852 Y24.5647
G01 X9.3710 Y24.6117
G01 X9.2413 Y24.6490
G01 X9.1083 Y24.6716
G01 X8.9736 Y24.6792
G01 X8.8389 Y24.6716
G01 X8.7059 Y24.6490
G01 X8.5762 Y24.6117
G01 X8.4620 Y24.5647
G01 X8.4414 Y24.5548
G01 X8.3433 Y24.5006
G01 X8.3240 Y24.4884
G01 X8.2234 Y24.4167
G01 X8.1228 Y24.3268
G01 X8.0329 Y24.2262
G01 X7.9548 Y24.1161
G01 X7.8896 Y23.9980
G01 X7.8420 Y23.8840
G01 X7.8345 Y23.8625
G01 X7.8034 Y23.7548
G01 X7.7983 Y23.7326
G01 X7.7780 Y23.6107
G01 X7.7704 Y23.4760
G01 X7.7780 Y23.3413
G01 X7.7983 Y23.2194
G01 X7.8034 Y23.1972
G01 X7.8345 Y23.0895
G01 X7.8420 Y23.0680
G01 X7.8896 Y22.9540
G01 X7.9548 Y22.8359
G01 X8.0329 Y22.7258
G01 X8.1228 Y22.6252
G01 X8.2234 Y22.5353
G01 X8.3240 Y22.4636
G01 X8.3433 Y22.4514
G01 X8.4414 Y22.3972
G01 X8.4620 Y22.3873
G01 X8.5762 Y22.3403
G01 X8.7059 Y22.3030
G01 X8.8389 Y22.2804
G01 X8.9736 Y22.2728
G01 X9.1083 Y22.2804
G01 X9.2413 Y22.3030
G01 X9.3710 Y22.3403
G01 X9.4852 Y22.3873
G01 X9.5058 Y22.3972
G01 X9.6039 Y22.4514
G01 X9.6232 Y22.4636
G01 X9.7238 Y22.5353
G01 X9.8244 Y22.6252
G01 X9.9143 Y22.7258
G01 X9.9860 Y22.8264
G01 X9.9982 Y22.8457
G01 X10.0524 Y22.9438
G01 X10.0623 Y22.9644
G01 X10.1093 Y23.0786
G01 X10.1466 Y23.2083
G01 X10.1692 Y23.3413
G01 X10.1765 Y23.4646
G00 Z2.5400
G00 X10.8101 Y24.4503
G01 F76.20
G01 Z-0.2000
G01 F76.20
G01 X10.7725 Y24.4236
G01 X10.7547 Y24.4093
G01 X10.6711 Y24.3346
G01 X10.6550 Y24.3185
G01 X10.5729 Y24.2262
G01 X10.5012 Y24.1256
G01 X10.4890 Y24.1063
G01 X10.4296 Y23.9980
G01 X10.3779 Y23.8734
G01 X10.3406 Y23.7437
G01 X10.3180 Y23.6107
G01 X10.3104 Y23.4760
G01 X10.3180 Y23.3413
G01 X10.3406 Y23.2083
G01 X10.3745 Y23.0895
G01 X10.3820 Y23.0680
G01 X10.4249 Y22.9644
G01 X10.4348 Y22.9438
G01 X10.4948 Y22.8359
G01 X10.5729 Y22.7258
G01 X10.6628 Y22.6252
G01 X10.7634 Y22.5353
G01 X10.8735 Y22.4572
G01 X10.9814 Y22.3972
G01 X11.0020 Y22.3873
G01 X11.1056 Y22.3444
G01 X11.1271 Y22.3369
G01 X11.2459 Y22.3030
G01 X11.3789 Y22.2804
G01 X11.5136 Y22.2728
G01 X11.6483 Y22.2804
G01 X11.7813 Y22.3030
G01 X11.9001 Y22.3369
G01 X11.9216 Y22.3444
G01 X12.0252 Y22.3873
G01 X12.0458 Y22.3972
G01 X12.1537 Y22.4572
G01 X12.2638 Y22.5353
G01 X12.3644 Y22.6252
G01 X12.4543 Y22.7258
G01 X12.5324 Y22.8359
G01 X12.5976 Y22.9540
G01 X12.6493 Y23.0786
G01 X12.6866 Y23.2083
G01 X12.7092 Y23.3413
G01 X12.7168 Y23.4760
G01 X12.7092 Y23.6107
G01 X12.6866 Y23.7437
G01 X12.6493 Y23.8734
G01 X12.5976 Y23.9980
G01 X12.5324 Y24.1161
G01 X12.4543 Y24.2262
G01 X12.3722 Y24.3185
G01 X12.3561 Y24.3346
G01 X12.2638 Y24.4167
G01 X12.2171 Y24.4503
G01 X12.2171 Y26.7406
G01 X14.0508 Y28.5749
G01 X14.0956 Y28.6254
G01 X14.1349 Y28.6803
G01 X14.1470 Y28.6996
G01 X14.1794 Y28.7588
G01 X14.2096 Y28.8317
G01 X14.2286 Y28.8964
G01 X14.2336 Y28.9186
G01 X14.2446 Y28.9852
G01 X14.2491 Y29.0640
G01 X14.2491 Y43.3297
G01 X14.2958 Y43.3633
G01 X14.3881 Y43.4454
G01 X14.4042 Y43.4615
G01 X14.4863 Y43.5538
G01 X14.5644 Y43.6639
G01 X14.6296 Y43.7820
G01 X14.6813 Y43.9066
G01 X14.7186 Y44.0363
G01 X14.7412 Y44.1693
G01 X14.7485 Y44.2926
G01 X14.7485 Y44.3154
G01 X14.7412 Y44.4387
G01 X14.7186 Y44.5717
G01 X14.6813 Y44.7014
G01 X14.6343 Y44.8156
G01 X14.6244 Y44.8362
G01 X14.5702 Y44.9343
G01 X14.5580 Y44.9536
G01 X14.4863 Y45.0542
G01 X14.4042 Y45.1465
G01 X14.3881 Y45.1626
G01 X14.3045 Y45.2373
G01 X14.2867 Y45.2516
G01 X14.1857 Y45.3228
G01 X14.0676 Y45.3880
G01 X13.9430 Y45.4397
G01 X13.8244 Y45.4742
G01 X13.8022 Y45.4793
G01 X13.6803 Y45.4996
G01 X13.5456 Y45.5072
G01 X13.4109 Y45.4996
G01 X13.2779 Y45.4770
G01 X13.1591 Y45.4431
G01 X13.1376 Y45.4356
G01 X13.0340 Y45.3927
G01 X13.0134 Y45.3828
G01 X12.9055 Y45.3228
G01 X12.8045 Y45.2516
G01 X12.7867 Y45.2373
G01 X12.6948 Y45.1548
G01 X12.6049 Y45.0542
G01 X12.5268 Y44.9441
G01 X12.4616 Y44.8260
G01 X12.4099 Y44.7014
G01 X12.3726 Y44.5717
G01 X12.3500 Y44.4387
G01 X12.3427 Y44.3154
G01 X12.3427 Y44.2926
G01 X12.3500 Y44.1693
G01 X12.3726 Y44.0363
G01 X12.4099 Y43.9066
G01 X12.4616 Y43.7820
G01 X12.5268 Y43.6639
G01 X12.6049 Y43.5538
G01 X12.6870 Y43.4615
G01 X12.7031 Y43.4454
G01 X12.7954 Y43.3633
G01 X12.8421 Y43.3297
G01 X12.8421 Y29.3554
G01 X11.0122 Y27.5253
G01 X10.9636 Y27.4706
G01 X10.9243 Y27.4157
G01 X10.9122 Y27.3964
G01 X10.8850 Y27.3473
G01 X10.8752 Y27.3268
G01 X10.8496 Y27.2643
G01 X10.8278 Y27.1885
G01 X10.8146 Y27.1108
G01 X10.8102 Y27.0377
G01 X10.8101 Y24.4503
G00 Z2.5400
G00 X18.8125 Y23.4646
G01 F76.20
G01 Z-0.2000
G01 F76.20
G01 X18.8125 Y23.4874
G01 X18.8062 Y23.5994
G01 X18.8036 Y23.6220
G01 X18.7826 Y23.7437
G01 X18.7487 Y23.8625
G01 X18.7412 Y23.8840
G01 X18.6936 Y23.9980
G01 X18.6284 Y24.1161
G01 X18.5503 Y24.2262
G01 X18.4604 Y24.3268
G01 X18.3598 Y24.4167
G01 X18.2592 Y24.4884
G01 X18.2399 Y24.5006
G01 X18.1418 Y24.5548
G01 X18.1212 Y24.5647
G01 X18.0070 Y24.6117
G01 X17.8773 Y24.6490
G01 X17.7443 Y24.6716
G01 X17.6096 Y24.6792
G01 X17.4749 Y24.6716
G01 X17.3419 Y24.6490
G01 X17.2122 Y24.6117
G01 X17.0980 Y24.5647
G01 X17.0774 Y24.5548
G01 X16.9793 Y24.5006
G01 X16.9600 Y24.4884
G01 X16.8594 Y24.4167
G01 X16.7588 Y24.3268
G01 X16.6689 Y24.2262
G01 X16.5908 Y24.1161
G01 X16.5256 Y23.9980
G01 X16.4780 Y23.8840
G01 X16.4705 Y23.8625
G01 X16.4394 Y23.7548
G01 X16.4343 Y23.7326
G01 X16.4140 Y23.6107
G01 X16.4064 Y23.4760
G01 X16.4140 Y23.3413
G01 X16.4343 Y23.2194
G01 X16.4394 Y23.1972
G01 X16.4705 Y23.0895
G01 X16.4780 Y23.0680
G01 X16.5256 Y22.9540
G01 X16.5908 Y22.8359
G01 X16.6689 Y22.7258
G01 X16.7588 Y22.6252
G01 X16.8594 Y22.5353
G01 X16.9600 Y22.4636
G01 X16.9793 Y22.4514
G01 X17.0774 Y22.3972
G01 X17.0980 Y22.3873
G01 X17.2122 Y22.3403
G01 X17.3419 Y22.3030
G01 X17.4749 Y22.2804
G01 X17.6096 Y22.2728
G01 X17.7443 Y22.2804
G01 X17.8662 Y22.3007
G01 X17.8884 Y22.3058
G01 X17.9961 Y22.3369
G01 X18.0176 Y22.3444
G01 X18.1316 Y22.3920
G01 X18.2497 Y22.4572
G01 X18.3598 Y22.5353
G01 X18.4604 Y22.6252
G01 X18.5503 Y22.7258
G01 X18.6220 Y22.8264
G01 X18.6342 Y22.8457
G01 X18.6884 Y22.9438
G01 X18.6983 Y22.9644
G01 X18.7453 Y23.0786
G01 X18.7826 Y23.2083
G01 X18.8052 Y23.3413
G01 X18.8125 Y23.4646
G00 Z2.5400
G00 X21.3525 Y23.4646
G01 F76.20
G01 Z-0.2000
G01 F76.20
G01 X21.3525 Y23.4874
G01 X21.3462 Y23.5994
G01 X21.3436 Y23.6220
G01 X21.3226 Y23.7437
G01 X21.2887 Y23.8625
G01 X21.2812 Y23.8840
G01 X21.2336 Y23.9980
G01 X21.1684 Y24.1161
G01 X21.0903 Y24.2262
G01 X21.0004 Y24.3268
G01 X20.8998 Y24.4167
G01 X20.7992 Y24.4884
G01 X20.7799 Y24.5006
G01 X20.6818 Y24.5548
G01 X20.6612 Y24.5647
G01 X20.5470 Y24.6117
G01 X20.4173 Y24.6490
G01 X20.2843 Y24.6716
G01 X20.1496 Y24.6792
G01 X20.0149 Y24.6716
G01 X19.8930 Y24.6513
G01 X19.8708 Y24.6462
G01 X19.7631 Y24.6151
G01 X19.7416 Y24.6076
G01 X19.6276 Y24.5600
G01 X19.5095 Y24.4948
G01 X19.3994 Y24.4167
G01 X19.2988 Y24.3268
G01 X19.2089 Y24.2262
G01 X19.1372 Y24.1256
G01 X19.1250 Y24.1063
G01 X19.0708 Y24.0082
G01 X19.0609 Y23.9876
G01 X19.0139 Y23.8734
G01 X18.9766 Y23.7437
G01 X18.9540 Y23.6107
G01 X18.9464 Y23.4760
G01 X18.9540 Y23.3413
G01 X18.9743 Y23.2194
G01 X18.9794 Y23.1972
G01 X19.0105 Y23.0895
G01 X19.0180 Y23.0680
G01 X19.0656 Y22.9540
G01 X19.1308 Y22.8359
G01 X19.2089 Y22.7258
G01 X19.2988 Y22.6252
G01 X19.3994 Y22.5353
G01 X19.5000 Y22.4636
G01 X19.5193 Y22.4514
G01 X19.6174 Y22.3972
G01 X19.6380 Y22.3873
G01 X19.7522 Y22.3403
G01 X19.8819 Y22.3030
G01 X20.0149 Y22.2804
G01 X20.1496 Y22.2728
G01 X20.2843 Y22.2804
G01 X20.4062 Y22.3007
G01 X20.4284 Y22.3058
G01 X20.5361 Y22.3369
G01 X20.5576 Y22.3444
G01 X20.6716 Y22.3920
G01 X20.7897 Y22.4572
G01 X20.8998 Y22.5353
G01 X21.0004 Y22.6252
G01 X21.0903 Y22.7258
G01 X21.1620 Y22.8264
G01 X21.1742 Y22.8457
G01 X21.2284 Y22.9438
G01 X21.2383 Y22.9644
G01 X21.2853 Y23.0786
G01 X21.3226 Y23.2083
G01 X21.3452 Y23.3413
G01 X21.3525 Y23.4646
G00 Z2.5400
G00 X25.7226 Y26.6162
G01 F76.20
G01 Z-0.2000
G01 F76.20
G01 X25.7084 Y26.5984
G01 X25.6565 Y26.5252
G01 X25.6444 Y26.5059
G01 X25.5957 Y26.4173
G01 X25.5568 Y26.3240
G01 X25.5492 Y26.3025
G01 X25.5216 Y26.2052
G01 X25.5027 Y26.0943
G01 X25.4964 Y25.9820
G01 X25.5027 Y25.8697
G01 X25.5216 Y25.7588
G01 X25.5492 Y25.6615
G01 X25.5568 Y25.6400
G01 X25.5911 Y25.5571
G01 X25.6010 Y25.5366
G01 X25.6502 Y25.4483
G01 X25.7153 Y25.3565
G01 X25.7902 Y25.2726
G01 X25.8741 Y25.1977
G01 X25.9659 Y25.1326
G01 X26.0542 Y25.0834
G01 X26.0747 Y25.0735
G01 X26.1576 Y25.0392
G01 X26.1791 Y25.0316
G01 X26.2764 Y25.0040
G01 X26.3873 Y24.9851
G01 X26.4996 Y24.9788
G01 X26.6119 Y24.9851
G01 X26.7228 Y25.0040
G01 X26.8309 Y25.0351
G01 X26.9349 Y25.0781
G01 X27.0235 Y25.1268
G01 X27.0428 Y25.1389
G01 X27.1160 Y25.1908
G01 X27.1338 Y25.2050
G01 X27.2090 Y25.2726
G01 X27.2839 Y25.3565
G01 X27.3490 Y25.4483
G01 X27.3982 Y25.5366
G01 X27.4081 Y25.5571
G01 X27.4424 Y25.6400
G01 X27.4500 Y25.6615
G01 X27.4776 Y25.7588
G01 X27.4965 Y25.8697
G01 X27.5028 Y25.9820
G01 X27.4965 Y26.0943
G01 X27.4776 Y26.2052
G01 X27.4500 Y26.3025
G01 X27.4424 Y26.3240
G01 X27.4081 Y26.4069
G01 X27.3982 Y26.4274
G01 X27.3490 Y26.5157
G01 X27.2839 Y26.6075
G01 X27.2090 Y26.6914
G01 X27.1251 Y26.7663
G01 X27.0333 Y26.8314
G01 X26.9349 Y26.8859
G01 X26.8309 Y26.9289
G01 X26.7339 Y26.9572
G01 X26.7117 Y26.9623
G01 X26.6232 Y26.9773
G01 X26.6006 Y26.9799
G01 X26.4996 Y26.9852
G01 X26.3873 Y26.9789
G01 X26.2764 Y26.9600
G01 X26.1791 Y26.9324
G01 X26.1576 Y26.9248
G01 X26.0747 Y26.8905
G01 X26.0542 Y26.8806
G01 X25.9659 Y26.8314
G01 X25.8741 Y26.7663
G01 X25.7902 Y26.6914
G01 X25.7226 Y26.6162
G00 Z2.5400
G00 X19.2163 Y33.3789
G01 F76.20
G01 Z-0.2000
G01 F76.20
G01 X19.2020 Y33.3611
G01 X19.1372 Y33.2696
G01 X19.1250 Y33.2503
G01 X19.0656 Y33.1420
G01 X19.0180 Y33.0280
G01 X19.0105 Y33.0065
G01 X18.9766 Y32.8877
G01 X18.9540 Y32.7547
G01 X18.9464 Y32.6200
G01 X18.9540 Y32.4853
G01 X18.9766 Y32.3523
G01 X19.0105 Y32.2335
G01 X19.0180 Y32.2120
G01 X19.0609 Y32.1084
G01 X19.0708 Y32.0878
G01 X19.1308 Y31.9799
G01 X19.2089 Y31.8698
G01 X19.2988 Y31.7692
G01 X19.3994 Y31.6793
G01 X19.5095 Y31.6012
G01 X19.6276 Y31.5360
G01 X19.7522 Y31.4843
G01 X19.8708 Y31.4498
G01 X19.8930 Y31.4447
G01 X20.0036 Y31.4260
G01 X20.0262 Y31.4234
G01 X20.1496 Y31.4168
G01 X20.2843 Y31.4244
G01 X20.4173 Y31.4470
G01 X20.5361 Y31.4809
G01 X20.5576 Y31.4884
G01 X20.6612 Y31.5313
G01 X20.6818 Y31.5412
G01 X20.7897 Y31.6012
G01 X20.8998 Y31.6793
G01 X21.0004 Y31.7692
G01 X21.0903 Y31.8698
G01 X21.1684 Y31.9799
G01 X21.2284 Y32.0878
G01 X21.2383 Y32.1084
G01 X21.2812 Y32.2120
G01 X21.2887 Y32.2335
G01 X21.3226 Y32.3523
G01 X21.3452 Y32.4853
G01 X21.3528 Y32.6200
G01 X21.3452 Y32.7547
G01 X21.3226 Y32.8877
G01 X21.2887 Y33.0065
G01 X21.2812 Y33.0280
G01 X21.2383 Y33.1316
G01 X21.2284 Y33.1522
G01 X21.1684 Y33.2601
G01 X21.0903 Y33.3702
G01 X21.0004 Y33.4708
G01 X20.8998 Y33.5607
G01 X20.7897 Y33.6388
G01 X20.6716 Y33.7040
G01 X20.5470 Y33.7557
G01 X20.4284 Y33.7902
G01 X20.4062 Y33.7953
G01 X20.2956 Y33.8140
G01 X20.2730 Y33.8166
G01 X20.1496 Y33.8232
G01 X20.0149 Y33.8156
G01 X19.8819 Y33.7930
G01 X19.7631 Y33.7591
G01 X19.7416 Y33.7516
G01 X19.6380 Y33.7087
G01 X19.6174 Y33.6988
G01 X19.5095 Y33.6388
G01 X19.3994 Y33.5607
G01 X19.2988 Y33.4708
G01 X19.2163 Y33.3789
G00 Z2.5400
G00 X18.4682 Y33.4625
G01 F76.20
G01 Z-0.2000
G01 F76.20
G01 X18.4521 Y33.4786
G01 X18.3598 Y33.5607
G01 X18.2592 Y33.6324
G01 X18.2399 Y33.6446
G01 X18.1418 Y33.6988
G01 X18.1212 Y33.7087
G01 X18.0070 Y33.7557
G01 X17.8773 Y33.7930
G01 X17.7443 Y33.8156
G01 X17.6096 Y33.8232
G01 X17.4749 Y33.8156
G01 X17.3530 Y33.7953
G01 X17.3308 Y33.7902
G01 X17.2231 Y33.7591
G01 X17.2016 Y33.7516
G01 X17.0876 Y33.7040
G01 X16.9695 Y33.6388
G01 X16.8594 Y33.5607
G01 X16.7588 Y33.4708
G01 X16.6689 Y33.3702
G01 X16.5972 Y33.2696
G01 X16.5850 Y33.2503
G01 X16.5308 Y33.1522
G01 X16.5209 Y33.1316
G01 X16.4739 Y33.0174
G01 X16.4366 Y32.8877
G01 X16.4140 Y32.7547
G01 X16.4064 Y32.6200
G01 X16.4140 Y32.4853
G01 X16.4343 Y32.3634
G01 X16.4394 Y32.3412
G01 X16.4705 Y32.2335
G01 X16.4780 Y32.2120
G01 X16.5256 Y32.0980
G01 X16.5908 Y31.9799
G01 X16.6689 Y31.8698
G01 X16.7588 Y31.7692
G01 X16.8594 Y31.6793
G01 X16.9600 Y31.6076
G01 X16.9793 Y31.5954
G01 X17.0774 Y31.5412
G01 X17.0980 Y31.5313
G01 X17.2122 Y31.4843
G01 X17.3419 Y31.4470
G01 X17.4749 Y31.4244
G01 X17.6096 Y31.4168
G01 X17.7443 Y31.4244
G01 X17.8662 Y31.4447
G01 X17.8884 Y31.4498
G01 X17.9961 Y31.4809
G01 X18.0176 Y31.4884
G01 X18.1316 Y31.5360
G01 X18.2497 Y31.6012
G01 X18.3598 Y31.6793
G01 X18.4604 Y31.7692
G01 X18.5503 Y31.8698
G01 X18.6220 Y31.9704
G01 X18.6342 Y31.9897
G01 X18.6884 Y32.0878
G01 X18.6983 Y32.1084
G01 X18.7453 Y32.2226
G01 X18.7826 Y32.3523
G01 X18.8052 Y32.4853
G01 X18.8128 Y32.6200
G01 X18.8052 Y32.7547
G01 X18.7849 Y32.8766
G01 X18.7798 Y32.8988
G01 X18.7487 Y33.0065
G01 X18.7412 Y33.0280
G01 X18.6936 Y33.1420
G01 X18.6284 Y33.2601
G01 X18.5503 Y33.3702
G01 X18.4682 Y33.4625
G00 Z2.5400
G00 X12.7165 Y32.6086
G01 F76.20
G01 Z-0.2000
G01 F76.20
G01 X12.7165 Y32.6314
G01 X12.7092 Y32.7547
G01 X12.6889 Y32.8766
G01 X12.6838 Y32.8988
G01 X12.6527 Y33.0065
G01 X12.6452 Y33.0280
G01 X12.5976 Y33.1420
G01 X12.5324 Y33.2601
G01 X12.4543 Y33.3702
G01 X12.3644 Y33.4708
G01 X12.2638 Y33.5607
G01 X12.1632 Y33.6324
G01 X12.1439 Y33.6446
G01 X12.0458 Y33.6988
G01 X12.0252 Y33.7087
G01 X11.9110 Y33.7557
G01 X11.7813 Y33.7930
G01 X11.6483 Y33.8156
G01 X11.5136 Y33.8232
G01 X11.3789 Y33.8156
G01 X11.2570 Y33.7953
G01 X11.2348 Y33.7902
G01 X11.1271 Y33.7591
G01 X11.1056 Y33.7516
G01 X10.9916 Y33.7040
G01 X10.8735 Y33.6388
G01 X10.7634 Y33.5607
G01 X10.6628 Y33.4708
G01 X10.5729 Y33.3702
G01 X10.5012 Y33.2696
G01 X10.4890 Y33.2503
G01 X10.4348 Y33.1522
G01 X10.4249 Y33.1316
G01 X10.3779 Y33.0174
G01 X10.3406 Y32.8877
G01 X10.3180 Y32.7547
G01 X10.3104 Y32.6200
G01 X10.3180 Y32.4853
G01 X10.3383 Y32.3634
G01 X10.3434 Y32.3412
G01 X10.3745 Y32.2335
G01 X10.3820 Y32.2120
G01 X10.4296 Y32.0980
G01 X10.4948 Y31.9799
G01 X10.5729 Y31.8698
G01 X10.6628 Y31.7692
G01 X10.7634 Y31.6793
G01 X10.8640 Y31.6076
G01 X10.8833 Y31.5954
G01 X10.9814 Y31.5412
G01 X11.0020 Y31.5313
G01 X11.1162 Y31.4843
G01 X11.2459 Y31.4470
G01 X11.3789 Y31.4244
G01 X11.5136 Y31.4168
G01 X11.6483 Y31.4244
G01 X11.7702 Y31.4447
G01 X11.7924 Y31.4498
G01 X11.9001 Y31.4809
G01 X11.9216 Y31.4884
G01 X12.0356 Y31.5360
G01 X12.1537 Y31.6012
G01 X12.2638 Y31.6793
G01 X12.3644 Y31.7692
G01 X12.4543 Y31.8698
G01 X12.5260 Y31.9704
G01 X12.5382 Y31.9897
G01 X12.5924 Y32.0878
G01 X12.6023 Y32.1084
G01 X12.6493 Y32.2226
G01 X12.6866 Y32.3523
G01 X12.7092 Y32.4853
G01 X12.7165 Y32.6086
G00 Z2.5400
G00 X10.1765 Y32.6086
G01 F76.20
G01 Z-0.2000
G01 F76.20
G01 X10.1765 Y32.6314
G01 X10.1692 Y32.7547
G01 X10.1489 Y32.8766
G01 X10.1438 Y32.8988
G01 X10.1127 Y33.0065
G01 X10.1052 Y33.0280
G01 X10.0576 Y33.1420
G01 X9.9924 Y33.2601
G01 X9.9143 Y33.3702
G01 X9.8244 Y33.4708
G01 X9.7238 Y33.5607
G01 X9.6232 Y33.6324
G01 X9.6039 Y33.6446
G01 X9.5058 Y33.6988
G01 X9.4852 Y33.7087
G01 X9.3710 Y33.7557
G01 X9.2413 Y33.7930
G01 X9.1083 Y33.8156
G01 X8.9736 Y33.8232
G01 X8.8389 Y33.8156
G01 X8.7170 Y33.7953
G01 X8.6948 Y33.7902
G01 X8.5871 Y33.7591
G01 X8.5656 Y33.7516
G01 X8.4516 Y33.7040
G01 X8.3335 Y33.6388
G01 X8.2234 Y33.5607
G01 X8.1228 Y33.4708
G01 X8.0329 Y33.3702
G01 X7.9612 Y33.2696
G01 X7.9490 Y33.2503
G01 X7.8948 Y33.1522
G01 X7.8849 Y33.1316
G01 X7.8379 Y33.0174
G01 X7.8006 Y32.8877
G01 X7.7780 Y32.7547
G01 X7.7704 Y32.6200
G01 X7.7780 Y32.4853
G01 X7.7983 Y32.3634
G01 X7.8034 Y32.3412
G01 X7.8345 Y32.2335
G01 X7.8420 Y32.2120
G01 X7.8896 Y32.0980
G01 X7.9548 Y31.9799
G01 X8.0329 Y31.8698
G01 X8.1228 Y31.7692
G01 X8.2234 Y31.6793
G01 X8.3240 Y31.6076
G01 X8.3433 Y31.5954
G01 X8.4414 Y31.5412
G01 X8.4620 Y31.5313
G01 X8.5762 Y31.4843
G01 X8.7059 Y31.4470
G01 X8.8389 Y31.4244
G01 X8.9736 Y31.4168
G01 X9.1083 Y31.4244
G01 X9.2302 Y31.4447
G01 X9.2524 Y31.4498
G01 X9.3601 Y31.4809
G01 X9.3816 Y31.4884
G01 X9.4956 Y31.5360
G01 X9.6137 Y31.6012
G01 X9.7238 Y31.6793
G01 X9.8244 Y31.7692
G01 X9.9143 Y31.8698
G01 X9.9860 Y31.9704
G01 X9.9982 Y31.9897
G01 X10.0524 Y32.0878
G01 X10.0623 Y32.1084
G01 X10.1093 Y32.2226
G01 X10.1466 Y32.3523
G01 X10.1692 Y32.4853
G01 X10.1765 Y32.6086
G00 Z2.5400
G00 X1.6665 Y26.0274
G01 F76.20
G01 Z-0.2000
G01 F76.20
G01 X1.6662 Y23.4703
G01 X1.6706 Y23.3972
G01 X1.6838 Y23.3195
G01 X1.7056 Y23.2437
G01 X1.7312 Y23.1812
G01 X1.7410 Y23.1607
G01 X1.7740 Y23.1017
G01 X1.8128 Y23.0465
G01 X1.8270 Y23.0287
G01 X1.8722 Y22.9786
G01 X4.9202 Y19.9306
G01 X4.9790 Y19.8780
G01 X5.0339 Y19.8387
G01 X5.0532 Y19.8266
G01 X5.1023 Y19.7994
G01 X5.1228 Y19.7896
G01 X5.1853 Y19.7640
G01 X5.2611 Y19.7422
G01 X5.3388 Y19.7290
G01 X5.4119 Y19.7246
G01 X10.2062 Y19.7245
G01 X13.8581 Y16.0726
G01 X13.8581 Y13.3160
G01 X13.8626 Y13.2372
G01 X13.8736 Y13.1706
G01 X13.8786 Y13.1484
G01 X13.8976 Y13.0837
G01 X13.9278 Y13.0108
G01 X13.9602 Y12.9516
G01 X13.9723 Y12.9323
G01 X14.0116 Y12.8774
G01 X14.0564 Y12.8269
G01 X14.0725 Y12.8108
G01 X14.1143 Y12.7734
G01 X14.1321 Y12.7592
G01 X14.1873 Y12.7204
G01 X14.2564 Y12.6822
G01 X14.3293 Y12.6520
G01 X14.4051 Y12.6302
G01 X14.4828 Y12.6170
G01 X14.5502 Y12.6129
G01 X14.5730 Y12.6129
G01 X14.6404 Y12.6170
G01 X14.7070 Y12.6280
G01 X14.7292 Y12.6330
G01 X14.7831 Y12.6486
G01 X14.8046 Y12.6561
G01 X14.8668 Y12.6822
G01 X14.9359 Y12.7204
G01 X15.0002 Y12.7660
G01 X15.0590 Y12.8186
G01 X15.1116 Y12.8774
G01 X15.1509 Y12.9323
G01 X15.1630 Y12.9516
G01 X15.1902 Y13.0007
G01 X15.2000 Y13.0212
G01 X15.2256 Y13.0837
G01 X15.2474 Y13.1595
G01 X15.2606 Y13.2372
G01 X15.2650 Y13.3103
G01 X15.2650 Y16.3697
G01 X15.2606 Y16.4428
G01 X15.2474 Y16.5205
G01 X15.2256 Y16.5963
G01 X15.1954 Y16.6692
G01 X15.1630 Y16.7284
G01 X15.1509 Y16.7477
G01 X15.1116 Y16.8026
G01 X15.0590 Y16.8614
G01 X10.9867 Y20.9332
G01 X10.9362 Y20.9780
G01 X10.8719 Y21.0236
G01 X10.8028 Y21.0618
G01 X10.7406 Y21.0879
G01 X10.7191 Y21.0954
G01 X10.6652 Y21.1110
G01 X10.6430 Y21.1160
G01 X10.5764 Y21.1270
G01 X10.5033 Y21.1314
G01 X5.7090 Y21.1315
G01 X3.0731 Y23.7674
G01 X3.0731 Y25.7246
G01 X6.9310 Y29.5826
G01 X6.9836 Y29.6414
G01 X7.0229 Y29.6963
G01 X7.0350 Y29.7156
G01 X7.0622 Y29.7647
G01 X7.0720 Y29.7852
G01 X7.0976 Y29.8477
G01 X7.1194 Y29.9235
G01 X7.1326 Y30.0012
G01 X7.1370 Y30.0743
G01 X7.1371 Y31.6457
G01 X7.1838 Y31.6793
G01 X7.2761 Y31.7614
G01 X7.2922 Y31.7775
G01 X7.3743 Y31.8698
G01 X7.4524 Y31.9799
G01 X7.5176 Y32.0980
G01 X7.5693 Y32.2226
G01 X7.6066 Y32.3523
G01 X7.6292 Y32.4853
G01 X7.6368 Y32.6200
G01 X7.6292 Y32.7547
G01 X7.6066 Y32.8877
G01 X7.5693 Y33.0174
G01 X7.5176 Y33.1420
G01 X7.4524 Y33.2601
G01 X7.3743 Y33.3702
G01 X7.2844 Y33.4708
G01 X7.1925 Y33.5533
G01 X7.1747 Y33.5676
G01 X7.0737 Y33.6388
G01 X6.9556 Y33.7040
G01 X6.8310 Y33.7557
G01 X6.7124 Y33.7902
G01 X6.6902 Y33.7953
G01 X6.5796 Y33.8140
G01 X6.5570 Y33.8166
G01 X6.4336 Y33.8232
G01 X6.2989 Y33.8156
G01 X6.1659 Y33.7930
G01 X6.0362 Y33.7557
G01 X5.9116 Y33.7040
G01 X5.8033 Y33.6446
G01 X5.7840 Y33.6324
G01 X5.6925 Y33.5676
G01 X5.6747 Y33.5533
G01 X5.5828 Y33.4708
G01 X5.5003 Y33.3789
G01 X5.4860 Y33.3611
G01 X5.4148 Y33.2601
G01 X5.3548 Y33.1522
G01 X5.3449 Y33.1316
G01 X5.3020 Y33.0280
G01 X5.2945 Y33.0065
G01 X5.2606 Y32.8877
G01 X5.2380 Y32.7547
G01 X5.2304 Y32.6200
G01 X5.2370 Y32.4966
G01 X5.2396 Y32.4740
G01 X5.2606 Y32.3523
G01 X5.2979 Y32.2226
G01 X5.3496 Y32.0980
G01 X5.4090 Y31.9897
G01 X5.4212 Y31.9704
G01 X5.4929 Y31.8698
G01 X5.5750 Y31.7775
G01 X5.5911 Y31.7614
G01 X5.6747 Y31.6867
G01 X5.6925 Y31.6724
G01 X5.7301 Y31.6457
G01 X5.7301 Y30.3714
G01 X1.8682 Y26.5093
G01 X1.8196 Y26.4546
G01 X1.7803 Y26.3997
G01 X1.7682 Y26.3804
G01 X1.7410 Y26.3313
G01 X1.7312 Y26.3108
G01 X1.7056 Y26.2483
G01 X1.6838 Y26.1725
G01 X1.6706 Y26.0948
G01 X1.6665 Y26.0274
G00 Z2.5400
G00 X6.9316 Y45.1166
G01 F76.20
G01 Z-0.2000
G01 F76.20
G01 X6.9088 Y45.1141
G01 X6.8863 Y45.1091
G01 X6.8645 Y45.1016
G01 X6.8438 Y45.0917
G01 X6.8243 Y45.0795
G01 X6.8063 Y45.0652
G01 X6.7900 Y45.0489
G01 X6.7757 Y45.0309
G01 X6.7635 Y45.0114
G01 X6.7536 Y44.9907
G01 X6.7461 Y44.9689
G01 X6.7411 Y44.9464
G01 X6.7386 Y44.9236
G01 X6.7386 Y43.1764
G01 X6.7411 Y43.1536
G01 X6.7461 Y43.1311
G01 X6.7536 Y43.1093
G01 X6.7635 Y43.0886
G01 X6.7757 Y43.0691
G01 X6.7900 Y43.0511
G01 X6.8063 Y43.0348
G01 X6.8243 Y43.0205
G01 X6.8438 Y43.0083
G01 X6.8645 Y42.9984
G01 X6.8863 Y42.9909
G01 X6.9088 Y42.9859
G01 X6.9316 Y42.9834
G01 X6.9416 Y42.9832
G01 X8.9736 Y42.9832
G01 X8.9836 Y42.9834
G01 X9.0064 Y42.9859
G01 X9.0289 Y42.9909
G01 X9.0507 Y42.9984
G01 X9.0714 Y43.0083
G01 X9.0909 Y43.0205
G01 X9.1089 Y43.0348
G01 X9.1252 Y43.0511
G01 X9.1395 Y43.0691
G01 X9.1517 Y43.0886
G01 X9.1616 Y43.1093
G01 X9.1691 Y43.1311
G01 X9.1741 Y43.1536
G01 X9.1766 Y43.1764
G01 X9.1768 Y44.9136
G01 X9.1766 Y44.9236
G01 X9.1741 Y44.9464
G01 X9.1691 Y44.9689
G01 X9.1616 Y44.9907
G01 X9.1517 Y45.0114
G01 X9.1395 Y45.0309
G01 X9.1252 Y45.0489
G01 X9.1089 Y45.0652
G01 X9.0909 Y45.0795
G01 X9.0714 Y45.0917
G01 X9.0507 Y45.1016
G01 X9.0289 Y45.1091
G01 X9.0064 Y45.1141
G01 X8.9836 Y45.1166
G01 X8.9736 Y45.1168
G01 X6.9316 Y45.1166
G00 Z2.5400
G00 X7.8052 Y47.6568
G01 F76.20
G01 Z-0.2000
G01 F76.20
G01 X7.6858 Y47.6501
G01 X7.5678 Y47.6301
G01 X7.4529 Y47.5969
G01 X7.3423 Y47.5512
G01 X7.2376 Y47.4933
G01 X7.1401 Y47.4241
G01 X7.0509 Y47.3443
G01 X6.9711 Y47.2551
G01 X6.9019 Y47.1576
G01 X6.8440 Y47.0529
G01 X6.7983 Y46.9423
G01 X6.7651 Y46.8274
G01 X6.7451 Y46.7094
G01 X6.7384 Y46.5900
G01 X6.7451 Y46.4706
G01 X6.7629 Y46.3638
G01 X6.7680 Y46.3416
G01 X6.7983 Y46.2377
G01 X6.8440 Y46.1271
G01 X6.9019 Y46.0224
G01 X6.9711 Y45.9249
G01 X7.0509 Y45.8357
G01 X7.1401 Y45.7559
G01 X7.2376 Y45.6867
G01 X7.3423 Y45.6288
G01 X7.4529 Y45.5831
G01 X7.5568 Y45.5528
G01 X7.5790 Y45.5477
G01 X7.6745 Y45.5315
G01 X7.6971 Y45.5289
G01 X7.8052 Y45.5232
G01 X8.1157 Y45.5233
G01 X8.2294 Y45.5299
G01 X8.3362 Y45.5477
G01 X8.3584 Y45.5528
G01 X8.4623 Y45.5831
G01 X8.5729 Y45.6288
G01 X8.6776 Y45.6867
G01 X8.7660 Y45.7491
G01 X8.7838 Y45.7633
G01 X8.8561 Y45.8278
G01 X8.8722 Y45.8439
G01 X8.9441 Y45.9249
G01 X9.0133 Y46.0224
G01 X9.0712 Y46.1271
G01 X9.1169 Y46.2377
G01 X9.1501 Y46.3526
G01 X9.1685 Y46.4593
G01 X9.1711 Y46.4819
G01 X9.1765 Y46.5786
G01 X9.1765 Y46.6014
G01 X9.1701 Y46.7094
G01 X9.1523 Y46.8162
G01 X9.1472 Y46.8384
G01 X9.1169 Y46.9423
G01 X9.0712 Y47.0529
G01 X9.0133 Y47.1576
G01 X8.9509 Y47.2460
G01 X8.9367 Y47.2638
G01 X8.8722 Y47.3361
G01 X8.8561 Y47.3522
G01 X8.7751 Y47.4241
G01 X8.6776 Y47.4933
G01 X8.5729 Y47.5512
G01 X8.4730 Y47.5929
G01 X8.4515 Y47.6004
G01 X8.3584 Y47.6272
G01 X8.3362 Y47.6323
G01 X8.2294 Y47.6501
G01 X8.1214 Y47.6565
G01 X7.8052 Y47.6568
G00 Z2.5400
G00 X7.8052 Y50.1968
G01 F76.20
G01 Z-0.2000
G01 F76.20
G01 X7.6858 Y50.1901
G01 X7.5678 Y50.1701
G01 X7.4529 Y50.1369
G01 X7.3423 Y50.0912
G01 X7.2376 Y50.0333
G01 X7.1401 Y49.9641
G01 X7.0509 Y49.8843
G01 X6.9711 Y49.7951
G01 X6.9019 Y49.6976
G01 X6.8440 Y49.5929
G01 X6.7983 Y49.4823
G01 X6.7651 Y49.3674
G01 X6.7451 Y49.2494
G01 X6.7384 Y49.1300
G01 X6.7451 Y49.0106
G01 X6.7629 Y48.9038
G01 X6.7680 Y48.8816
G01 X6.7983 Y48.7777
G01 X6.8440 Y48.6671
G01 X6.9019 Y48.5624
G01 X6.9711 Y48.4649
G01 X7.0509 Y48.3757
G01 X7.1401 Y48.2959
G01 X7.2376 Y48.2267
G01 X7.3423 Y48.1688
G01 X7.4529 Y48.1231
G01 X7.5568 Y48.0928
G01 X7.5790 Y48.0877
G01 X7.6745 Y48.0715
G01 X7.6971 Y48.0689
G01 X7.8052 Y48.0632
G01 X8.1157 Y48.0633
G01 X8.2294 Y48.0699
G01 X8.3362 Y48.0877
G01 X8.3584 Y48.0928
G01 X8.4623 Y48.1231
G01 X8.5729 Y48.1688
G01 X8.6776 Y48.2267
G01 X8.7660 Y48.2891
G01 X8.7838 Y48.3033
G01 X8.8561 Y48.3678
G01 X8.8722 Y48.3839
G01 X8.9441 Y48.4649
G01 X9.0133 Y48.5624
G01 X9.0712 Y48.6671
G01 X9.1169 Y48.7777
G01 X9.1501 Y48.8926
G01 X9.1685 Y48.9993
G01 X9.1711 Y49.0219
G01 X9.1765 Y49.1186
G01 X9.1765 Y49.1414
G01 X9.1701 Y49.2494
G01 X9.1523 Y49.3562
G01 X9.1472 Y49.3784
G01 X9.1169 Y49.4823
G01 X9.0712 Y49.5929
G01 X9.0133 Y49.6976
G01 X8.9509 Y49.7860
G01 X8.9367 Y49.8038
G01 X8.8722 Y49.8761
G01 X8.8561 Y49.8922
G01 X8.7751 Y49.9641
G01 X8.6776 Y50.0333
G01 X8.5729 Y50.0912
G01 X8.4730 Y50.1329
G01 X8.4515 Y50.1404
G01 X8.3584 Y50.1672
G01 X8.3362 Y50.1723
G01 X8.2294 Y50.1901
G01 X8.1214 Y50.1965
G01 X7.8052 Y50.1968
G00 Z2.5400
G00 X7.8052 Y52.7368
G01 F76.20
G01 Z-0.2000
G01 F76.20
G01 X7.6858 Y52.7301
G01 X7.5678 Y52.7101
G01 X7.4529 Y52.6769
G01 X7.3423 Y52.6312
G01 X7.2376 Y52.5733
G01 X7.1401 Y52.5041
G01 X7.0509 Y52.4243
G01 X6.9711 Y52.3351
G01 X6.9019 Y52.2376
G01 X6.8440 Y52.1329
G01 X6.7983 Y52.0223
G01 X6.7651 Y51.9074
G01 X6.7451 Y51.7894
G01 X6.7384 Y51.6700
G01 X6.7451 Y51.5506
G01 X6.7629 Y51.4438
G01 X6.7680 Y51.4216
G01 X6.7983 Y51.3177
G01 X6.8440 Y51.2071
G01 X6.9019 Y51.1024
G01 X6.9711 Y51.0049
G01 X7.0509 Y50.9157
G01 X7.1401 Y50.8359
G01 X7.2376 Y50.7667
G01 X7.3423 Y50.7088
G01 X7.4529 Y50.6631
G01 X7.5568 Y50.6328
G01 X7.5790 Y50.6277
G01 X7.6745 Y50.6115
G01 X7.6971 Y50.6089
G01 X7.8052 Y50.6032
G01 X8.1157 Y50.6033
G01 X8.2294 Y50.6099
G01 X8.3362 Y50.6277
G01 X8.3584 Y50.6328
G01 X8.4623 Y50.6631
G01 X8.5729 Y50.7088
G01 X8.6776 Y50.7667
G01 X8.7660 Y50.8291
G01 X8.7838 Y50.8433
G01 X8.8561 Y50.9078
G01 X8.8722 Y50.9239
G01 X8.9441 Y51.0049
G01 X9.0133 Y51.1024
G01 X9.0712 Y51.2071
G01 X9.1169 Y51.3177
G01 X9.1501 Y51.4326
G01 X9.1685 Y51.5393
G01 X9.1711 Y51.5619
G01 X9.1765 Y51.6586
G01 X9.1765 Y51.6814
G01 X9.1701 Y51.7894
G01 X9.1523 Y51.8962
G01 X9.1472 Y51.9184
G01 X9.1169 Y52.0223
G01 X9.0712 Y52.1329
G01 X9.0133 Y52.2376
G01 X8.9509 Y52.3260
G01 X8.9367 Y52.3438
G01 X8.8722 Y52.4161
G01 X8.8561 Y52.4322
G01 X8.7751 Y52.5041
G01 X8.6776 Y52.5733
G01 X8.5729 Y52.6312
G01 X8.4730 Y52.6729
G01 X8.4515 Y52.6804
G01 X8.3584 Y52.7072
G01 X8.3362 Y52.7123
G01 X8.2294 Y52.7301
G01 X8.1214 Y52.7365
G01 X7.8052 Y52.7368
G00 Z2.5400
G00 X14.7485 Y46.8326
G01 F76.20
G01 Z-0.2000
G01 F76.20
G01 X14.7485 Y46.8554
G01 X14.7412 Y46.9787
G01 X14.7209 Y47.1006
G01 X14.7158 Y47.1228
G01 X14.6847 Y47.2305
G01 X14.6772 Y47.2520
G01 X14.6296 Y47.3660
G01 X14.5644 Y47.4841
G01 X14.4863 Y47.5942
G01 X14.3964 Y47.6948
G01 X14.2958 Y47.7847
G01 X14.1952 Y47.8564
G01 X14.1759 Y47.8686
G01 X14.0778 Y47.9228
G01 X14.0572 Y47.9327
G01 X13.9430 Y47.9797
G01 X13.8133 Y48.0170
G01 X13.6803 Y48.0396
G01 X13.5456 Y48.0472
G01 X13.4109 Y48.0396
G01 X13.2890 Y48.0193
G01 X13.2668 Y48.0142
G01 X13.1591 Y47.9831
G01 X13.1376 Y47.9756
G01 X13.0236 Y47.9280
G01 X12.9055 Y47.8628
G01 X12.7954 Y47.7847
G01 X12.6948 Y47.6948
G01 X12.6049 Y47.5942
G01 X12.5332 Y47.4936
G01 X12.5210 Y47.4743
G01 X12.4668 Y47.3762
G01 X12.4569 Y47.3556
G01 X12.4099 Y47.2414
G01 X12.3726 Y47.1117
G01 X12.3500 Y46.9787
G01 X12.3424 Y46.8440
G01 X12.3500 Y46.7093
G01 X12.3703 Y46.5874
G01 X12.3754 Y46.5652
G01 X12.4065 Y46.4575
G01 X12.4140 Y46.4360
G01 X12.4616 Y46.3220
G01 X12.5268 Y46.2039
G01 X12.6049 Y46.0938
G01 X12.6948 Y45.9932
G01 X12.7954 Y45.9033
G01 X12.8960 Y45.8316
G01 X12.9153 Y45.8194
G01 X13.0134 Y45.7652
G01 X13.0340 Y45.7553
G01 X13.1482 Y45.7083
G01 X13.2779 Y45.6710
G01 X13.4109 Y45.6484
G01 X13.5456 Y45.6408
G01 X13.6803 Y45.6484
G01 X13.8022 Y45.6687
G01 X13.8244 Y45.6738
G01 X13.9321 Y45.7049
G01 X13.9536 Y45.7124
G01 X14.0676 Y45.7600
G01 X14.1857 Y45.8252
G01 X14.2958 Y45.9033
G01 X14.3964 Y45.9932
G01 X14.4863 Y46.0938
G01 X14.5580 Y46.1944
G01 X14.5702 Y46.2137
G01 X14.6244 Y46.3118
G01 X14.6343 Y46.3324
G01 X14.6813 Y46.4466
G01 X14.7186 Y46.5763
G01 X14.7412 Y46.7093
G01 X14.7485 Y46.8326
G00 Z2.5400
G00 X18.7864 Y40.6284
G01 F76.20
G01 Z-0.2000
G01 F76.20
G01 X18.7722 Y40.6105
G01 X18.7138 Y40.5282
G01 X18.7017 Y40.5089
G01 X18.6476 Y40.4105
G01 X18.6003 Y40.2962
G01 X18.5689 Y40.1883
G01 X18.5638 Y40.1661
G01 X18.5453 Y40.0553
G01 X18.5384 Y39.9318
G01 X18.5387 Y39.5208
G01 X18.5453 Y39.4087
G01 X18.5661 Y39.2867
G01 X18.6003 Y39.1678
G01 X18.6476 Y39.0535
G01 X18.7075 Y38.9452
G01 X18.7791 Y38.8443
G01 X18.8615 Y38.7521
G01 X18.9451 Y38.6770
G01 X18.9629 Y38.6628
G01 X19.0452 Y38.6044
G01 X19.0645 Y38.5923
G01 X19.1629 Y38.5382
G01 X19.2772 Y38.4909
G01 X19.3961 Y38.4566
G01 X19.5181 Y38.4359
G01 X19.6416 Y38.4290
G01 X19.7538 Y38.4350
G01 X19.7764 Y38.4375
G01 X19.8759 Y38.4544
G01 X19.8981 Y38.4595
G01 X20.0060 Y38.4909
G01 X20.1203 Y38.5382
G01 X20.2285 Y38.5981
G01 X20.3294 Y38.6697
G01 X20.4217 Y38.7521
G01 X20.5041 Y38.8443
G01 X20.5757 Y38.9452
G01 X20.6303 Y39.0434
G01 X20.6402 Y39.0639
G01 X20.6788 Y39.1572
G01 X20.6864 Y39.1787
G01 X20.7171 Y39.2867
G01 X20.7379 Y39.4087
G01 X20.7448 Y39.5322
G01 X20.7447 Y39.9375
G01 X20.7379 Y40.0553
G01 X20.7194 Y40.1661
G01 X20.7143 Y40.1883
G01 X20.6829 Y40.2962
G01 X20.6356 Y40.4105
G01 X20.5757 Y40.5188
G01 X20.5041 Y40.6197
G01 X20.4217 Y40.7119
G01 X20.3294 Y40.7943
G01 X20.2285 Y40.8659
G01 X20.1203 Y40.9258
G01 X20.0060 Y40.9731
G01 X19.8871 Y41.0074
G01 X19.7651 Y41.0281
G01 X19.6416 Y41.0350
G01 X19.5181 Y41.0281
G01 X19.3961 Y41.0074
G01 X19.2772 Y40.9731
G01 X19.1629 Y40.9258
G01 X19.0547 Y40.8659
G01 X18.9538 Y40.7943
G01 X18.8615 Y40.7119
G01 X18.7864 Y40.6284
G00 Z2.5400
G00 X21.3264 Y40.6284
G01 F76.20
G01 Z-0.2000
G01 F76.20
G01 X21.3122 Y40.6105
G01 X21.2538 Y40.5282
G01 X21.2417 Y40.5089
G01 X21.1876 Y40.4105
G01 X21.1403 Y40.2962
G01 X21.1089 Y40.1883
G01 X21.1038 Y40.1661
G01 X21.0853 Y40.0553
G01 X21.0784 Y39.9318
G01 X21.0787 Y39.5208
G01 X21.0853 Y39.4087
G01 X21.1061 Y39.2867
G01 X21.1403 Y39.1678
G01 X21.1876 Y39.0535
G01 X21.2475 Y38.9452
G01 X21.3191 Y38.8443
G01 X21.4015 Y38.7521
G01 X21.4851 Y38.6770
G01 X21.5029 Y38.6628
G01 X21.5852 Y38.6044
G01 X21.6045 Y38.5923
G01 X21.7029 Y38.5382
G01 X21.8172 Y38.4909
G01 X21.9361 Y38.4566
G01 X22.0581 Y38.4359
G01 X22.1816 Y38.4290
G01 X22.2938 Y38.4350
G01 X22.3164 Y38.4375
G01 X22.4159 Y38.4544
G01 X22.4381 Y38.4595
G01 X22.5460 Y38.4909
G01 X22.6603 Y38.5382
G01 X22.7685 Y38.5981
G01 X22.8694 Y38.6697
G01 X22.9617 Y38.7521
G01 X23.0441 Y38.8443
G01 X23.1157 Y38.9452
G01 X23.1703 Y39.0434
G01 X23.1802 Y39.0639
G01 X23.2188 Y39.1572
G01 X23.2264 Y39.1787
G01 X23.2571 Y39.2867
G01 X23.2779 Y39.4087
G01 X23.2848 Y39.5322
G01 X23.2847 Y39.9375
G01 X23.2779 Y40.0553
G01 X23.2594 Y40.1661
G01 X23.2543 Y40.1883
G01 X23.2229 Y40.2962
G01 X23.1756 Y40.4105
G01 X23.1157 Y40.5188
G01 X23.0441 Y40.6197
G01 X22.9617 Y40.7119
G01 X22.8694 Y40.7943
G01 X22.7685 Y40.8659
G01 X22.6603 Y40.9258
G01 X22.5460 Y40.9731
G01 X22.4271 Y41.0074
G01 X22.3051 Y41.0281
G01 X22.1816 Y41.0350
G01 X22.0581 Y41.0281
G01 X21.9361 Y41.0074
G01 X21.8172 Y40.9731
G01 X21.7029 Y40.9258
G01 X21.5947 Y40.8659
G01 X21.4938 Y40.7943
G01 X21.4015 Y40.7119
G01 X21.3264 Y40.6284
G00 Z2.5400
G00 X23.8664 Y40.6284
G01 F76.20
G01 Z-0.2000
G01 F76.20
G01 X23.8522 Y40.6105
G01 X23.7938 Y40.5282
G01 X23.7817 Y40.5089
G01 X23.7276 Y40.4105
G01 X23.6803 Y40.2962
G01 X23.6489 Y40.1883
G01 X23.6438 Y40.1661
G01 X23.6253 Y40.0553
G01 X23.6184 Y39.9318
G01 X23.6187 Y39.5208
G01 X23.6253 Y39.4087
G01 X23.6461 Y39.2867
G01 X23.6803 Y39.1678
G01 X23.7276 Y39.0535
G01 X23.7875 Y38.9452
G01 X23.8591 Y38.8443
G01 X23.9415 Y38.7521
G01 X24.0251 Y38.6770
G01 X24.0429 Y38.6628
G01 X24.1252 Y38.6044
G01 X24.1445 Y38.5923
G01 X24.2429 Y38.5382
G01 X24.3572 Y38.4909
G01 X24.4761 Y38.4566
G01 X24.5981 Y38.4359
G01 X24.7216 Y38.4290
G01 X24.8338 Y38.4350
G01 X24.8564 Y38.4375
G01 X24.9559 Y38.4544
G01 X24.9781 Y38.4595
G01 X25.0860 Y38.4909
G01 X25.2003 Y38.5382
G01 X25.3085 Y38.5981
G01 X25.4094 Y38.6697
G01 X25.5017 Y38.7521
G01 X25.5841 Y38.8443
G01 X25.6557 Y38.9452
G01 X25.7103 Y39.0434
G01 X25.7202 Y39.0639
G01 X25.7588 Y39.1572
G01 X25.7664 Y39.1787
G01 X25.7971 Y39.2867
G01 X25.8179 Y39.4087
G01 X25.8248 Y39.5322
G01 X25.8247 Y39.9375
G01 X25.8179 Y40.0553
G01 X25.7994 Y40.1661
G01 X25.7943 Y40.1883
G01 X25.7629 Y40.2962
G01 X25.7156 Y40.4105
G01 X25.6557 Y40.5188
G01 X25.5841 Y40.6197
G01 X25.5017 Y40.7119
G01 X25.4094 Y40.7943
G01 X25.3085 Y40.8659
G01 X25.2003 Y40.9258
G01 X25.0860 Y40.9731
G01 X24.9671 Y41.0074
G01 X24.8451 Y41.0281
G01 X24.7216 Y41.0350
G01 X24.5981 Y41.0281
G01 X24.4761 Y41.0074
G01 X24.3572 Y40.9731
G01 X24.2429 Y40.9258
G01 X24.1347 Y40.8659
G01 X24.0338 Y40.7943
G01 X23.9415 Y40.7119
G01 X23.8664 Y40.6284
G00 Z2.5400
G00 X26.4064 Y40.6284
G01 F76.20
G01 Z-0.2000
G01 F76.20
G01 X26.3922 Y40.6105
G01 X26.3338 Y40.5282
G01 X26.3217 Y40.5089
G01 X26.2676 Y40.4105
G01 X26.2203 Y40.2962
G01 X26.1889 Y40.1883
G01 X26.1838 Y40.1661
G01 X26.1653 Y40.0553
G01 X26.1584 Y39.9318
G01 X26.1587 Y39.5208
G01 X26.1653 Y39.4087
G01 X26.1861 Y39.2867
G01 X26.2203 Y39.1678
G01 X26.2676 Y39.0535
G01 X26.3275 Y38.9452
G01 X26.3991 Y38.8443
G01 X26.4815 Y38.7521
G01 X26.5651 Y38.6770
G01 X26.5829 Y38.6628
G01 X26.6652 Y38.6044
G01 X26.6845 Y38.5923
G01 X26.7829 Y38.5382
G01 X26.8972 Y38.4909
G01 X27.0161 Y38.4566
G01 X27.1381 Y38.4359
G01 X27.2616 Y38.4290
G01 X27.3738 Y38.4350
G01 X27.3964 Y38.4375
G01 X27.4959 Y38.4544
G01 X27.5181 Y38.4595
G01 X27.6260 Y38.4909
G01 X27.7403 Y38.5382
G01 X27.8485 Y38.5981
G01 X27.9494 Y38.6697
G01 X28.0417 Y38.7521
G01 X28.1241 Y38.8443
G01 X28.1957 Y38.9452
G01 X28.2503 Y39.0434
G01 X28.2602 Y39.0639
G01 X28.2988 Y39.1572
G01 X28.3064 Y39.1787
G01 X28.3371 Y39.2867
G01 X28.3579 Y39.4087
G01 X28.3648 Y39.5322
G01 X28.3647 Y39.9375
G01 X28.3579 Y40.0553
G01 X28.3394 Y40.1661
G01 X28.3343 Y40.1883
G01 X28.3029 Y40.2962
G01 X28.2556 Y40.4105
G01 X28.1957 Y40.5188
G01 X28.1241 Y40.6197
G01 X28.0417 Y40.7119
G01 X27.9494 Y40.7943
G01 X27.8485 Y40.8659
G01 X27.7403 Y40.9258
G01 X27.6260 Y40.9731
G01 X27.5071 Y41.0074
G01 X27.3851 Y41.0281
G01 X27.2616 Y41.0350
G01 X27.1381 Y41.0281
G01 X27.0161 Y41.0074
G01 X26.8972 Y40.9731
G01 X26.7829 Y40.9258
G01 X26.6747 Y40.8659
G01 X26.5738 Y40.7943
G01 X26.4815 Y40.7119
G01 X26.4064 Y40.6284
G00 Z2.5400
G00 X28.9464 Y40.6284
G01 F76.20
G01 Z-0.2000
G01 F76.20
G01 X28.9322 Y40.6105
G01 X28.8738 Y40.5282
G01 X28.8617 Y40.5089
G01 X28.8076 Y40.4105
G01 X28.7603 Y40.2962
G01 X28.7289 Y40.1883
G01 X28.7238 Y40.1661
G01 X28.7053 Y40.0553
G01 X28.6984 Y39.9318
G01 X28.6987 Y39.5208
G01 X28.7053 Y39.4087
G01 X28.7261 Y39.2867
G01 X28.7603 Y39.1678
G01 X28.8076 Y39.0535
G01 X28.8675 Y38.9452
G01 X28.9391 Y38.8443
G01 X29.0215 Y38.7521
G01 X29.1051 Y38.6770
G01 X29.1229 Y38.6628
G01 X29.2052 Y38.6044
G01 X29.2245 Y38.5923
G01 X29.3229 Y38.5382
G01 X29.4372 Y38.4909
G01 X29.5561 Y38.4566
G01 X29.6781 Y38.4359
G01 X29.8016 Y38.4290
G01 X29.9138 Y38.4350
G01 X29.9364 Y38.4375
G01 X30.0359 Y38.4544
G01 X30.0581 Y38.4595
G01 X30.1660 Y38.4909
G01 X30.2803 Y38.5382
G01 X30.3885 Y38.5981
G01 X30.4894 Y38.6697
G01 X30.5817 Y38.7521
G01 X30.6641 Y38.8443
G01 X30.7357 Y38.9452
G01 X30.7903 Y39.0434
G01 X30.8002 Y39.0639
G01 X30.8388 Y39.1572
G01 X30.8464 Y39.1787
G01 X30.8771 Y39.2867
G01 X30.8979 Y39.4087
G01 X30.9048 Y39.5322
G01 X30.9047 Y39.9375
G01 X30.8979 Y40.0553
G01 X30.8794 Y40.1661
G01 X30.8743 Y40.1883
G01 X30.8429 Y40.2962
G01 X30.7956 Y40.4105
G01 X30.7357 Y40.5188
G01 X30.6641 Y40.6197
G01 X30.5817 Y40.7119
G01 X30.4894 Y40.7943
G01 X30.3885 Y40.8659
G01 X30.2803 Y40.9258
G01 X30.1660 Y40.9731
G01 X30.0471 Y41.0074
G01 X29.9251 Y41.0281
G01 X29.8016 Y41.0350
G01 X29.6781 Y41.0281
G01 X29.5561 Y41.0074
G01 X29.4372 Y40.9731
G01 X29.3229 Y40.9258
G01 X29.2147 Y40.8659
G01 X29.1138 Y40.7943
G01 X29.0215 Y40.7119
G01 X28.9464 Y40.6284
G00 Z2.5400
G00 X31.4864 Y40.6284
G01 F76.20
G01 Z-0.2000
G01 F76.20
G01 X31.4722 Y40.6105
G01 X31.4138 Y40.5282
G01 X31.4017 Y40.5089
G01 X31.3476 Y40.4105
G01 X31.3003 Y40.2962
G01 X31.2689 Y40.1883
G01 X31.2638 Y40.1661
G01 X31.2453 Y40.0553
G01 X31.2384 Y39.9318
G01 X31.2387 Y39.5208
G01 X31.2453 Y39.4087
G01 X31.2661 Y39.2867
G01 X31.3003 Y39.1678
G01 X31.3476 Y39.0535
G01 X31.4075 Y38.9452
G01 X31.4791 Y38.8443
G01 X31.5615 Y38.7521
G01 X31.6451 Y38.6770
G01 X31.6629 Y38.6628
G01 X31.7452 Y38.6044
G01 X31.7645 Y38.5923
G01 X31.8629 Y38.5382
G01 X31.9772 Y38.4909
G01 X32.0961 Y38.4566
G01 X32.2181 Y38.4359
G01 X32.3416 Y38.4290
G01 X32.4538 Y38.4350
G01 X32.4764 Y38.4375
G01 X32.5759 Y38.4544
G01 X32.5981 Y38.4595
G01 X32.7060 Y38.4909
G01 X32.8203 Y38.5382
G01 X32.9285 Y38.5981
G01 X33.0294 Y38.6697
G01 X33.1217 Y38.7521
G01 X33.2041 Y38.8443
G01 X33.2757 Y38.9452
G01 X33.3303 Y39.0434
G01 X33.3402 Y39.0639
G01 X33.3788 Y39.1572
G01 X33.3864 Y39.1787
G01 X33.4171 Y39.2867
G01 X33.4379 Y39.4087
G01 X33.4448 Y39.5322
G01 X33.4447 Y39.9375
G01 X33.4379 Y40.0553
G01 X33.4194 Y40.1661
G01 X33.4143 Y40.1883
G01 X33.3829 Y40.2962
G01 X33.3356 Y40.4105
G01 X33.2757 Y40.5188
G01 X33.2041 Y40.6197
G01 X33.1217 Y40.7119
G01 X33.0294 Y40.7943
G01 X32.9285 Y40.8659
G01 X32.8203 Y40.9258
G01 X32.7060 Y40.9731
G01 X32.5871 Y41.0074
G01 X32.4651 Y41.0281
G01 X32.3416 Y41.0350
G01 X32.2181 Y41.0281
G01 X32.0961 Y41.0074
G01 X31.9772 Y40.9731
G01 X31.8629 Y40.9258
G01 X31.7547 Y40.8659
G01 X31.6538 Y40.7943
G01 X31.5615 Y40.7119
G01 X31.4864 Y40.6284
G00 Z2.5400
G00 X34.0264 Y40.6284
G01 F76.20
G01 Z-0.2000
G01 F76.20
G01 X34.0122 Y40.6105
G01 X33.9538 Y40.5282
G01 X33.9417 Y40.5089
G01 X33.8876 Y40.4105
G01 X33.8403 Y40.2962
G01 X33.8089 Y40.1883
G01 X33.8038 Y40.1661
G01 X33.7853 Y40.0553
G01 X33.7784 Y39.9318
G01 X33.7787 Y39.5208
G01 X33.7853 Y39.4087
G01 X33.8061 Y39.2867
G01 X33.8403 Y39.1678
G01 X33.8876 Y39.0535
G01 X33.9475 Y38.9452
G01 X34.0191 Y38.8443
G01 X34.1015 Y38.7521
G01 X34.1851 Y38.6770
G01 X34.2029 Y38.6628
G01 X34.2852 Y38.6044
G01 X34.3045 Y38.5923
G01 X34.4029 Y38.5382
G01 X34.5172 Y38.4909
G01 X34.6361 Y38.4566
G01 X34.7581 Y38.4359
G01 X34.8816 Y38.4290
G01 X34.9938 Y38.4350
G01 X35.0164 Y38.4375
G01 X35.1159 Y38.4544
G01 X35.1381 Y38.4595
G01 X35.2460 Y38.4909
G01 X35.3603 Y38.5382
G01 X35.4685 Y38.5981
G01 X35.5694 Y38.6697
G01 X35.6617 Y38.7521
G01 X35.7441 Y38.8443
G01 X35.8157 Y38.9452
G01 X35.8703 Y39.0434
G01 X35.8802 Y39.0639
G01 X35.9188 Y39.1572
G01 X35.9264 Y39.1787
G01 X35.9571 Y39.2867
G01 X35.9779 Y39.4087
G01 X35.9848 Y39.5322
G01 X35.9847 Y39.9375
G01 X35.9779 Y40.0553
G01 X35.9594 Y40.1661
G01 X35.9543 Y40.1883
G01 X35.9229 Y40.2962
G01 X35.8756 Y40.4105
G01 X35.8157 Y40.5188
G01 X35.7441 Y40.6197
G01 X35.6617 Y40.7119
G01 X35.5694 Y40.7943
G01 X35.4685 Y40.8659
G01 X35.3603 Y40.9258
G01 X35.2460 Y40.9731
G01 X35.1271 Y41.0074
G01 X35.0051 Y41.0281
G01 X34.8816 Y41.0350
G01 X34.7581 Y41.0281
G01 X34.6361 Y41.0074
G01 X34.5172 Y40.9731
G01 X34.4029 Y40.9258
G01 X34.2947 Y40.8659
G01 X34.1938 Y40.7943
G01 X34.1015 Y40.7119
G01 X34.0264 Y40.6284
G00 Z2.5400
G00 X36.5664 Y40.6284
G01 F76.20
G01 Z-0.2000
G01 F76.20
G01 X36.5522 Y40.6105
G01 X36.4938 Y40.5282
G01 X36.4817 Y40.5089
G01 X36.4276 Y40.4105
G01 X36.3803 Y40.2962
G01 X36.3489 Y40.1883
G01 X36.3438 Y40.1661
G01 X36.3253 Y40.0553
G01 X36.3184 Y39.9318
G01 X36.3187 Y39.5208
G01 X36.3253 Y39.4087
G01 X36.3461 Y39.2867
G01 X36.3803 Y39.1678
G01 X36.4276 Y39.0535
G01 X36.4875 Y38.9452
G01 X36.5591 Y38.8443
G01 X36.6415 Y38.7521
G01 X36.7251 Y38.6770
G01 X36.7429 Y38.6628
G01 X36.8252 Y38.6044
G01 X36.8445 Y38.5923
G01 X36.9429 Y38.5382
G01 X37.0572 Y38.4909
G01 X37.1761 Y38.4566
G01 X37.2981 Y38.4359
G01 X37.4216 Y38.4290
G01 X37.5338 Y38.4350
G01 X37.5564 Y38.4375
G01 X37.6559 Y38.4544
G01 X37.6781 Y38.4595
G01 X37.7860 Y38.4909
G01 X37.9003 Y38.5382
G01 X38.0085 Y38.5981
G01 X38.1094 Y38.6697
G01 X38.2017 Y38.7521
G01 X38.2841 Y38.8443
G01 X38.3557 Y38.9452
G01 X38.4103 Y39.0434
G01 X38.4202 Y39.0639
G01 X38.4588 Y39.1572
G01 X38.4664 Y39.1787
G01 X38.4971 Y39.2867
G01 X38.5179 Y39.4087
G01 X38.5248 Y39.5322
G01 X38.5247 Y39.9375
G01 X38.5179 Y40.0553
G01 X38.4994 Y40.1661
G01 X38.4943 Y40.1883
G01 X38.4629 Y40.2962
G01 X38.4156 Y40.4105
G01 X38.3557 Y40.5188
G01 X38.2841 Y40.6197
G01 X38.2017 Y40.7119
G01 X38.1094 Y40.7943
G01 X38.0085 Y40.8659
G01 X37.9003 Y40.9258
G01 X37.7860 Y40.9731
G01 X37.6671 Y41.0074
G01 X37.5451 Y41.0281
G01 X37.4216 Y41.0350
G01 X37.2981 Y41.0281
G01 X37.1761 Y41.0074
G01 X37.0572 Y40.9731
G01 X36.9429 Y40.9258
G01 X36.8347 Y40.8659
G01 X36.7338 Y40.7943
G01 X36.6415 Y40.7119
G01 X36.5664 Y40.6284
G00 Z2.5400
G00 X39.1064 Y40.6284
G01 F76.20
G01 Z-0.2000
G01 F76.20
G01 X39.0922 Y40.6105
G01 X39.0338 Y40.5282
G01 X39.0217 Y40.5089
G01 X38.9676 Y40.4105
G01 X38.9203 Y40.2962
G01 X38.8889 Y40.1883
G01 X38.8838 Y40.1661
G01 X38.8653 Y40.0553
G01 X38.8584 Y39.9318
G01 X38.8587 Y39.5208
G01 X38.8653 Y39.4087
G01 X38.8861 Y39.2867
G01 X38.9203 Y39.1678
G01 X38.9676 Y39.0535
G01 X39.0275 Y38.9452
G01 X39.0991 Y38.8443
G01 X39.1815 Y38.7521
G01 X39.2651 Y38.6770
G01 X39.2829 Y38.6628
G01 X39.3652 Y38.6044
G01 X39.3845 Y38.5923
G01 X39.4829 Y38.5382
G01 X39.5972 Y38.4909
G01 X39.7161 Y38.4566
G01 X39.8381 Y38.4359
G01 X39.9616 Y38.4290
G01 X40.0738 Y38.4350
G01 X40.0964 Y38.4375
G01 X40.1959 Y38.4544
G01 X40.2181 Y38.4595
G01 X40.3260 Y38.4909
G01 X40.4403 Y38.5382
G01 X40.5485 Y38.5981
G01 X40.6494 Y38.6697
G01 X40.7417 Y38.7521
G01 X40.8241 Y38.8443
G01 X40.8957 Y38.9452
G01 X40.9503 Y39.0434
G01 X40.9602 Y39.0639
G01 X40.9988 Y39.1572
G01 X41.0064 Y39.1787
G01 X41.0371 Y39.2867
G01 X41.0579 Y39.4087
G01 X41.0648 Y39.5322
G01 X41.0647 Y39.9375
G01 X41.0579 Y40.0553
G01 X41.0394 Y40.1661
G01 X41.0343 Y40.1883
G01 X41.0029 Y40.2962
G01 X40.9556 Y40.4105
G01 X40.8957 Y40.5188
G01 X40.8241 Y40.6197
G01 X40.7417 Y40.7119
G01 X40.6494 Y40.7943
G01 X40.5485 Y40.8659
G01 X40.4403 Y40.9258
G01 X40.3260 Y40.9731
G01 X40.2071 Y41.0074
G01 X40.0851 Y41.0281
G01 X39.9616 Y41.0350
G01 X39.8381 Y41.0281
G01 X39.7161 Y41.0074
G01 X39.5972 Y40.9731
G01 X39.4829 Y40.9258
G01 X39.3747 Y40.8659
G01 X39.2738 Y40.7943
G01 X39.1815 Y40.7119
G01 X39.1064 Y40.6284
G00 Z2.5400
G00 X41.6464 Y40.6284
G01 F76.20
G01 Z-0.2000
G01 F76.20
G01 X41.6322 Y40.6105
G01 X41.5738 Y40.5282
G01 X41.5617 Y40.5089
G01 X41.5076 Y40.4105
G01 X41.4603 Y40.2962
G01 X41.4289 Y40.1883
G01 X41.4238 Y40.1661
G01 X41.4053 Y40.0553
G01 X41.3984 Y39.9318
G01 X41.3987 Y39.5208
G01 X41.4053 Y39.4087
G01 X41.4261 Y39.2867
G01 X41.4603 Y39.1678
G01 X41.5076 Y39.0535
G01 X41.5675 Y38.9452
G01 X41.6391 Y38.8443
G01 X41.7215 Y38.7521
G01 X41.8051 Y38.6770
G01 X41.8229 Y38.6628
G01 X41.9052 Y38.6044
G01 X41.9245 Y38.5923
G01 X42.0229 Y38.5382
G01 X42.1372 Y38.4909
G01 X42.2561 Y38.4566
G01 X42.3781 Y38.4359
G01 X42.5016 Y38.4290
G01 X42.6138 Y38.4350
G01 X42.6364 Y38.4375
G01 X42.7359 Y38.4544
G01 X42.7581 Y38.4595
G01 X42.8660 Y38.4909
G01 X42.9803 Y38.5382
G01 X43.0885 Y38.5981
G01 X43.1894 Y38.6697
G01 X43.2817 Y38.7521
G01 X43.3641 Y38.8443
G01 X43.4357 Y38.9452
G01 X43.4903 Y39.0434
G01 X43.5002 Y39.0639
G01 X43.5388 Y39.1572
G01 X43.5464 Y39.1787
G01 X43.5771 Y39.2867
G01 X43.5979 Y39.4087
G01 X43.6048 Y39.5322
G01 X43.6047 Y39.9375
G01 X43.5979 Y40.0553
G01 X43.5794 Y40.1661
G01 X43.5743 Y40.1883
G01 X43.5429 Y40.2962
G01 X43.4956 Y40.4105
G01 X43.4357 Y40.5188
G01 X43.3641 Y40.6197
G01 X43.2817 Y40.7119
G01 X43.1894 Y40.7943
G01 X43.0885 Y40.8659
G01 X42.9803 Y40.9258
G01 X42.8660 Y40.9731
G01 X42.7471 Y41.0074
G01 X42.6251 Y41.0281
G01 X42.5016 Y41.0350
G01 X42.3781 Y41.0281
G01 X42.2561 Y41.0074
G01 X42.1372 Y40.9731
G01 X42.0229 Y40.9258
G01 X41.9147 Y40.8659
G01 X41.8138 Y40.7943
G01 X41.7215 Y40.7119
G01 X41.6464 Y40.6284
G00 Z2.5400
G00 X44.1864 Y40.6284
G01 F76.20
G01 Z-0.2000
G01 F76.20
G01 X44.1722 Y40.6105
G01 X44.1138 Y40.5282
G01 X44.1017 Y40.5089
G01 X44.0476 Y40.4105
G01 X44.0003 Y40.2962
G01 X43.9689 Y40.1883
G01 X43.9638 Y40.1661
G01 X43.9453 Y40.0553
G01 X43.9384 Y39.9318
G01 X43.9387 Y39.5208
G01 X43.9453 Y39.4087
G01 X43.9661 Y39.2867
G01 X44.0003 Y39.1678
G01 X44.0476 Y39.0535
G01 X44.1075 Y38.9452
G01 X44.1791 Y38.8443
G01 X44.2615 Y38.7521
G01 X44.3451 Y38.6770
G01 X44.3629 Y38.6628
G01 X44.4452 Y38.6044
G01 X44.4645 Y38.5923
G01 X44.5629 Y38.5382
G01 X44.6772 Y38.4909
G01 X44.7961 Y38.4566
G01 X44.9181 Y38.4359
G01 X45.0416 Y38.4290
G01 X45.1538 Y38.4350
G01 X45.1764 Y38.4375
G01 X45.2759 Y38.4544
G01 X45.2981 Y38.4595
G01 X45.4060 Y38.4909
G01 X45.5203 Y38.5382
G01 X45.6285 Y38.5981
G01 X45.7294 Y38.6697
G01 X45.8217 Y38.7521
G01 X45.9041 Y38.8443
G01 X45.9757 Y38.9452
G01 X46.0303 Y39.0434
G01 X46.0402 Y39.0639
G01 X46.0788 Y39.1572
G01 X46.0864 Y39.1787
G01 X46.1171 Y39.2867
G01 X46.1379 Y39.4087
G01 X46.1448 Y39.5322
G01 X46.1447 Y39.9375
G01 X46.1379 Y40.0553
G01 X46.1194 Y40.1661
G01 X46.1143 Y40.1883
G01 X46.0829 Y40.2962
G01 X46.0356 Y40.4105
G01 X45.9757 Y40.5188
G01 X45.9041 Y40.6197
G01 X45.8217 Y40.7119
G01 X45.7294 Y40.7943
G01 X45.6285 Y40.8659
G01 X45.5203 Y40.9258
G01 X45.4060 Y40.9731
G01 X45.2871 Y41.0074
G01 X45.1651 Y41.0281
G01 X45.0416 Y41.0350
G01 X44.9181 Y41.0281
G01 X44.7961 Y41.0074
G01 X44.6772 Y40.9731
G01 X44.5629 Y40.9258
G01 X44.4547 Y40.8659
G01 X44.3538 Y40.7943
G01 X44.2615 Y40.7119
G01 X44.1864 Y40.6284
G00 Z2.5400
G00 X46.7264 Y40.6284
G01 F76.20
G01 Z-0.2000
G01 F76.20
G01 X46.7122 Y40.6105
G01 X46.6538 Y40.5282
G01 X46.6417 Y40.5089
G01 X46.5876 Y40.4105
G01 X46.5403 Y40.2962
G01 X46.5089 Y40.1883
G01 X46.5038 Y40.1661
G01 X46.4853 Y40.0553
G01 X46.4784 Y39.9318
G01 X46.4787 Y39.5208
G01 X46.4853 Y39.4087
G01 X46.5061 Y39.2867
G01 X46.5403 Y39.1678
G01 X46.5876 Y39.0535
G01 X46.6475 Y38.9452
G01 X46.7191 Y38.8443
G01 X46.8015 Y38.7521
G01 X46.8851 Y38.6770
G01 X46.9029 Y38.6628
G01 X46.9852 Y38.6044
G01 X47.0045 Y38.5923
G01 X47.1029 Y38.5382
G01 X47.2172 Y38.4909
G01 X47.3361 Y38.4566
G01 X47.4581 Y38.4359
G01 X47.5816 Y38.4290
G01 X47.6938 Y38.4350
G01 X47.7164 Y38.4375
G01 X47.8159 Y38.4544
G01 X47.8381 Y38.4595
G01 X47.9460 Y38.4909
G01 X48.0603 Y38.5382
G01 X48.1685 Y38.5981
G01 X48.2694 Y38.6697
G01 X48.3617 Y38.7521
G01 X48.4441 Y38.8443
G01 X48.5157 Y38.9452
G01 X48.5703 Y39.0434
G01 X48.5802 Y39.0639
G01 X48.6188 Y39.1572
G01 X48.6264 Y39.1787
G01 X48.6571 Y39.2867
G01 X48.6779 Y39.4087
G01 X48.6848 Y39.5322
G01 X48.6847 Y39.9375
G01 X48.6779 Y40.0553
G01 X48.6594 Y40.1661
G01 X48.6543 Y40.1883
G01 X48.6229 Y40.2962
G01 X48.5756 Y40.4105
G01 X48.5157 Y40.5188
G01 X48.4441 Y40.6197
G01 X48.3617 Y40.7119
G01 X48.2694 Y40.7943
G01 X48.1685 Y40.8659
G01 X48.0603 Y40.9258
G01 X47.9460 Y40.9731
G01 X47.8271 Y41.0074
G01 X47.7051 Y41.0281
G01 X47.5816 Y41.0350
G01 X47.4581 Y41.0281
G01 X47.3361 Y41.0074
G01 X47.2172 Y40.9731
G01 X47.1029 Y40.9258
G01 X46.9947 Y40.8659
G01 X46.8938 Y40.7943
G01 X46.8015 Y40.7119
G01 X46.7264 Y40.6284
G00 Z2.5400
G00 X47.7226 Y26.6162
G01 F76.20
G01 Z-0.2000
G01 F76.20
G01 X47.7084 Y26.5984
G01 X47.6565 Y26.5252
G01 X47.6444 Y26.5059
G01 X47.5957 Y26.4173
G01 X47.5568 Y26.3240
G01 X47.5492 Y26.3025
G01 X47.5216 Y26.2052
G01 X47.5027 Y26.0943
G01 X47.4964 Y25.9820
G01 X47.5027 Y25.8697
G01 X47.5216 Y25.7588
G01 X47.5492 Y25.6615
G01 X47.5568 Y25.6400
G01 X47.5911 Y25.5571
G01 X47.6010 Y25.5366
G01 X47.6502 Y25.4483
G01 X47.7153 Y25.3565
G01 X47.7902 Y25.2726
G01 X47.8741 Y25.1977
G01 X47.9659 Y25.1326
G01 X48.0542 Y25.0834
G01 X48.0747 Y25.0735
G01 X48.1576 Y25.0392
G01 X48.1791 Y25.0316
G01 X48.2764 Y25.0040
G01 X48.3873 Y24.9851
G01 X48.4996 Y24.9788
G01 X48.6119 Y24.9851
G01 X48.7228 Y25.0040
G01 X48.8309 Y25.0351
G01 X48.9349 Y25.0781
G01 X49.0235 Y25.1268
G01 X49.0428 Y25.1389
G01 X49.1160 Y25.1908
G01 X49.1338 Y25.2050
G01 X49.2090 Y25.2726
G01 X49.2839 Y25.3565
G01 X49.3490 Y25.4483
G01 X49.3982 Y25.5366
G01 X49.4081 Y25.5571
G01 X49.4424 Y25.6400
G01 X49.4500 Y25.6615
G01 X49.4776 Y25.7588
G01 X49.4965 Y25.8697
G01 X49.5028 Y25.9820
G01 X49.4965 Y26.0943
G01 X49.4776 Y26.2052
G01 X49.4500 Y26.3025
G01 X49.4424 Y26.3240
G01 X49.4081 Y26.4069
G01 X49.3982 Y26.4274
G01 X49.3490 Y26.5157
G01 X49.2839 Y26.6075
G01 X49.2090 Y26.6914
G01 X49.1251 Y26.7663
G01 X49.0333 Y26.8314
G01 X48.9349 Y26.8859
G01 X48.8309 Y26.9289
G01 X48.7339 Y26.9572
G01 X48.7117 Y26.9623
G01 X48.6232 Y26.9773
G01 X48.6006 Y26.9799
G01 X48.4996 Y26.9852
G01 X48.3873 Y26.9789
G01 X48.2764 Y26.9600
G01 X48.1791 Y26.9324
G01 X48.1576 Y26.9248
G01 X48.0747 Y26.8905
G01 X48.0542 Y26.8806
G01 X47.9659 Y26.8314
G01 X47.8741 Y26.7663
G01 X47.7902 Y26.6914
G01 X47.7226 Y26.6162
G00 Z2.5400
G00 X49.5025 Y21.9706
G01 F76.20
G01 Z-0.2000
G01 F76.20
G01 X49.5025 Y21.9934
G01 X49.4975 Y22.0830
G01 X49.4949 Y22.1056
G01 X49.4776 Y22.2052
G01 X49.4500 Y22.3025
G01 X49.4424 Y22.3240
G01 X49.4035 Y22.4173
G01 X49.3490 Y22.5157
G01 X49.2839 Y22.6075
G01 X49.2090 Y22.6914
G01 X49.1251 Y22.7663
G01 X49.0428 Y22.8251
G01 X49.0235 Y22.8372
G01 X48.9450 Y22.8806
G01 X48.9245 Y22.8905
G01 X48.8309 Y22.9289
G01 X48.7228 Y22.9600
G01 X48.6119 Y22.9789
G01 X48.4996 Y22.9852
G01 X48.3873 Y22.9789
G01 X48.2875 Y22.9623
G01 X48.2653 Y22.9572
G01 X48.1791 Y22.9324
G01 X48.1576 Y22.9248
G01 X48.0643 Y22.8859
G01 X47.9659 Y22.8314
G01 X47.8741 Y22.7663
G01 X47.7902 Y22.6914
G01 X47.7153 Y22.6075
G01 X47.6565 Y22.5252
G01 X47.6444 Y22.5059
G01 X47.6010 Y22.4274
G01 X47.5911 Y22.4069
G01 X47.5527 Y22.3133
G01 X47.5216 Y22.2052
G01 X47.5027 Y22.0943
G01 X47.4964 Y21.9820
G01 X47.5027 Y21.8697
G01 X47.5193 Y21.7699
G01 X47.5244 Y21.7477
G01 X47.5492 Y21.6615
G01 X47.5568 Y21.6400
G01 X47.5957 Y21.5467
G01 X47.6502 Y21.4483
G01 X47.7153 Y21.3565
G01 X47.7902 Y21.2726
G01 X47.8741 Y21.1977
G01 X47.9564 Y21.1389
G01 X47.9757 Y21.1268
G01 X48.0542 Y21.0834
G01 X48.0747 Y21.0735
G01 X48.1683 Y21.0351
G01 X48.2764 Y21.0040
G01 X48.3873 Y20.9851
G01 X48.4996 Y20.9788
G01 X48.6119 Y20.9851
G01 X48.7117 Y21.0017
G01 X48.7339 Y21.0068
G01 X48.8201 Y21.0316
G01 X48.8416 Y21.0392
G01 X48.9349 Y21.0781
G01 X49.0333 Y21.1326
G01 X49.1251 Y21.1977
G01 X49.2090 Y21.2726
G01 X49.2839 Y21.3565
G01 X49.3427 Y21.4388
G01 X49.3548 Y21.4581
G01 X49.3982 Y21.5366
G01 X49.4081 Y21.5571
G01 X49.4465 Y21.6507
G01 X49.4776 Y21.7588
G01 X49.4965 Y21.8697
G01 X49.5025 Y21.9706
G00 Z2.5400
G00 X48.4369 Y8.9820
G01 F76.20
G01 Z-0.2000
G01 F76.20
G01 X48.3986 Y8.9799
G01 X48.3760 Y8.9773
G01 X48.2875 Y8.9623
G01 X48.2653 Y8.9572
G01 X48.1683 Y8.9289
G01 X48.0747 Y8.8905
G01 X48.0542 Y8.8806
G01 X47.9659 Y8.8314
G01 X47.8741 Y8.7663
G01 X47.7902 Y8.6914
G01 X47.7153 Y8.6075
G01 X47.6502 Y8.5157
G01 X47.6010 Y8.4274
G01 X47.5911 Y8.4069
G01 X47.5568 Y8.3240
G01 X47.5492 Y8.3025
G01 X47.5216 Y8.2052
G01 X47.5027 Y8.0943
G01 X47.4964 Y7.9820
G01 X47.5027 Y7.8697
G01 X47.5216 Y7.7588
G01 X47.5492 Y7.6615
G01 X47.5568 Y7.6400
G01 X47.5911 Y7.5571
G01 X47.6010 Y7.5366
G01 X47.6502 Y7.4483
G01 X47.7153 Y7.3565
G01 X47.7902 Y7.2726
G01 X47.8741 Y7.1977
G01 X47.9659 Y7.1326
G01 X48.0542 Y7.0834
G01 X48.0747 Y7.0735
G01 X48.1576 Y7.0392
G01 X48.1791 Y7.0316
G01 X48.2764 Y7.0040
G01 X48.3873 Y6.9851
G01 X48.4996 Y6.9788
G01 X48.6119 Y6.9851
G01 X48.7228 Y7.0040
G01 X48.8201 Y7.0316
G01 X48.8416 Y7.0392
G01 X48.9245 Y7.0735
G01 X48.9450 Y7.0834
G01 X49.0333 Y7.1326
G01 X49.1251 Y7.1977
G01 X49.2090 Y7.2726
G01 X49.2766 Y7.3478
G01 X49.2908 Y7.3656
G01 X49.3427 Y7.4388
G01 X49.3548 Y7.4581
G01 X49.4035 Y7.5467
G01 X49.4465 Y7.6507
G01 X49.4748 Y7.7477
G01 X49.4799 Y7.7699
G01 X49.4965 Y7.8697
G01 X49.5028 Y7.9820
G01 X49.4965 Y8.0943
G01 X49.4799 Y8.1941
G01 X49.4748 Y8.2163
G01 X49.4500 Y8.3025
G01 X49.4424 Y8.3240
G01 X49.4035 Y8.4173
G01 X49.3490 Y8.5157
G01 X49.2839 Y8.6075
G01 X49.2168 Y8.6831
G01 X49.2007 Y8.6992
G01 X49.1338 Y8.7590
G01 X49.1160 Y8.7732
G01 X49.0333 Y8.8314
G01 X48.9349 Y8.8859
G01 X48.8309 Y8.9289
G01 X48.7339 Y8.9572
G01 X48.7117 Y8.9623
G01 X48.6232 Y8.9773
G01 X48.6006 Y8.9799
G01 X48.5623 Y8.9820
G01 X48.6006 Y8.9841
G01 X48.6232 Y8.9867
G01 X48.7117 Y9.0017
G01 X48.7339 Y9.0068
G01 X48.8309 Y9.0351
G01 X48.9349 Y9.0781
G01 X49.0333 Y9.1326
G01 X49.1160 Y9.1908
G01 X49.1338 Y9.2050
G01 X49.2007 Y9.2648
G01 X49.2168 Y9.2809
G01 X49.2839 Y9.3565
G01 X49.3490 Y9.4483
G01 X49.4035 Y9.5467
G01 X49.4424 Y9.6400
G01 X49.4500 Y9.6615
G01 X49.4748 Y9.7477
G01 X49.4799 Y9.7699
G01 X49.4965 Y9.8697
G01 X49.5028 Y9.9820
G01 X49.4965 Y10.0943
G01 X49.4799 Y10.1941
G01 X49.4748 Y10.2163
G01 X49.4500 Y10.3025
G01 X49.4424 Y10.3240
G01 X49.4035 Y10.4173
G01 X49.3490 Y10.5157
G01 X49.2839 Y10.6075
G01 X49.2168 Y10.6831
G01 X49.2007 Y10.6992
G01 X49.1338 Y10.7590
G01 X49.1160 Y10.7732
G01 X49.0333 Y10.8314
G01 X48.9349 Y10.8859
G01 X48.8309 Y10.9289
G01 X48.7339 Y10.9572
G01 X48.7117 Y10.9623
G01 X48.6232 Y10.9773
G01 X48.6006 Y10.9799
G01 X48.5623 Y10.9820
G01 X48.6006 Y10.9841
G01 X48.6232 Y10.9867
G01 X48.7117 Y11.0017
G01 X48.7339 Y11.0068
G01 X48.8309 Y11.0351
G01 X48.9349 Y11.0781
G01 X49.0333 Y11.1326
G01 X49.1160 Y11.1908
G01 X49.1338 Y11.2050
G01 X49.2007 Y11.2648
G01 X49.2168 Y11.2809
G01 X49.2839 Y11.3565
G01 X49.3490 Y11.4483
G01 X49.4035 Y11.5467
G01 X49.4424 Y11.6400
G01 X49.4500 Y11.6615
G01 X49.4748 Y11.7477
G01 X49.4799 Y11.7699
G01 X49.4965 Y11.8697
G01 X49.5028 Y11.9820
G01 X49.4965 Y12.0943
G01 X49.4799 Y12.1941
G01 X49.4748 Y12.2163
G01 X49.4500 Y12.3025
G01 X49.4424 Y12.3240
G01 X49.4035 Y12.4173
G01 X49.3490 Y12.5157
G01 X49.2839 Y12.6075
G01 X49.2090 Y12.6914
G01 X49.1251 Y12.7663
G01 X49.0428 Y12.8251
G01 X49.0235 Y12.8372
G01 X48.9450 Y12.8806
G01 X48.9245 Y12.8905
G01 X48.8309 Y12.9289
G01 X48.7228 Y12.9600
G01 X48.6119 Y12.9789
G01 X48.4996 Y12.9852
G01 X48.3873 Y12.9789
G01 X48.2875 Y12.9623
G01 X48.2653 Y12.9572
G01 X48.1791 Y12.9324
G01 X48.1576 Y12.9248
G01 X48.0643 Y12.8859
G01 X47.9659 Y12.8314
G01 X47.8741 Y12.7663
G01 X47.7902 Y12.6914
G01 X47.7153 Y12.6075
G01 X47.6565 Y12.5252
G01 X47.6444 Y12.5059
G01 X47.6010 Y12.4274
G01 X47.5911 Y12.4069
G01 X47.5527 Y12.3133
G01 X47.5216 Y12.2052
G01 X47.5027 Y12.0943
G01 X47.4964 Y11.9820
G01 X47.5027 Y11.8697
G01 X47.5193 Y11.7699
G01 X47.5244 Y11.7477
G01 X47.5492 Y11.6615
G01 X47.5568 Y11.6400
G01 X47.5957 Y11.5467
G01 X47.6502 Y11.4483
G01 X47.7153 Y11.3565
G01 X47.7824 Y11.2809
G01 X47.7985 Y11.2648
G01 X47.8654 Y11.2050
G01 X47.8832 Y11.1908
G01 X47.9659 Y11.1326
G01 X48.0643 Y11.0781
G01 X48.1683 Y11.0351
G01 X48.2653 Y11.0068
G01 X48.2875 Y11.0017
G01 X48.3760 Y10.9867
G01 X48.3986 Y10.9841
G01 X48.4369 Y10.9820
G01 X48.3873 Y10.9789
G01 X48.2875 Y10.9623
G01 X48.2653 Y10.9572
G01 X48.1791 Y10.9324
G01 X48.1576 Y10.9248
G01 X48.0643 Y10.8859
G01 X47.9757 Y10.8372
G01 X47.9564 Y10.8251
G01 X47.8741 Y10.7663
G01 X47.7902 Y10.6914
G01 X47.7153 Y10.6075
G01 X47.6565 Y10.5252
G01 X47.6444 Y10.5059
G01 X47.5957 Y10.4173
G01 X47.5527 Y10.3133
G01 X47.5216 Y10.2052
G01 X47.5027 Y10.0943
G01 X47.4964 Y9.9820
G01 X47.5027 Y9.8697
G01 X47.5216 Y9.7588
G01 X47.5492 Y9.6615
G01 X47.5568 Y9.6400
G01 X47.5957 Y9.5467
G01 X47.6444 Y9.4581
G01 X47.6565 Y9.4388
G01 X47.7153 Y9.3565
G01 X47.7824 Y9.2809
G01 X47.7985 Y9.2648
G01 X47.8741 Y9.1977
G01 X47.9564 Y9.1389
G01 X47.9757 Y9.1268
G01 X48.0643 Y9.0781
G01 X48.1576 Y9.0392
G01 X48.1791 Y9.0316
G01 X48.2764 Y9.0040
G01 X48.3873 Y8.9851
G01 X48.4369 Y8.9820
G00 Z2.5400
G00 X30.2164 Y43.1684
G01 F76.20
G01 Z-0.2000
G01 F76.20
G01 X30.2022 Y43.1505
G01 X30.1438 Y43.0682
G01 X30.1317 Y43.0489
G01 X30.0776 Y42.9505
G01 X30.0303 Y42.8362
G01 X29.9989 Y42.7283
G01 X29.9938 Y42.7061
G01 X29.9753 Y42.5953
G01 X29.9684 Y42.4718
G01 X29.9687 Y42.0608
G01 X29.9753 Y41.9487
G01 X29.9961 Y41.8267
G01 X30.0303 Y41.7078
G01 X30.0776 Y41.5935
G01 X30.1375 Y41.4852
G01 X30.2091 Y41.3843
G01 X30.2915 Y41.2921
G01 X30.3751 Y41.2170
G01 X30.3929 Y41.2028
G01 X30.4752 Y41.1444
G01 X30.4945 Y41.1323
G01 X30.5929 Y41.0782
G01 X30.7072 Y41.0309
G01 X30.8261 Y40.9966
G01 X30.9481 Y40.9759
G01 X31.0716 Y40.9690
G01 X31.1838 Y40.9750
G01 X31.2064 Y40.9775
G01 X31.3059 Y40.9944
G01 X31.3281 Y40.9995
G01 X31.4360 Y41.0309
G01 X31.5503 Y41.0782
G01 X31.6585 Y41.1381
G01 X31.7594 Y41.2097
G01 X31.8517 Y41.2921
G01 X31.9341 Y41.3843
G01 X32.0057 Y41.4852
G01 X32.0603 Y41.5834
G01 X32.0702 Y41.6039
G01 X32.1088 Y41.6972
G01 X32.1164 Y41.7187
G01 X32.1471 Y41.8267
G01 X32.1679 Y41.9487
G01 X32.1748 Y42.0722
G01 X32.1747 Y42.4775
G01 X32.1679 Y42.5953
G01 X32.1494 Y42.7061
G01 X32.1443 Y42.7283
G01 X32.1129 Y42.8362
G01 X32.0656 Y42.9505
G01 X32.0057 Y43.0588
G01 X31.9341 Y43.1597
G01 X31.8517 Y43.2519
G01 X31.7594 Y43.3343
G01 X31.6585 Y43.4059
G01 X31.5503 Y43.4658
G01 X31.4360 Y43.5131
G01 X31.3171 Y43.5474
G01 X31.1951 Y43.5681
G01 X31.0716 Y43.5750
G01 X30.9481 Y43.5681
G01 X30.8261 Y43.5474
G01 X30.7072 Y43.5131
G01 X30.5929 Y43.4658
G01 X30.4847 Y43.4059
G01 X30.3838 Y43.3343
G01 X30.2915 Y43.2519
G01 X30.2164 Y43.1684
G00 Z2.5400
G00 X27.6764 Y43.1684
G01 F76.20
G01 Z-0.2000
G01 F76.20
G01 X27.6622 Y43.1505
G01 X27.6038 Y43.0682
G01 X27.5917 Y43.0489
G01 X27.5376 Y42.9505
G01 X27.4903 Y42.8362
G01 X27.4589 Y42.7283
G01 X27.4538 Y42.7061
G01 X27.4353 Y42.5953
G01 X27.4284 Y42.4718
G01 X27.4287 Y42.0608
G01 X27.4353 Y41.9487
G01 X27.4561 Y41.8267
G01 X27.4903 Y41.7078
G01 X27.5376 Y41.5935
G01 X27.5975 Y41.4852
G01 X27.6691 Y41.3843
G01 X27.7515 Y41.2921
G01 X27.8351 Y41.2170
G01 X27.8529 Y41.2028
G01 X27.9352 Y41.1444
G01 X27.9545 Y41.1323
G01 X28.0529 Y41.0782
G01 X28.1672 Y41.0309
G01 X28.2861 Y40.9966
G01 X28.4081 Y40.9759
G01 X28.5316 Y40.9690
G01 X28.6438 Y40.9750
G01 X28.6664 Y40.9775
G01 X28.7659 Y40.9944
G01 X28.7881 Y40.9995
G01 X28.8960 Y41.0309
G01 X29.0103 Y41.0782
G01 X29.1185 Y41.1381
G01 X29.2194 Y41.2097
G01 X29.3117 Y41.2921
G01 X29.3941 Y41.3843
G01 X29.4657 Y41.4852
G01 X29.5203 Y41.5834
G01 X29.5302 Y41.6039
G01 X29.5688 Y41.6972
G01 X29.5764 Y41.7187
G01 X29.6071 Y41.8267
G01 X29.6279 Y41.9487
G01 X29.6348 Y42.0722
G01 X29.6347 Y42.4775
G01 X29.6279 Y42.5953
G01 X29.6094 Y42.7061
G01 X29.6043 Y42.7283
G01 X29.5729 Y42.8362
G01 X29.5256 Y42.9505
G01 X29.4657 Y43.0588
G01 X29.3941 Y43.1597
G01 X29.3117 Y43.2519
G01 X29.2194 Y43.3343
G01 X29.1185 Y43.4059
G01 X29.0103 Y43.4658
G01 X28.8960 Y43.5131
G01 X28.7771 Y43.5474
G01 X28.6551 Y43.5681
G01 X28.5316 Y43.5750
G01 X28.4081 Y43.5681
G01 X28.2861 Y43.5474
G01 X28.1672 Y43.5131
G01 X28.0529 Y43.4658
G01 X27.9447 Y43.4059
G01 X27.8438 Y43.3343
G01 X27.7515 Y43.2519
G01 X27.6764 Y43.1684
G00 Z2.5400
G00 X28.9464 Y55.8684
G01 F76.20
G01 Z-0.2000
G01 F76.20
G01 X28.9322 Y55.8505
G01 X28.8738 Y55.7682
G01 X28.8617 Y55.7489
G01 X28.8076 Y55.6505
G01 X28.7603 Y55.5362
G01 X28.7289 Y55.4283
G01 X28.7238 Y55.4061
G01 X28.7053 Y55.2953
G01 X28.6984 Y55.1718
G01 X28.6987 Y54.7608
G01 X28.7053 Y54.6487
G01 X28.7261 Y54.5267
G01 X28.7603 Y54.4078
G01 X28.8076 Y54.2935
G01 X28.8675 Y54.1852
G01 X28.9391 Y54.0843
G01 X29.0215 Y53.9921
G01 X29.1051 Y53.9170
G01 X29.1229 Y53.9028
G01 X29.2052 Y53.8444
G01 X29.2245 Y53.8323
G01 X29.3229 Y53.7782
G01 X29.4372 Y53.7309
G01 X29.5561 Y53.6966
G01 X29.6781 Y53.6759
G01 X29.8016 Y53.6690
G01 X29.9138 Y53.6750
G01 X29.9364 Y53.6775
G01 X30.0359 Y53.6944
G01 X30.0581 Y53.6995
G01 X30.1660 Y53.7309
G01 X30.2803 Y53.7782
G01 X30.3885 Y53.8381
G01 X30.4894 Y53.9097
G01 X30.5817 Y53.9921
G01 X30.6641 Y54.0843
G01 X30.7357 Y54.1852
G01 X30.7903 Y54.2834
G01 X30.8002 Y54.3039
G01 X30.8388 Y54.3972
G01 X30.8464 Y54.4187
G01 X30.8771 Y54.5267
G01 X30.8979 Y54.6487
G01 X30.9048 Y54.7722
G01 X30.9047 Y55.1775
G01 X30.8979 Y55.2953
G01 X30.8794 Y55.4061
G01 X30.8743 Y55.4283
G01 X30.8429 Y55.5362
G01 X30.7956 Y55.6505
G01 X30.7357 Y55.7588
G01 X30.6641 Y55.8597
G01 X30.5817 Y55.9519
G01 X30.4894 Y56.0343
G01 X30.3885 Y56.1059
G01 X30.2803 Y56.1658
G01 X30.1660 Y56.2131
G01 X30.0471 Y56.2474
G01 X29.9251 Y56.2681
G01 X29.8016 Y56.2750
G01 X29.6781 Y56.2681
G01 X29.5561 Y56.2474
G01 X29.4372 Y56.2131
G01 X29.3229 Y56.1658
G01 X29.2147 Y56.1059
G01 X29.1138 Y56.0343
G01 X29.0215 Y55.9519
G01 X28.9464 Y55.8684
G00 Z2.5400
G00 X31.4864 Y55.8684
G01 F76.20
G01 Z-0.2000
G01 F76.20
G01 X31.4722 Y55.8505
G01 X31.4138 Y55.7682
G01 X31.4017 Y55.7489
G01 X31.3476 Y55.6505
G01 X31.3003 Y55.5362
G01 X31.2689 Y55.4283
G01 X31.2638 Y55.4061
G01 X31.2453 Y55.2953
G01 X31.2384 Y55.1718
G01 X31.2387 Y54.7608
G01 X31.2453 Y54.6487
G01 X31.2661 Y54.5267
G01 X31.3003 Y54.4078
G01 X31.3476 Y54.2935
G01 X31.4075 Y54.1852
G01 X31.4791 Y54.0843
G01 X31.5615 Y53.9921
G01 X31.6451 Y53.9170
G01 X31.6629 Y53.9028
G01 X31.7452 Y53.8444
G01 X31.7645 Y53.8323
G01 X31.8629 Y53.7782
G01 X31.9772 Y53.7309
G01 X32.0961 Y53.6966
G01 X32.2181 Y53.6759
G01 X32.3416 Y53.6690
G01 X32.4538 Y53.6750
G01 X32.4764 Y53.6775
G01 X32.5759 Y53.6944
G01 X32.5981 Y53.6995
G01 X32.7060 Y53.7309
G01 X32.8203 Y53.7782
G01 X32.9285 Y53.8381
G01 X33.0294 Y53.9097
G01 X33.1217 Y53.9921
G01 X33.2041 Y54.0843
G01 X33.2757 Y54.1852
G01 X33.3303 Y54.2834
G01 X33.3402 Y54.3039
G01 X33.3788 Y54.3972
G01 X33.3864 Y54.4187
G01 X33.4171 Y54.5267
G01 X33.4379 Y54.6487
G01 X33.4448 Y54.7722
G01 X33.4447 Y55.1775
G01 X33.4379 Y55.2953
G01 X33.4194 Y55.4061
G01 X33.4143 Y55.4283
G01 X33.3829 Y55.5362
G01 X33.3356 Y55.6505
G01 X33.2757 Y55.7588
G01 X33.2041 Y55.8597
G01 X33.1217 Y55.9519
G01 X33.0294 Y56.0343
G01 X32.9285 Y56.1059
G01 X32.8203 Y56.1658
G01 X32.7060 Y56.2131
G01 X32.5871 Y56.2474
G01 X32.4651 Y56.2681
G01 X32.3416 Y56.2750
G01 X32.2181 Y56.2681
G01 X32.0961 Y56.2474
G01 X31.9772 Y56.2131
G01 X31.8629 Y56.1658
G01 X31.7547 Y56.1059
G01 X31.6538 Y56.0343
G01 X31.5615 Y55.9519
G01 X31.4864 Y55.8684
G00 Z2.5400
G00 X34.0264 Y55.8684
G01 F76.20
G01 Z-0.2000
G01 F76.20
G01 X34.0122 Y55.8505
G01 X33.9538 Y55.7682
G01 X33.9417 Y55.7489
G01 X33.8876 Y55.6505
G01 X33.8403 Y55.5362
G01 X33.8089 Y55.4283
G01 X33.8038 Y55.4061
G01 X33.7853 Y55.2953
G01 X33.7784 Y55.1718
G01 X33.7787 Y54.7608
G01 X33.7853 Y54.6487
G01 X33.8061 Y54.5267
G01 X33.8403 Y54.4078
G01 X33.8876 Y54.2935
G01 X33.9475 Y54.1852
G01 X34.0191 Y54.0843
G01 X34.1015 Y53.9921
G01 X34.1851 Y53.9170
G01 X34.2029 Y53.9028
G01 X34.2852 Y53.8444
G01 X34.3045 Y53.8323
G01 X34.4029 Y53.7782
G01 X34.5172 Y53.7309
G01 X34.6361 Y53.6966
G01 X34.7581 Y53.6759
G01 X34.8816 Y53.6690
G01 X34.9938 Y53.6750
G01 X35.0164 Y53.6775
G01 X35.1159 Y53.6944
G01 X35.1381 Y53.6995
G01 X35.2460 Y53.7309
G01 X35.3603 Y53.7782
G01 X35.4685 Y53.8381
G01 X35.5694 Y53.9097
G01 X35.6617 Y53.9921
G01 X35.7441 Y54.0843
G01 X35.8157 Y54.1852
G01 X35.8703 Y54.2834
G01 X35.8802 Y54.3039
G01 X35.9188 Y54.3972
G01 X35.9264 Y54.4187
G01 X35.9571 Y54.5267
G01 X35.9779 Y54.6487
G01 X35.9848 Y54.7722
G01 X35.9847 Y55.1775
G01 X35.9779 Y55.2953
G01 X35.9594 Y55.4061
G01 X35.9543 Y55.4283
G01 X35.9229 Y55.5362
G01 X35.8756 Y55.6505
G01 X35.8157 Y55.7588
G01 X35.7441 Y55.8597
G01 X35.6617 Y55.9519
G01 X35.5694 Y56.0343
G01 X35.4685 Y56.1059
G01 X35.3603 Y56.1658
G01 X35.2460 Y56.2131
G01 X35.1271 Y56.2474
G01 X35.0051 Y56.2681
G01 X34.8816 Y56.2750
G01 X34.7581 Y56.2681
G01 X34.6361 Y56.2474
G01 X34.5172 Y56.2131
G01 X34.4029 Y56.1658
G01 X34.2947 Y56.1059
G01 X34.1938 Y56.0343
G01 X34.1015 Y55.9519
G01 X34.0264 Y55.8684
G00 Z2.5400
G00 X36.5664 Y55.8684
G01 F76.20
G01 Z-0.2000
G01 F76.20
G01 X36.5522 Y55.8505
G01 X36.4938 Y55.7682
G01 X36.4817 Y55.7489
G01 X36.4276 Y55.6505
G01 X36.3803 Y55.5362
G01 X36.3489 Y55.4283
G01 X36.3438 Y55.4061
G01 X36.3253 Y55.2953
G01 X36.3184 Y55.1718
G01 X36.3187 Y54.7608
G01 X36.3253 Y54.6487
G01 X36.3461 Y54.5267
G01 X36.3803 Y54.4078
G01 X36.4276 Y54.2935
G01 X36.4875 Y54.1852
G01 X36.5591 Y54.0843
G01 X36.6415 Y53.9921
G01 X36.7251 Y53.9170
G01 X36.7429 Y53.9028
G01 X36.8252 Y53.8444
G01 X36.8445 Y53.8323
G01 X36.9429 Y53.7782
G01 X37.0572 Y53.7309
G01 X37.1761 Y53.6966
G01 X37.2981 Y53.6759
G01 X37.4216 Y53.6690
G01 X37.5338 Y53.6750
G01 X37.5564 Y53.6775
G01 X37.6559 Y53.6944
G01 X37.6781 Y53.6995
G01 X37.7860 Y53.7309
G01 X37.9003 Y53.7782
G01 X38.0085 Y53.8381
G01 X38.1094 Y53.9097
G01 X38.2017 Y53.9921
G01 X38.2841 Y54.0843
G01 X38.3557 Y54.1852
G01 X38.4103 Y54.2834
G01 X38.4202 Y54.3039
G01 X38.4588 Y54.3972
G01 X38.4664 Y54.4187
G01 X38.4971 Y54.5267
G01 X38.5179 Y54.6487
G01 X38.5248 Y54.7722
G01 X38.5247 Y55.1775
G01 X38.5179 Y55.2953
G01 X38.4994 Y55.4061
G01 X38.4943 Y55.4283
G01 X38.4629 Y55.5362
G01 X38.4156 Y55.6505
G01 X38.3557 Y55.7588
G01 X38.2841 Y55.8597
G01 X38.2017 Y55.9519
G01 X38.1094 Y56.0343
G01 X38.0085 Y56.1059
G01 X37.9003 Y56.1658
G01 X37.7860 Y56.2131
G01 X37.6671 Y56.2474
G01 X37.5451 Y56.2681
G01 X37.4216 Y56.2750
G01 X37.2981 Y56.2681
G01 X37.1761 Y56.2474
G01 X37.0572 Y56.2131
G01 X36.9429 Y56.1658
G01 X36.8347 Y56.1059
G01 X36.7338 Y56.0343
G01 X36.6415 Y55.9519
G01 X36.5664 Y55.8684
G00 Z2.5400
G00 X39.1064 Y55.8684
G01 F76.20
G01 Z-0.2000
G01 F76.20
G01 X39.0922 Y55.8505
G01 X39.0338 Y55.7682
G01 X39.0217 Y55.7489
G01 X38.9676 Y55.6505
G01 X38.9203 Y55.5362
G01 X38.8889 Y55.4283
G01 X38.8838 Y55.4061
G01 X38.8653 Y55.2953
G01 X38.8584 Y55.1718
G01 X38.8587 Y54.7608
G01 X38.8653 Y54.6487
G01 X38.8861 Y54.5267
G01 X38.9203 Y54.4078
G01 X38.9676 Y54.2935
G01 X39.0275 Y54.1852
G01 X39.0991 Y54.0843
G01 X39.1815 Y53.9921
G01 X39.2651 Y53.9170
G01 X39.2829 Y53.9028
G01 X39.3652 Y53.8444
G01 X39.3845 Y53.8323
G01 X39.4829 Y53.7782
G01 X39.5972 Y53.7309
G01 X39.7161 Y53.6966
G01 X39.8381 Y53.6759
G01 X39.9616 Y53.6690
G01 X40.0738 Y53.6750
G01 X40.0964 Y53.6775
G01 X40.1959 Y53.6944
G01 X40.2181 Y53.6995
G01 X40.3260 Y53.7309
G01 X40.4403 Y53.7782
G01 X40.5485 Y53.8381
G01 X40.6494 Y53.9097
G01 X40.7417 Y53.9921
G01 X40.8241 Y54.0843
G01 X40.8957 Y54.1852
G01 X40.9503 Y54.2834
G01 X40.9602 Y54.3039
G01 X40.9988 Y54.3972
G01 X41.0064 Y54.4187
G01 X41.0371 Y54.5267
G01 X41.0579 Y54.6487
G01 X41.0648 Y54.7722
G01 X41.0647 Y55.1775
G01 X41.0579 Y55.2953
G01 X41.0394 Y55.4061
G01 X41.0343 Y55.4283
G01 X41.0029 Y55.5362
G01 X40.9556 Y55.6505
G01 X40.8957 Y55.7588
G01 X40.8241 Y55.8597
G01 X40.7417 Y55.9519
G01 X40.6494 Y56.0343
G01 X40.5485 Y56.1059
G01 X40.4403 Y56.1658
G01 X40.3260 Y56.2131
G01 X40.2071 Y56.2474
G01 X40.0851 Y56.2681
G01 X39.9616 Y56.2750
G01 X39.8381 Y56.2681
G01 X39.7161 Y56.2474
G01 X39.5972 Y56.2131
G01 X39.4829 Y56.1658
G01 X39.3747 Y56.1059
G01 X39.2738 Y56.0343
G01 X39.1815 Y55.9519
G01 X39.1064 Y55.8684
G00 Z2.5400
G00 X41.6464 Y55.8684
G01 F76.20
G01 Z-0.2000
G01 F76.20
G01 X41.6322 Y55.8505
G01 X41.5738 Y55.7682
G01 X41.5617 Y55.7489
G01 X41.5076 Y55.6505
G01 X41.4603 Y55.5362
G01 X41.4289 Y55.4283
G01 X41.4238 Y55.4061
G01 X41.4053 Y55.2953
G01 X41.3984 Y55.1718
G01 X41.3987 Y54.7608
G01 X41.4053 Y54.6487
G01 X41.4261 Y54.5267
G01 X41.4603 Y54.4078
G01 X41.5076 Y54.2935
G01 X41.5675 Y54.1852
G01 X41.6391 Y54.0843
G01 X41.7215 Y53.9921
G01 X41.8051 Y53.9170
G01 X41.8229 Y53.9028
G01 X41.9052 Y53.8444
G01 X41.9245 Y53.8323
G01 X42.0229 Y53.7782
G01 X42.1372 Y53.7309
G01 X42.2561 Y53.6966
G01 X42.3781 Y53.6759
G01 X42.5016 Y53.6690
G01 X42.6138 Y53.6750
G01 X42.6364 Y53.6775
G01 X42.7359 Y53.6944
G01 X42.7581 Y53.6995
G01 X42.8660 Y53.7309
G01 X42.9803 Y53.7782
G01 X43.0885 Y53.8381
G01 X43.1894 Y53.9097
G01 X43.2817 Y53.9921
G01 X43.3641 Y54.0843
G01 X43.4357 Y54.1852
G01 X43.4903 Y54.2834
G01 X43.5002 Y54.3039
G01 X43.5388 Y54.3972
G01 X43.5464 Y54.4187
G01 X43.5771 Y54.5267
G01 X43.5979 Y54.6487
G01 X43.6048 Y54.7722
G01 X43.6047 Y55.1775
G01 X43.5979 Y55.2953
G01 X43.5794 Y55.4061
G01 X43.5743 Y55.4283
G01 X43.5429 Y55.5362
G01 X43.4956 Y55.6505
G01 X43.4357 Y55.7588
G01 X43.3641 Y55.8597
G01 X43.2817 Y55.9519
