(G-CODE GENERATED BY FLATCAM v8.912 - www.flatcam.org - Version Date: 2019/03/17)

(Name: taladddd_cnc)
(Type: G-code from Excellon)
(Units: MM)

(Created on Monday, 13 May 2019 at 14:13)

(Feedrate: 76.2 mm/min)
(Feedrate rapids 76.2 mm/min)

(Z_Cut: -3.0 mm)
(Z_Move: 2.54 mm)
(Z Toolchange: 25.4 mm)
(X,Y Toolchange: 0.0000, 0.0000 mm)
(Z Start: None mm)
(Z End: 50.8 mm)
(Steps per circle: 64)
(Postprocessor Excellon: default)

(X range:    4.0560 ...   49.1000  mm)
(Y range:    4.3740 ...   55.6120  mm)

(Spindle Speed: None RPM)

G21
G90
G94

G01 F76.20
G00 Z2.5400

M03
G00 X14.5620 Y13.3560
G01 Z-3.0000
G01 Z0
G00 Z2.5400
M03
G00 X7.9580 Y44.0900
G01 Z-3.0000
G01 Z0
G00 Z2.5400
G00 X7.9580 Y46.6300
G01 Z-3.0000
G01 Z0
G00 Z2.5400
G00 X7.9580 Y49.1700
G01 Z-3.0000
G01 Z0
G00 Z2.5400
G00 X7.9580 Y51.7100
G01 Z-3.0000
G01 Z0
G00 Z2.5400
M03
G00 X4.6560 Y4.9740
G01 Z-3.0000
G01 Z0
G00 Z2.5400
G00 X7.1960 Y4.9740
G01 Z-3.0000
G01 Z0
G00 Z2.5400
G00 X9.7360 Y4.9740
G01 Z-3.0000
G01 Z0
G00 Z2.5400
G00 X12.2760 Y4.9740
G01 Z-3.0000
G01 Z0
G00 Z2.5400
G00 X14.8160 Y4.9740
G01 Z-3.0000
G01 Z0
G00 Z2.5400
G00 X17.3560 Y4.9740
G01 Z-3.0000
G01 Z0
G00 Z2.5400
G00 X19.8960 Y4.9740
G01 Z-3.0000
G01 Z0
G00 Z2.5400
G00 X22.4360 Y4.9740
G01 Z-3.0000
G01 Z0
G00 Z2.5400
G00 X26.5000 Y8.0220
G01 Z-3.0000
G01 Z0
G00 Z2.5400
G00 X26.5000 Y10.0220
G01 Z-3.0000
G01 Z0
G00 Z2.5400
G00 X26.5000 Y12.0220
G01 Z-3.0000
G01 Z0
G00 Z2.5400
G00 X48.5000 Y8.0220
G01 Z-3.0000
G01 Z0
G00 Z2.5400
G00 X48.5000 Y10.0220
G01 Z-3.0000
G01 Z0
G00 Z2.5400
G00 X48.5000 Y12.0220
G01 Z-3.0000
G01 Z0
G00 Z2.5400
G00 X48.5000 Y22.0220
G01 Z-3.0000
G01 Z0
G00 Z2.5400
G00 X48.5000 Y26.0220
G01 Z-3.0000
G01 Z0
G00 Z2.5400
G00 X47.5820 Y39.7720
G01 Z-3.0000
G01 Z0
G00 Z2.5400
G00 X45.0420 Y39.7720
G01 Z-3.0000
G01 Z0
G00 Z2.5400
G00 X42.5020 Y39.7720
G01 Z-3.0000
G01 Z0
G00 Z2.5400
G00 X39.9620 Y39.7720
G01 Z-3.0000
G01 Z0
G00 Z2.5400
G00 X37.4220 Y39.7720
G01 Z-3.0000
G01 Z0
G00 Z2.5400
G00 X34.8820 Y39.7720
G01 Z-3.0000
G01 Z0
G00 Z2.5400
G00 X32.3420 Y39.7720
G01 Z-3.0000
G01 Z0
G00 Z2.5400
G00 X29.8020 Y39.7720
G01 Z-3.0000
G01 Z0
G00 Z2.5400
G00 X27.2620 Y39.7720
G01 Z-3.0000
G01 Z0
G00 Z2.5400
G00 X28.5320 Y42.3120
G01 Z-3.0000
G01 Z0
G00 Z2.5400
G00 X31.0720 Y42.3120
G01 Z-3.0000
G01 Z0
G00 Z2.5400
G00 X47.5820 Y55.0120
G01 Z-3.0000
G01 Z0
G00 Z2.5400
G00 X45.0420 Y55.0120
G01 Z-3.0000
G01 Z0
G00 Z2.5400
G00 X42.5020 Y55.0120
G01 Z-3.0000
G01 Z0
G00 Z2.5400
G00 X39.9620 Y55.0120
G01 Z-3.0000
G01 Z0
G00 Z2.5400
G00 X37.4220 Y55.0120
G01 Z-3.0000
G01 Z0
G00 Z2.5400
G00 X34.8820 Y55.0120
G01 Z-3.0000
G01 Z0
G00 Z2.5400
G00 X32.3420 Y55.0120
G01 Z-3.0000
G01 Z0
G00 Z2.5400
G00 X29.8020 Y55.0120
G01 Z-3.0000
G01 Z0
G00 Z2.5400
G00 X27.2620 Y55.0120
G01 Z-3.0000
G01 Z0
G00 Z2.5400
G00 X24.7220 Y55.0120
G01 Z-3.0000
G01 Z0
G00 Z2.5400
G00 X22.1820 Y55.0120
G01 Z-3.0000
G01 Z0
G00 Z2.5400
G00 X19.6420 Y55.0120
G01 Z-3.0000
G01 Z0
G00 Z2.5400
G00 X13.5460 Y46.8840
G01 Z-3.0000
G01 Z0
G00 Z2.5400
G00 X13.5460 Y44.3440
G01 Z-3.0000
G01 Z0
G00 Z2.5400
G00 X19.6420 Y39.7720
G01 Z-3.0000
G01 Z0
G00 Z2.5400
G00 X22.1820 Y39.7720
G01 Z-3.0000
G01 Z0
G00 Z2.5400
G00 X24.7220 Y39.7720
G01 Z-3.0000
G01 Z0
G00 Z2.5400
G00 X20.1500 Y32.6600
G01 Z-3.0000
G01 Z0
G00 Z2.5400
G00 X17.6100 Y32.6600
G01 Z-3.0000
G01 Z0
G00 Z2.5400
G00 X11.5140 Y32.6600
G01 Z-3.0000
G01 Z0
G00 Z2.5400
G00 X8.9740 Y32.6600
G01 Z-3.0000
G01 Z0
G00 Z2.5400
G00 X6.4340 Y32.6600
G01 Z-3.0000
G01 Z0
G00 Z2.5400
G00 X6.4340 Y23.5160
G01 Z-3.0000
G01 Z0
G00 Z2.5400
G00 X8.9740 Y23.5160
G01 Z-3.0000
G01 Z0
G00 Z2.5400
G00 X11.5140 Y23.5160
G01 Z-3.0000
G01 Z0
G00 Z2.5400
G00 X17.6100 Y23.5160
G01 Z-3.0000
G01 Z0
G00 Z2.5400
G00 X20.1500 Y23.5160
G01 Z-3.0000
G01 Z0
G00 Z2.5400
G00 X26.5000 Y26.0220
G01 Z-3.0000
G01 Z0
G00 Z2.5400
G00 X20.1500 Y14.3720
G01 Z-3.0000
G01 Z0
G00 Z2.5400
G00 X17.6100 Y14.3720
G01 Z-3.0000
G01 Z0
G00 Z2.5400
G00 X11.5140 Y14.3720
G01 Z-3.0000
G01 Z0
G00 Z2.5400
G00 X8.9740 Y14.3720
G01 Z-3.0000
G01 Z0
G00 Z2.5400
G00 X6.4340 Y14.3720
G01 Z-3.0000
G01 Z0
G00 Z2.5400
M05
G00 Z35.80
G00 X0.0 Y0.0
