(G-CODE GENERATED BY FLATCAM v8.912 - www.flatcam.org - Version Date: 2019/03/17)

(Name: verddeee_iso_cnc)
(Type: G-code from Geometry)
(Units: MM)

(Created on Monday, 13 May 2019 at 14:12)

(TOOL DIAMETER: 0.41 mm)
(Feedrate: 76.2 mm/min)
(Feedrate_Z: 76.2 mm/min)
(Feedrate rapids 76.2 mm/min)

(Z_Cut: -0.2 mm)
(Z_Move: 2.54 mm)
(Z Toolchange: 25.4 mm)
(X,Y Toolchange: 0.0000, 0.0000 mm)
(Z Start: None mm)
(Z End: 50.8 mm)
(Steps per circle: 64)
(Postprocessor Geometry: default)

(X range:    2.9522 ...   51.3331  mm)
(Y range:    0.9285 ...   58.2155  mm)

(Spindle Speed: None RPM)

G21
G90
G94

G01 F76.20
G00 Z2.5400

M03
G00 X5.2374 Y14.2087
G01 F76.20
G01 Z-0.2000
G01 F76.20
G01 X5.2396 Y14.1860
G01 X5.2592 Y14.0709
G01 X5.2634 Y14.0532
G01 X5.2945 Y13.9455
G01 X5.3020 Y13.9240
G01 X5.3454 Y13.8193
G01 X5.3548 Y13.7998
G01 X5.4090 Y13.7017
G01 X5.4212 Y13.6824
G01 X5.4860 Y13.5909
G01 X5.5003 Y13.5731
G01 X5.5750 Y13.4895
G01 X5.5911 Y13.4734
G01 X5.6747 Y13.3987
G01 X5.6925 Y13.3844
G01 X5.7863 Y13.3179
G01 X5.8033 Y13.3074
G01 X5.9014 Y13.2532
G01 X5.9220 Y13.2433
G01 X6.0256 Y13.2004
G01 X6.0471 Y13.1929
G01 X6.1548 Y13.1618
G01 X6.1770 Y13.1567
G01 X6.2876 Y13.1380
G01 X6.3102 Y13.1354
G01 X6.4336 Y13.1288
G01 X6.5570 Y13.1354
G01 X6.5796 Y13.1380
G01 X6.6947 Y13.1576
G01 X6.7124 Y13.1618
G01 X6.8201 Y13.1929
G01 X6.8416 Y13.2004
G01 X6.9463 Y13.2438
G01 X6.9658 Y13.2532
G01 X7.0639 Y13.3074
G01 X7.0832 Y13.3196
G01 X7.1747 Y13.3844
G01 X7.1925 Y13.3987
G01 X7.2761 Y13.4734
G01 X7.2922 Y13.4895
G01 X7.3669 Y13.5731
G01 X7.3812 Y13.5909
G01 X7.4477 Y13.6847
G01 X7.4582 Y13.7017
G01 X7.5124 Y13.7998
G01 X7.5223 Y13.8204
G01 X7.5652 Y13.9240
G01 X7.5727 Y13.9455
G01 X7.6038 Y14.0532
G01 X7.6089 Y14.0754
G01 X7.6276 Y14.1860
G01 X7.6302 Y14.2086
G01 X7.6368 Y14.3320
G01 X7.6302 Y14.4554
G01 X7.6276 Y14.4780
G01 X7.6089 Y14.5886
G01 X7.6038 Y14.6108
G01 X7.5727 Y14.7185
G01 X7.5652 Y14.7400
G01 X7.5218 Y14.8447
G01 X7.5124 Y14.8642
G01 X7.4582 Y14.9623
G01 X7.4460 Y14.9816
G01 X7.3812 Y15.0731
G01 X7.3669 Y15.0909
G01 X7.2922 Y15.1745
G01 X7.2761 Y15.1906
G01 X7.1925 Y15.2653
G01 X7.1747 Y15.2796
G01 X7.1371 Y15.3063
G01 X7.1371 Y15.4548
G01 X11.4068 Y19.7245
G01 X18.1176 Y19.7245
G01 X18.1850 Y19.7280
G01 X18.2076 Y19.7306
G01 X18.2675 Y19.7408
G01 X18.2852 Y19.7450
G01 X18.3391 Y19.7606
G01 X18.3606 Y19.7681
G01 X18.4135 Y19.7900
G01 X18.4329 Y19.7994
G01 X18.4820 Y19.8266
G01 X18.5013 Y19.8387
G01 X18.5471 Y19.8712
G01 X18.5649 Y19.8854
G01 X18.6067 Y19.9228
G01 X20.6470 Y21.9626
G01 X20.6922 Y22.0127
G01 X20.7064 Y22.0305
G01 X20.7389 Y22.0763
G01 X20.7510 Y22.0956
G01 X20.7782 Y22.1447
G01 X20.7880 Y22.1652
G01 X20.8095 Y22.2170
G01 X20.8170 Y22.2385
G01 X20.8326 Y22.2924
G01 X20.8376 Y22.3146
G01 X20.8470 Y22.3700
G01 X20.8496 Y22.3926
G01 X20.8527 Y22.4486
G01 X20.8531 Y22.5017
G01 X20.8907 Y22.5284
G01 X20.9085 Y22.5427
G01 X20.9921 Y22.6174
G01 X21.0082 Y22.6335
G01 X21.0829 Y22.7171
G01 X21.0972 Y22.7349
G01 X21.1637 Y22.8287
G01 X21.1742 Y22.8457
G01 X21.2284 Y22.9438
G01 X21.2383 Y22.9644
G01 X21.2812 Y23.0680
G01 X21.2887 Y23.0895
G01 X21.3198 Y23.1972
G01 X21.3249 Y23.2194
G01 X21.3436 Y23.3300
G01 X21.3462 Y23.3526
G01 X21.3528 Y23.4760
G01 X21.3462 Y23.5994
G01 X21.3436 Y23.6220
G01 X21.3240 Y23.7371
G01 X21.3198 Y23.7548
G01 X21.2887 Y23.8625
G01 X21.2812 Y23.8840
G01 X21.2378 Y23.9887
G01 X21.2284 Y24.0082
G01 X21.1742 Y24.1063
G01 X21.1620 Y24.1256
G01 X21.0972 Y24.2171
G01 X21.0829 Y24.2349
G01 X21.0082 Y24.3185
G01 X20.9921 Y24.3346
G01 X20.9085 Y24.4093
G01 X20.8907 Y24.4236
G01 X20.8531 Y24.4503
G01 X20.8531 Y31.6457
G01 X20.8907 Y31.6724
G01 X20.9085 Y31.6867
G01 X20.9921 Y31.7614
G01 X21.0082 Y31.7775
G01 X21.0829 Y31.8611
G01 X21.0972 Y31.8789
G01 X21.1637 Y31.9727
G01 X21.1742 Y31.9897
G01 X21.2284 Y32.0878
G01 X21.2383 Y32.1084
G01 X21.2812 Y32.2120
G01 X21.2887 Y32.2335
G01 X21.3198 Y32.3412
G01 X21.3249 Y32.3634
G01 X21.3436 Y32.4740
G01 X21.3462 Y32.4966
G01 X21.3528 Y32.6200
G01 X21.3462 Y32.7434
G01 X21.3436 Y32.7660
G01 X21.3240 Y32.8811
G01 X21.3198 Y32.8988
G01 X21.2887 Y33.0065
G01 X21.2812 Y33.0280
G01 X21.2378 Y33.1327
G01 X21.2284 Y33.1522
G01 X21.1742 Y33.2503
G01 X21.1620 Y33.2696
G01 X21.0972 Y33.3611
G01 X21.0829 Y33.3789
G01 X21.0082 Y33.4625
G01 X20.9921 Y33.4786
G01 X20.9085 Y33.5533
G01 X20.8907 Y33.5676
G01 X20.7969 Y33.6341
G01 X20.7799 Y33.6446
G01 X20.6818 Y33.6988
G01 X20.6612 Y33.7087
G01 X20.5576 Y33.7516
G01 X20.5361 Y33.7591
G01 X20.4284 Y33.7902
G01 X20.4062 Y33.7953
G01 X20.2956 Y33.8140
G01 X20.2730 Y33.8166
G01 X20.1496 Y33.8232
G01 X20.0262 Y33.8166
G01 X20.0036 Y33.8140
G01 X19.8885 Y33.7944
G01 X19.8708 Y33.7902
G01 X19.7631 Y33.7591
G01 X19.7416 Y33.7516
G01 X19.6369 Y33.7082
G01 X19.6174 Y33.6988
G01 X19.5193 Y33.6446
G01 X19.5000 Y33.6324
G01 X19.4085 Y33.5676
G01 X19.3907 Y33.5533
G01 X19.3071 Y33.4786
G01 X19.2910 Y33.4625
G01 X19.2163 Y33.3789
G01 X19.2020 Y33.3611
G01 X19.1355 Y33.2673
G01 X19.1250 Y33.2503
G01 X19.0708 Y33.1522
G01 X19.0609 Y33.1316
G01 X19.0180 Y33.0280
G01 X19.0105 Y33.0065
G01 X18.9794 Y32.8988
G01 X18.9743 Y32.8766
G01 X18.9556 Y32.7660
G01 X18.9530 Y32.7434
G01 X18.9464 Y32.6200
G01 X18.9530 Y32.4966
G01 X18.9556 Y32.4740
G01 X18.9752 Y32.3589
G01 X18.9794 Y32.3412
G01 X19.0105 Y32.2335
G01 X19.0180 Y32.2120
G01 X19.0614 Y32.1073
G01 X19.0708 Y32.0878
G01 X19.1250 Y31.9897
G01 X19.1372 Y31.9704
G01 X19.2020 Y31.8789
G01 X19.2163 Y31.8611
G01 X19.2910 Y31.7775
G01 X19.3071 Y31.7614
G01 X19.3907 Y31.6867
G01 X19.4085 Y31.6724
G01 X19.4461 Y31.6457
G01 X19.4461 Y24.4503
G01 X19.4085 Y24.4236
G01 X19.3907 Y24.4093
G01 X19.3071 Y24.3346
G01 X19.2910 Y24.3185
G01 X19.2163 Y24.2349
G01 X19.2020 Y24.2171
G01 X19.1355 Y24.1233
G01 X19.1250 Y24.1063
G01 X19.0708 Y24.0082
G01 X19.0609 Y23.9876
G01 X19.0180 Y23.8840
G01 X19.0105 Y23.8625
G01 X18.9794 Y23.7548
G01 X18.9743 Y23.7326
G01 X18.9556 Y23.6220
G01 X18.9530 Y23.5994
G01 X18.9464 Y23.4760
G01 X18.9530 Y23.3526
G01 X18.9556 Y23.3300
G01 X18.9752 Y23.2149
G01 X18.9794 Y23.1972
G01 X19.0105 Y23.0895
G01 X19.0180 Y23.0680
G01 X19.0614 Y22.9633
G01 X19.0708 Y22.9438
G01 X19.1250 Y22.8457
G01 X19.1372 Y22.8264
G01 X19.2020 Y22.7349
G01 X19.2163 Y22.7171
G01 X19.2910 Y22.6335
G01 X19.3098 Y22.6150
G01 X17.8262 Y21.1315
G01 X11.1154 Y21.1315
G01 X11.0480 Y21.1280
G01 X11.0253 Y21.1254
G01 X10.9655 Y21.1152
G01 X10.9478 Y21.1110
G01 X10.8939 Y21.0954
G01 X10.8724 Y21.0879
G01 X10.8195 Y21.0660
G01 X10.8000 Y21.0566
G01 X10.7509 Y21.0294
G01 X10.7317 Y21.0173
G01 X10.6859 Y20.9848
G01 X10.6681 Y20.9706
G01 X10.6180 Y20.9254
G01 X5.9362 Y16.2436
G01 X5.8910 Y16.1935
G01 X5.8768 Y16.1757
G01 X5.8427 Y16.1276
G01 X5.8322 Y16.1107
G01 X5.8050 Y16.0616
G01 X5.7952 Y16.0410
G01 X5.7737 Y15.9892
G01 X5.7662 Y15.9677
G01 X5.7506 Y15.9138
G01 X5.7456 Y15.8916
G01 X5.7362 Y15.8363
G01 X5.7336 Y15.8136
G01 X5.7301 Y15.7462
G01 X5.7301 Y15.3063
G01 X5.6925 Y15.2796
G01 X5.6747 Y15.2653
G01 X5.5911 Y15.1906
G01 X5.5750 Y15.1745
G01 X5.5003 Y15.0909
G01 X5.4860 Y15.0731
G01 X5.4195 Y14.9793
G01 X5.4090 Y14.9623
G01 X5.3548 Y14.8642
G01 X5.3449 Y14.8436
G01 X5.3020 Y14.7400
G01 X5.2945 Y14.7185
G01 X5.2634 Y14.6108
G01 X5.2583 Y14.5886
G01 X5.2396 Y14.4780
G01 X5.2370 Y14.4554
G01 X5.2304 Y14.3320
G01 X5.2374 Y14.2087
G00 Z2.5400
G00 X7.7774 Y14.2087
G01 F76.20
G01 Z-0.2000
G01 F76.20
G01 X7.7796 Y14.1860
G01 X7.7983 Y14.0754
G01 X7.8034 Y14.0532
G01 X7.8345 Y13.9455
G01 X7.8420 Y13.9240
G01 X7.8854 Y13.8193
G01 X7.8948 Y13.7998
G01 X7.9490 Y13.7017
G01 X7.9612 Y13.6824
G01 X8.0260 Y13.5909
G01 X8.0403 Y13.5731
G01 X8.1150 Y13.4895
G01 X8.1311 Y13.4734
G01 X8.2147 Y13.3987
G01 X8.2325 Y13.3844
G01 X8.3263 Y13.3179
G01 X8.3433 Y13.3074
G01 X8.4414 Y13.2532
G01 X8.4620 Y13.2433
G01 X8.5656 Y13.2004
G01 X8.5871 Y13.1929
G01 X8.6948 Y13.1618
G01 X8.7170 Y13.1567
G01 X8.8276 Y13.1380
G01 X8.8502 Y13.1354
G01 X8.9736 Y13.1288
G01 X9.0970 Y13.1354
G01 X9.1196 Y13.1380
G01 X9.2302 Y13.1567
G01 X9.2524 Y13.1618
G01 X9.3601 Y13.1929
G01 X9.3816 Y13.2004
G01 X9.4863 Y13.2438
G01 X9.5058 Y13.2532
G01 X9.6039 Y13.3074
G01 X9.6232 Y13.3196
G01 X9.7147 Y13.3844
G01 X9.7325 Y13.3987
G01 X9.8161 Y13.4734
G01 X9.8322 Y13.4895
G01 X9.9069 Y13.5731
G01 X9.9212 Y13.5909
G01 X9.9877 Y13.6847
G01 X9.9982 Y13.7017
G01 X10.0524 Y13.7998
G01 X10.0623 Y13.8204
G01 X10.1052 Y13.9240
G01 X10.1127 Y13.9455
G01 X10.1438 Y14.0532
G01 X10.1489 Y14.0754
G01 X10.1676 Y14.1860
G01 X10.1702 Y14.2086
G01 X10.1768 Y14.3320
G01 X10.1702 Y14.4554
G01 X10.1676 Y14.4780
G01 X10.1489 Y14.5886
G01 X10.1438 Y14.6108
G01 X10.1127 Y14.7185
G01 X10.1052 Y14.7400
G01 X10.0618 Y14.8447
G01 X10.0524 Y14.8642
G01 X9.9982 Y14.9623
G01 X9.9860 Y14.9816
G01 X9.9212 Y15.0731
G01 X9.9069 Y15.0909
G01 X9.8322 Y15.1745
G01 X9.8161 Y15.1906
G01 X9.7325 Y15.2653
G01 X9.7147 Y15.2796
G01 X9.6209 Y15.3461
G01 X9.6039 Y15.3566
G01 X9.5058 Y15.4108
G01 X9.4852 Y15.4207
G01 X9.3816 Y15.4636
G01 X9.3601 Y15.4711
G01 X9.2524 Y15.5022
G01 X9.2302 Y15.5073
G01 X9.1196 Y15.5260
G01 X9.0970 Y15.5286
G01 X8.9736 Y15.5352
G01 X8.8502 Y15.5286
G01 X8.8276 Y15.5260
G01 X8.7170 Y15.5073
G01 X8.6948 Y15.5022
G01 X8.5871 Y15.4711
G01 X8.5656 Y15.4636
G01 X8.4609 Y15.4202
G01 X8.4414 Y15.4108
G01 X8.3433 Y15.3566
G01 X8.3240 Y15.3444
G01 X8.2325 Y15.2796
G01 X8.2147 Y15.2653
G01 X8.1311 Y15.1906
G01 X8.1150 Y15.1745
G01 X8.0403 Y15.0909
G01 X8.0260 Y15.0731
G01 X7.9595 Y14.9793
G01 X7.9490 Y14.9623
G01 X7.8948 Y14.8642
G01 X7.8849 Y14.8436
G01 X7.8420 Y14.7400
G01 X7.8345 Y14.7185
G01 X7.8034 Y14.6108
G01 X7.7983 Y14.5886
G01 X7.7796 Y14.4780
G01 X7.7770 Y14.4554
G01 X7.7704 Y14.3320
G01 X7.7774 Y14.2087
G00 Z2.5400
G00 X2.9525 Y20.7094
G01 F76.20
G01 Z-0.2000
G01 F76.20
G01 X2.9522 Y5.9340
G01 X2.9556 Y5.8666
G01 X2.9582 Y5.8440
G01 X2.9684 Y5.7841
G01 X2.9726 Y5.7664
G01 X2.9882 Y5.7125
G01 X2.9957 Y5.6910
G01 X3.0176 Y5.6381
G01 X3.0270 Y5.6187
G01 X3.0542 Y5.5696
G01 X3.0663 Y5.5503
G01 X3.0988 Y5.5045
G01 X3.1130 Y5.4867
G01 X3.1582 Y5.4366
G01 X3.4693 Y5.1255
G01 X3.4616 Y5.0800
G01 X3.4590 Y5.0574
G01 X3.4524 Y4.9340
G01 X3.4590 Y4.8106
G01 X3.4616 Y4.7880
G01 X3.4812 Y4.6729
G01 X3.4854 Y4.6552
G01 X3.5165 Y4.5475
G01 X3.5240 Y4.5260
G01 X3.5674 Y4.4213
G01 X3.5768 Y4.4018
G01 X3.6310 Y4.3037
G01 X3.6432 Y4.2844
G01 X3.7080 Y4.1929
G01 X3.7223 Y4.1751
G01 X3.7970 Y4.0915
G01 X3.8131 Y4.0754
G01 X3.8967 Y4.0007
G01 X3.9145 Y3.9864
G01 X3.9521 Y3.9597
G01 X3.9525 Y2.3826
G01 X3.9556 Y2.3266
G01 X3.9582 Y2.3040
G01 X3.9684 Y2.2442
G01 X3.9726 Y2.2264
G01 X3.9882 Y2.1725
G01 X3.9957 Y2.1510
G01 X4.0176 Y2.0981
G01 X4.0270 Y2.0787
G01 X4.0542 Y2.0296
G01 X4.0663 Y2.0103
G01 X4.0988 Y1.9645
G01 X4.1130 Y1.9467
G01 X4.1504 Y1.9049
G01 X4.9285 Y1.1268
G01 X4.9703 Y1.0894
G01 X4.9881 Y1.0752
G01 X5.0362 Y1.0411
G01 X5.0532 Y1.0306
G01 X5.1023 Y1.0034
G01 X5.1228 Y0.9936
G01 X5.1746 Y0.9721
G01 X5.1961 Y0.9646
G01 X5.2500 Y0.9490
G01 X5.2722 Y0.9440
G01 X5.3276 Y0.9346
G01 X5.3502 Y0.9320
G01 X5.4176 Y0.9285
G01 X21.1656 Y0.9285
G01 X21.2330 Y0.9320
G01 X21.2556 Y0.9346
G01 X21.3155 Y0.9448
G01 X21.3332 Y0.9490
G01 X21.3871 Y0.9646
G01 X21.4086 Y0.9721
G01 X21.4615 Y0.9940
G01 X21.4809 Y1.0034
G01 X21.5300 Y1.0306
G01 X21.5493 Y1.0427
G01 X21.5951 Y1.0752
G01 X21.6129 Y1.0894
G01 X21.6547 Y1.1268
G01 X22.9330 Y2.4046
G01 X22.9782 Y2.4547
G01 X22.9924 Y2.4725
G01 X23.0265 Y2.5206
G01 X23.0370 Y2.5376
G01 X23.0642 Y2.5867
G01 X23.0740 Y2.6072
G01 X23.0955 Y2.6590
G01 X23.1030 Y2.6805
G01 X23.1186 Y2.7344
G01 X23.1236 Y2.7566
G01 X23.1330 Y2.8120
G01 X23.1356 Y2.8346
G01 X23.1391 Y2.9020
G01 X23.1391 Y3.9597
G01 X23.1767 Y3.9864
G01 X23.1945 Y4.0007
G01 X23.2781 Y4.0754
G01 X23.2942 Y4.0915
G01 X23.3689 Y4.1751
G01 X23.3832 Y4.1929
G01 X23.4497 Y4.2867
G01 X23.4602 Y4.3037
G01 X23.5144 Y4.4018
G01 X23.5243 Y4.4224
G01 X23.5672 Y4.5260
G01 X23.5747 Y4.5475
G01 X23.6058 Y4.6552
G01 X23.6109 Y4.6774
G01 X23.6296 Y4.7880
G01 X23.6322 Y4.8106
G01 X23.6388 Y4.9340
G01 X23.6322 Y5.0574
G01 X23.6296 Y5.0800
G01 X23.6100 Y5.1951
G01 X23.6058 Y5.2128
G01 X23.5747 Y5.3205
G01 X23.5672 Y5.3420
G01 X23.5238 Y5.4467
G01 X23.5144 Y5.4662
G01 X23.4602 Y5.5643
G01 X23.4480 Y5.5836
G01 X23.3832 Y5.6751
G01 X23.3689 Y5.6929
G01 X23.2942 Y5.7765
G01 X23.2781 Y5.7926
G01 X23.1945 Y5.8673
G01 X23.1767 Y5.8816
G01 X23.1391 Y5.9083
G01 X23.1391 Y7.2785
G01 X25.7848 Y7.2785
G01 X25.7985 Y7.2648
G01 X25.8654 Y7.2050
G01 X25.8832 Y7.1908
G01 X25.9587 Y7.1373
G01 X25.9757 Y7.1268
G01 X26.0542 Y7.0834
G01 X26.0747 Y7.0735
G01 X26.1576 Y7.0392
G01 X26.1791 Y7.0316
G01 X26.2653 Y7.0068
G01 X26.2875 Y7.0017
G01 X26.3760 Y6.9867
G01 X26.3986 Y6.9841
G01 X26.4996 Y6.9788
G01 X26.6006 Y6.9841
G01 X26.6232 Y6.9867
G01 X26.7162 Y7.0025
G01 X26.7339 Y7.0068
G01 X26.8201 Y7.0316
G01 X26.8416 Y7.0392
G01 X26.9256 Y7.0739
G01 X26.9450 Y7.0834
G01 X27.0235 Y7.1268
G01 X27.0428 Y7.1389
G01 X27.1160 Y7.1908
G01 X27.1338 Y7.2050
G01 X27.2007 Y7.2648
G01 X27.2168 Y7.2809
G01 X27.2766 Y7.3478
G01 X27.2908 Y7.3656
G01 X27.3443 Y7.4411
G01 X27.3548 Y7.4581
G01 X27.3982 Y7.5366
G01 X27.4081 Y7.5571
G01 X27.4424 Y7.6400
G01 X27.4500 Y7.6615
G01 X27.4748 Y7.7477
G01 X27.4799 Y7.7699
G01 X27.4949 Y7.8584
G01 X27.4975 Y7.8810
G01 X27.5025 Y7.9706
G01 X27.5025 Y7.9934
G01 X27.4975 Y8.0830
G01 X27.4949 Y8.1056
G01 X27.4791 Y8.1986
G01 X27.4748 Y8.2163
G01 X27.4500 Y8.3025
G01 X27.4424 Y8.3240
G01 X27.4077 Y8.4080
G01 X27.3982 Y8.4274
G01 X27.3548 Y8.5059
G01 X27.3427 Y8.5252
G01 X27.2908 Y8.5984
G01 X27.2766 Y8.6162
G01 X27.2168 Y8.6831
G01 X27.2007 Y8.6992
G01 X27.1338 Y8.7590
G01 X27.1160 Y8.7732
G01 X27.0405 Y8.8267
G01 X27.0235 Y8.8372
G01 X26.9450 Y8.8806
G01 X26.9245 Y8.8905
G01 X26.8416 Y8.9248
G01 X26.8201 Y8.9324
G01 X26.7339 Y8.9572
G01 X26.7117 Y8.9623
G01 X26.6232 Y8.9773
G01 X26.6006 Y8.9799
G01 X26.5623 Y8.9820
G01 X26.6006 Y8.9841
G01 X26.6232 Y8.9867
G01 X26.7162 Y9.0025
G01 X26.7339 Y9.0068
G01 X26.8201 Y9.0316
G01 X26.8416 Y9.0392
G01 X26.9256 Y9.0739
G01 X26.9450 Y9.0834
G01 X27.0235 Y9.1268
G01 X27.0428 Y9.1389
G01 X27.1160 Y9.1908
G01 X27.1338 Y9.2050
G01 X27.2007 Y9.2648
G01 X27.2168 Y9.2809
G01 X27.2766 Y9.3478
G01 X27.2908 Y9.3656
G01 X27.3443 Y9.4411
G01 X27.3548 Y9.4581
G01 X27.3982 Y9.5366
G01 X27.4081 Y9.5571
G01 X27.4424 Y9.6400
G01 X27.4500 Y9.6615
G01 X27.4748 Y9.7477
G01 X27.4799 Y9.7699
G01 X27.4949 Y9.8584
G01 X27.4975 Y9.8810
G01 X27.5028 Y9.9820
G01 X27.4975 Y10.0830
G01 X27.4949 Y10.1056
G01 X27.4791 Y10.1986
G01 X27.4748 Y10.2163
G01 X27.4500 Y10.3025
G01 X27.4424 Y10.3240
G01 X27.4077 Y10.4080
G01 X27.3982 Y10.4274
G01 X27.3548 Y10.5059
G01 X27.3427 Y10.5252
G01 X27.2908 Y10.5984
G01 X27.2766 Y10.6162
G01 X27.2168 Y10.6831
G01 X27.2007 Y10.6992
G01 X27.1338 Y10.7590
G01 X27.1160 Y10.7732
G01 X27.0405 Y10.8267
G01 X27.0235 Y10.8372
G01 X26.9450 Y10.8806
G01 X26.9245 Y10.8905
G01 X26.8416 Y10.9248
G01 X26.8201 Y10.9324
G01 X26.7339 Y10.9572
G01 X26.7117 Y10.9623
G01 X26.6232 Y10.9773
G01 X26.6006 Y10.9799
G01 X26.5623 Y10.9820
G01 X26.6006 Y10.9841
G01 X26.6232 Y10.9867
G01 X26.7162 Y11.0025
G01 X26.7339 Y11.0068
G01 X26.8201 Y11.0316
G01 X26.8416 Y11.0392
G01 X26.9256 Y11.0739
G01 X26.9450 Y11.0834
G01 X27.0235 Y11.1268
G01 X27.0428 Y11.1389
G01 X27.1160 Y11.1908
G01 X27.1338 Y11.2050
G01 X27.2007 Y11.2648
G01 X27.2144 Y11.2785
G01 X43.1996 Y11.2785
G01 X43.2670 Y11.2820
G01 X43.2896 Y11.2846
G01 X43.3495 Y11.2948
G01 X43.3672 Y11.2990
G01 X43.4211 Y11.3146
G01 X43.4426 Y11.3221
G01 X43.4955 Y11.3440
G01 X43.5149 Y11.3534
G01 X43.5640 Y11.3806
G01 X43.5833 Y11.3927
G01 X43.6291 Y11.4252
G01 X43.6469 Y11.4394
G01 X43.6970 Y11.4846
G01 X51.1270 Y18.9146
G01 X51.1722 Y18.9647
G01 X51.1864 Y18.9825
G01 X51.2205 Y19.0306
G01 X51.2310 Y19.0476
G01 X51.2582 Y19.0967
G01 X51.2680 Y19.1172
G01 X51.2895 Y19.1690
G01 X51.2970 Y19.1905
G01 X51.3126 Y19.2444
G01 X51.3176 Y19.2666
G01 X51.3270 Y19.3220
G01 X51.3296 Y19.3446
G01 X51.3331 Y19.4120
G01 X51.3331 Y56.4960
G01 X51.3296 Y56.5634
G01 X51.3270 Y56.5860
G01 X51.3168 Y56.6459
G01 X51.3126 Y56.6636
G01 X51.2970 Y56.7175
G01 X51.2895 Y56.7390
G01 X51.2676 Y56.7919
G01 X51.2582 Y56.8113
G01 X51.2310 Y56.8604
G01 X51.2189 Y56.8797
G01 X51.1864 Y56.9255
G01 X51.1722 Y56.9433
G01 X51.1270 Y56.9934
G01 X50.1110 Y58.0094
G01 X50.0609 Y58.0546
G01 X50.0431 Y58.0688
G01 X49.9950 Y58.1029
G01 X49.9780 Y58.1134
G01 X49.9289 Y58.1406
G01 X49.9084 Y58.1504
G01 X49.8566 Y58.1719
G01 X49.8351 Y58.1794
G01 X49.7812 Y58.1950
G01 X49.7590 Y58.2000
G01 X49.7036 Y58.2094
G01 X49.6810 Y58.2120
G01 X49.6136 Y58.2155
G01 X32.7818 Y58.2155
G01 X32.7144 Y58.2120
G01 X32.6917 Y58.2094
G01 X32.6319 Y58.1992
G01 X32.6142 Y58.1950
G01 X32.5603 Y58.1794
G01 X32.5388 Y58.1719
G01 X32.4859 Y58.1500
G01 X32.4664 Y58.1406
G01 X32.4173 Y58.1134
G01 X32.3980 Y58.1013
G01 X32.3523 Y58.0688
G01 X32.3345 Y58.0546
G01 X32.2844 Y58.0094
G01 X31.8364 Y57.5610
G01 X31.7990 Y57.5191
G01 X31.7848 Y57.5013
G01 X31.7523 Y57.4556
G01 X31.7402 Y57.4363
G01 X31.7130 Y57.3872
G01 X31.7032 Y57.3666
G01 X31.6817 Y57.3148
G01 X31.6742 Y57.2933
G01 X31.6586 Y57.2394
G01 X31.6536 Y57.2172
G01 X31.6442 Y57.1619
G01 X31.6416 Y57.1392
G01 X31.6385 Y57.0832
G01 X31.6381 Y56.0208
G01 X31.5698 Y55.9597
G01 X31.5537 Y55.9436
G01 X31.4864 Y55.8684
G01 X31.4722 Y55.8505
G01 X31.4122 Y55.7659
G01 X31.4017 Y55.7489
G01 X31.3529 Y55.6606
G01 X31.3430 Y55.6401
G01 X31.3044 Y55.5468
G01 X31.2968 Y55.5253
G01 X31.2689 Y55.4283
G01 X31.2638 Y55.4061
G01 X31.2469 Y55.3066
G01 X31.2444 Y55.2840
G01 X31.2384 Y55.1718
G01 X31.2384 Y54.7722
G01 X31.2444 Y54.6600
G01 X31.2469 Y54.6374
G01 X31.2647 Y54.5334
G01 X31.2689 Y54.5157
G01 X31.2968 Y54.4187
G01 X31.3044 Y54.3972
G01 X31.3435 Y54.3028
G01 X31.3529 Y54.2834
G01 X31.4017 Y54.1951
G01 X31.4138 Y54.1758
G01 X31.4722 Y54.0935
G01 X31.4864 Y54.0756
G01 X31.5537 Y54.0004
G01 X31.5698 Y53.9843
G01 X31.6451 Y53.9170
G01 X31.6629 Y53.9028
G01 X31.7475 Y53.8428
G01 X31.7645 Y53.8323
G01 X31.8528 Y53.7835
G01 X31.8733 Y53.7736
G01 X31.9666 Y53.7350
G01 X31.9881 Y53.7274
G01 X32.0851 Y53.6995
G01 X32.1073 Y53.6944
G01 X32.2068 Y53.6775
G01 X32.2294 Y53.6750
G01 X32.3302 Y53.6693
G01 X32.3530 Y53.6693
G01 X32.4538 Y53.6750
G01 X32.4764 Y53.6775
G01 X32.5759 Y53.6944
G01 X32.5981 Y53.6995
G01 X32.6951 Y53.7274
G01 X32.7166 Y53.7350
G01 X32.8109 Y53.7740
G01 X32.8304 Y53.7835
G01 X32.9187 Y53.8323
G01 X32.9380 Y53.8444
G01 X33.0203 Y53.9028
G01 X33.0381 Y53.9170
G01 X33.1134 Y53.9843
G01 X33.1295 Y54.0004
G01 X33.1968 Y54.0756
G01 X33.2110 Y54.0935
G01 X33.2710 Y54.1781
G01 X33.2815 Y54.1951
G01 X33.3303 Y54.2834
G01 X33.3402 Y54.3039
G01 X33.3788 Y54.3972
G01 X33.3864 Y54.4187
G01 X33.4143 Y54.5157
G01 X33.4194 Y54.5379
G01 X33.4363 Y54.6374
G01 X33.4388 Y54.6600
G01 X33.4448 Y54.7722
G01 X33.4445 Y55.1832
G01 X33.4388 Y55.2840
G01 X33.4363 Y55.3066
G01 X33.4194 Y55.4061
G01 X33.4143 Y55.4283
G01 X33.3864 Y55.5253
G01 X33.3788 Y55.5468
G01 X33.3397 Y55.6412
G01 X33.3303 Y55.6606
G01 X33.2815 Y55.7489
G01 X33.2694 Y55.7682
G01 X33.2110 Y55.8505
G01 X33.1968 Y55.8684
G01 X33.1295 Y55.9436
G01 X33.1134 Y55.9597
G01 X33.0451 Y56.0208
G01 X33.0451 Y56.7804
G01 X33.0732 Y56.8085
G01 X49.3222 Y56.8085
G01 X49.9261 Y56.2046
G01 X49.9261 Y19.7034
G01 X42.9082 Y12.6855
G01 X27.2144 Y12.6855
G01 X27.2007 Y12.6992
G01 X27.1338 Y12.7590
G01 X27.1160 Y12.7732
G01 X27.0405 Y12.8267
G01 X27.0235 Y12.8372
G01 X26.9450 Y12.8806
G01 X26.9245 Y12.8905
G01 X26.8416 Y12.9248
G01 X26.8201 Y12.9324
G01 X26.7339 Y12.9572
G01 X26.7117 Y12.9623
G01 X26.6232 Y12.9773
G01 X26.6006 Y12.9799
G01 X26.4996 Y12.9852
G01 X26.3986 Y12.9799
G01 X26.3760 Y12.9773
G01 X26.2830 Y12.9615
G01 X26.2653 Y12.9572
G01 X26.1791 Y12.9324
G01 X26.1576 Y12.9248
G01 X26.0736 Y12.8901
G01 X26.0542 Y12.8806
G01 X25.9757 Y12.8372
G01 X25.9564 Y12.8251
G01 X25.8832 Y12.7732
G01 X25.8654 Y12.7590
G01 X25.7985 Y12.6992
G01 X25.7824 Y12.6831
G01 X25.7226 Y12.6162
G01 X25.7084 Y12.5984
G01 X25.6549 Y12.5229
G01 X25.6444 Y12.5059
G01 X25.6010 Y12.4274
G01 X25.5911 Y12.4069
G01 X25.5568 Y12.3240
G01 X25.5492 Y12.3025
G01 X25.5244 Y12.2163
G01 X25.5193 Y12.1941
G01 X25.5043 Y12.1056
G01 X25.5017 Y12.0830
G01 X25.4964 Y11.9820
G01 X25.5017 Y11.8810
G01 X25.5043 Y11.8584
G01 X25.5201 Y11.7654
G01 X25.5244 Y11.7477
G01 X25.5492 Y11.6615
G01 X25.5568 Y11.6400
G01 X25.5915 Y11.5560
G01 X25.6010 Y11.5366
G01 X25.6444 Y11.4581
G01 X25.6565 Y11.4388
G01 X25.7084 Y11.3656
G01 X25.7226 Y11.3478
G01 X25.7824 Y11.2809
G01 X25.7985 Y11.2648
G01 X25.8654 Y11.2050
G01 X25.8832 Y11.1908
G01 X25.9587 Y11.1373
G01 X25.9757 Y11.1268
G01 X26.0542 Y11.0834
G01 X26.0747 Y11.0735
G01 X26.1576 Y11.0392
G01 X26.1791 Y11.0316
G01 X26.2653 Y11.0068
G01 X26.2875 Y11.0017
G01 X26.3760 Y10.9867
G01 X26.3986 Y10.9841
G01 X26.4369 Y10.9820
G01 X26.3986 Y10.9799
G01 X26.3760 Y10.9773
G01 X26.2830 Y10.9615
G01 X26.2653 Y10.9572
G01 X26.1791 Y10.9324
G01 X26.1576 Y10.9248
G01 X26.0736 Y10.8901
G01 X26.0542 Y10.8806
G01 X25.9757 Y10.8372
G01 X25.9564 Y10.8251
G01 X25.8832 Y10.7732
G01 X25.8654 Y10.7590
G01 X25.7985 Y10.6992
G01 X25.7848 Y10.6855
G01 X18.1870 Y10.6855
G01 X15.0590 Y13.8134
G01 X15.0089 Y13.8586
G01 X14.9911 Y13.8728
G01 X14.9430 Y13.9069
G01 X14.9260 Y13.9174
G01 X14.8769 Y13.9446
G01 X14.8564 Y13.9544
G01 X14.8046 Y13.9759
G01 X14.7831 Y13.9834
G01 X14.7292 Y13.9990
G01 X14.7070 Y14.0040
G01 X14.6516 Y14.0134
G01 X14.6290 Y14.0160
G01 X14.5616 Y14.0195
G01 X14.4942 Y14.0160
G01 X14.4716 Y14.0134
G01 X14.4117 Y14.0032
G01 X14.3940 Y13.9990
G01 X14.3401 Y13.9834
G01 X14.3186 Y13.9759
G01 X14.2657 Y13.9540
G01 X14.2463 Y13.9446
G01 X14.1972 Y13.9174
G01 X14.1779 Y13.9053
G01 X14.1321 Y13.8728
G01 X14.1143 Y13.8586
G01 X14.0725 Y13.8212
G01 X14.0564 Y13.8051
G01 X14.0190 Y13.7633
G01 X14.0048 Y13.7455
G01 X13.9707 Y13.6974
G01 X13.9602 Y13.6804
G01 X13.9330 Y13.6313
G01 X13.9232 Y13.6108
G01 X13.9017 Y13.5590
G01 X13.8942 Y13.5375
G01 X13.8786 Y13.4836
G01 X13.8736 Y13.4614
G01 X13.8642 Y13.4060
G01 X13.8616 Y13.3834
G01 X13.8581 Y13.3160
G01 X13.8616 Y13.2486
G01 X13.8642 Y13.2260
G01 X13.8744 Y13.1662
G01 X13.8786 Y13.1484
G01 X13.8942 Y13.0945
G01 X13.9017 Y13.0730
G01 X13.9236 Y13.0201
G01 X13.9330 Y13.0007
G01 X13.9602 Y12.9516
G01 X13.9723 Y12.9323
G01 X14.0048 Y12.8865
G01 X14.0190 Y12.8687
G01 X14.0642 Y12.8186
G01 X17.3982 Y9.4846
G01 X17.4483 Y9.4394
G01 X17.4661 Y9.4252
G01 X17.5142 Y9.3911
G01 X17.5312 Y9.3806
G01 X17.5803 Y9.3534
G01 X17.6008 Y9.3436
G01 X17.6526 Y9.3221
G01 X17.6741 Y9.3146
G01 X17.7280 Y9.2990
G01 X17.7502 Y9.2940
G01 X17.8056 Y9.2846
G01 X17.8282 Y9.2820
G01 X17.8956 Y9.2785
G01 X25.7848 Y9.2785
G01 X25.7985 Y9.2648
G01 X25.8654 Y9.2050
G01 X25.8832 Y9.1908
G01 X25.9564 Y9.1389
G01 X25.9757 Y9.1268
G01 X26.0542 Y9.0834
G01 X26.0747 Y9.0735
G01 X26.1576 Y9.0392
G01 X26.1791 Y9.0316
G01 X26.2653 Y9.0068
G01 X26.2875 Y9.0017
G01 X26.3760 Y8.9867
G01 X26.3986 Y8.9841
G01 X26.4369 Y8.9820
G01 X26.3986 Y8.9799
G01 X26.3760 Y8.9773
G01 X26.2830 Y8.9615
G01 X26.2653 Y8.9572
G01 X26.1791 Y8.9324
G01 X26.1576 Y8.9248
G01 X26.0736 Y8.8901
G01 X26.0542 Y8.8806
G01 X25.9757 Y8.8372
G01 X25.9564 Y8.8251
G01 X25.8832 Y8.7732
G01 X25.8654 Y8.7590
G01 X25.7985 Y8.6992
G01 X25.7848 Y8.6855
G01 X22.4356 Y8.6855
G01 X22.3682 Y8.6820
G01 X22.3456 Y8.6794
G01 X22.2902 Y8.6700
G01 X22.2680 Y8.6650
G01 X22.2141 Y8.6494
G01 X22.1926 Y8.6419
G01 X22.1397 Y8.6200
G01 X22.1203 Y8.6106
G01 X22.0712 Y8.5834
G01 X22.0519 Y8.5713
G01 X22.0061 Y8.5388
G01 X21.9883 Y8.5246
G01 X21.9465 Y8.4872
G01 X21.9304 Y8.4711
G01 X21.8930 Y8.4293
G01 X21.8788 Y8.4115
G01 X21.8447 Y8.3634
G01 X21.8342 Y8.3464
G01 X21.8070 Y8.2973
G01 X21.7972 Y8.2768
G01 X21.7757 Y8.2250
G01 X21.7682 Y8.2035
G01 X21.7526 Y8.1496
G01 X21.7476 Y8.1274
G01 X21.7382 Y8.0720
G01 X21.7356 Y8.0494
G01 X21.7321 Y7.9820
G01 X21.7321 Y5.9083
G01 X21.6945 Y5.8816
G01 X21.6767 Y5.8673
G01 X21.5931 Y5.7926
G01 X21.5770 Y5.7765
G01 X21.5023 Y5.6929
G01 X21.4880 Y5.6751
G01 X21.4215 Y5.5813
G01 X21.4110 Y5.5643
G01 X21.3568 Y5.4662
G01 X21.3469 Y5.4456
G01 X21.3040 Y5.3420
G01 X21.2965 Y5.3205
G01 X21.2654 Y5.2128
G01 X21.2603 Y5.1906
G01 X21.2416 Y5.0800
G01 X21.2390 Y5.0574
G01 X21.2327 Y4.9454
G01 X21.2327 Y4.9226
G01 X21.2390 Y4.8106
G01 X21.2416 Y4.7880
G01 X21.2612 Y4.6729
G01 X21.2654 Y4.6552
G01 X21.2965 Y4.5475
G01 X21.3040 Y4.5260
G01 X21.3474 Y4.4213
G01 X21.3568 Y4.4018
G01 X21.4110 Y4.3037
G01 X21.4232 Y4.2844
G01 X21.4880 Y4.1929
G01 X21.5023 Y4.1751
G01 X21.5770 Y4.0915
G01 X21.5931 Y4.0754
G01 X21.6767 Y4.0007
G01 X21.6945 Y3.9864
G01 X21.7321 Y3.9597
G01 X21.7321 Y3.1934
G01 X20.8742 Y2.3355
G01 X18.4090 Y2.3355
G01 X18.0591 Y2.6854
G01 X18.0591 Y3.9597
G01 X18.0967 Y3.9864
G01 X18.1145 Y4.0007
G01 X18.1981 Y4.0754
G01 X18.2142 Y4.0915
G01 X18.2889 Y4.1751
G01 X18.3032 Y4.1929
G01 X18.3697 Y4.2867
G01 X18.3802 Y4.3037
G01 X18.4344 Y4.4018
G01 X18.4443 Y4.4224
G01 X18.4872 Y4.5260
G01 X18.4947 Y4.5475
G01 X18.5258 Y4.6552
G01 X18.5309 Y4.6774
G01 X18.5496 Y4.7880
G01 X18.5522 Y4.8106
G01 X18.5588 Y4.9340
G01 X18.5522 Y5.0574
G01 X18.5496 Y5.0800
G01 X18.5300 Y5.1951
G01 X18.5258 Y5.2128
G01 X18.4947 Y5.3205
G01 X18.4872 Y5.3420
G01 X18.4438 Y5.4467
G01 X18.4344 Y5.4662
G01 X18.3802 Y5.5643
G01 X18.3680 Y5.5836
G01 X18.3032 Y5.6751
G01 X18.2889 Y5.6929
G01 X18.2142 Y5.7765
G01 X18.1981 Y5.7926
G01 X18.1145 Y5.8673
G01 X18.0967 Y5.8816
G01 X18.0029 Y5.9481
G01 X17.9859 Y5.9586
G01 X17.8878 Y6.0128
G01 X17.8672 Y6.0227
G01 X17.7636 Y6.0656
G01 X17.7421 Y6.0731
G01 X17.6344 Y6.1042
G01 X17.6122 Y6.1093
G01 X17.5016 Y6.1280
G01 X17.4790 Y6.1306
G01 X17.3556 Y6.1372
G01 X17.2322 Y6.1306
G01 X17.2096 Y6.1280
G01 X17.0990 Y6.1093
G01 X17.0768 Y6.1042
G01 X16.9691 Y6.0731
G01 X16.9476 Y6.0656
G01 X16.8429 Y6.0222
G01 X16.8234 Y6.0128
G01 X16.7253 Y5.9586
G01 X16.7060 Y5.9464
G01 X16.6145 Y5.8816
G01 X16.5967 Y5.8673
G01 X16.5131 Y5.7926
G01 X16.4970 Y5.7765
G01 X16.4223 Y5.6929
G01 X16.4080 Y5.6751
G01 X16.3415 Y5.5813
G01 X16.3310 Y5.5643
G01 X16.2768 Y5.4662
G01 X16.2669 Y5.4456
G01 X16.2240 Y5.3420
G01 X16.2165 Y5.3205
G01 X16.1854 Y5.2128
G01 X16.1803 Y5.1906
G01 X16.1616 Y5.0800
G01 X16.1590 Y5.0574
G01 X16.1524 Y4.9340
G01 X16.1590 Y4.8106
G01 X16.1616 Y4.7880
G01 X16.1812 Y4.6729
G01 X16.1854 Y4.6552
G01 X16.2165 Y4.5475
G01 X16.2240 Y4.5260
G01 X16.2674 Y4.4213
G01 X16.2768 Y4.4018
G01 X16.3310 Y4.3037
G01 X16.3432 Y4.2844
G01 X16.4080 Y4.1929
G01 X16.4223 Y4.1751
G01 X16.4970 Y4.0915
G01 X16.5131 Y4.0754
G01 X16.5967 Y4.0007
G01 X16.6145 Y3.9864
G01 X16.6521 Y3.9597
G01 X16.6521 Y2.3940
G01 X16.6551 Y2.3355
G01 X10.7890 Y2.3355
G01 X10.4391 Y2.6854
G01 X10.4391 Y3.9597
G01 X10.4767 Y3.9864
G01 X10.4945 Y4.0007
G01 X10.5781 Y4.0754
G01 X10.5942 Y4.0915
G01 X10.6689 Y4.1751
G01 X10.6832 Y4.1929
G01 X10.7497 Y4.2867
G01 X10.7602 Y4.3037
G01 X10.8144 Y4.4018
G01 X10.8243 Y4.4224
G01 X10.8672 Y4.5260
G01 X10.8747 Y4.5475
G01 X10.9058 Y4.6552
G01 X10.9109 Y4.6774
G01 X10.9296 Y4.7880
G01 X10.9322 Y4.8106
G01 X10.9388 Y4.9340
G01 X10.9322 Y5.0574
G01 X10.9296 Y5.0800
G01 X10.9109 Y5.1906
G01 X10.9058 Y5.2128
G01 X10.8747 Y5.3205
G01 X10.8672 Y5.3420
G01 X10.8238 Y5.4467
G01 X10.8144 Y5.4662
G01 X10.7602 Y5.5643
G01 X10.7480 Y5.5836
G01 X10.6832 Y5.6751
G01 X10.6689 Y5.6929
G01 X10.5942 Y5.7765
G01 X10.5781 Y5.7926
G01 X10.4945 Y5.8673
G01 X10.4767 Y5.8816
G01 X10.3829 Y5.9481
G01 X10.3659 Y5.9586
G01 X10.2678 Y6.0128
G01 X10.2472 Y6.0227
G01 X10.1436 Y6.0656
G01 X10.1221 Y6.0731
G01 X10.0144 Y6.1042
G01 X9.9922 Y6.1093
G01 X9.8816 Y6.1280
G01 X9.8590 Y6.1306
G01 X9.7356 Y6.1372
G01 X9.6122 Y6.1306
G01 X9.5896 Y6.1280
G01 X9.4790 Y6.1093
G01 X9.4568 Y6.1042
G01 X9.3491 Y6.0731
G01 X9.3276 Y6.0656
G01 X9.2229 Y6.0222
G01 X9.2034 Y6.0128
G01 X9.1053 Y5.9586
G01 X9.0860 Y5.9464
G01 X8.9945 Y5.8816
G01 X8.9767 Y5.8673
G01 X8.8931 Y5.7926
G01 X8.8770 Y5.7765
G01 X8.8023 Y5.6929
G01 X8.7880 Y5.6751
G01 X8.7215 Y5.5813
G01 X8.7110 Y5.5643
G01 X8.6568 Y5.4662
G01 X8.6469 Y5.4456
G01 X8.6040 Y5.3420
G01 X8.5965 Y5.3205
G01 X8.5654 Y5.2128
G01 X8.5603 Y5.1906
G01 X8.5416 Y5.0800
G01 X8.5390 Y5.0574
G01 X8.5324 Y4.9340
G01 X8.5390 Y4.8106
G01 X8.5416 Y4.7880
G01 X8.5612 Y4.6729
G01 X8.5654 Y4.6552
G01 X8.5965 Y4.5475
G01 X8.6040 Y4.5260
G01 X8.6474 Y4.4213
G01 X8.6568 Y4.4018
G01 X8.7110 Y4.3037
G01 X8.7232 Y4.2844
G01 X8.7880 Y4.1929
G01 X8.8023 Y4.1751
G01 X8.8770 Y4.0915
G01 X8.8931 Y4.0754
G01 X8.9767 Y4.0007
G01 X8.9945 Y3.9864
G01 X9.0321 Y3.9597
G01 X9.0321 Y2.3940
G01 X9.0351 Y2.3355
G01 X5.7090 Y2.3355
G01 X5.3591 Y2.6854
G01 X5.3591 Y3.9597
G01 X5.3967 Y3.9864
G01 X5.4145 Y4.0007
G01 X5.4981 Y4.0754
G01 X5.5142 Y4.0915
G01 X5.5889 Y4.1751
G01 X5.6032 Y4.1929
G01 X5.6697 Y4.2867
G01 X5.6802 Y4.3037
G01 X5.7344 Y4.4018
G01 X5.7443 Y4.4224
G01 X5.7872 Y4.5260
G01 X5.7947 Y4.5475
G01 X5.8258 Y4.6552
G01 X5.8309 Y4.6774
G01 X5.8496 Y4.7880
G01 X5.8522 Y4.8106
G01 X5.8588 Y4.9340
G01 X5.8522 Y5.0574
G01 X5.8496 Y5.0800
G01 X5.8300 Y5.1951
G01 X5.8258 Y5.2128
G01 X5.7947 Y5.3205
G01 X5.7872 Y5.3420
G01 X5.7438 Y5.4467
G01 X5.7344 Y5.4662
G01 X5.6802 Y5.5643
G01 X5.6680 Y5.5836
G01 X5.6032 Y5.6751
G01 X5.5889 Y5.6929
G01 X5.5142 Y5.7765
G01 X5.4981 Y5.7926
G01 X5.4145 Y5.8673
G01 X5.3967 Y5.8816
G01 X5.3029 Y5.9481
G01 X5.2859 Y5.9586
G01 X5.1878 Y6.0128
G01 X5.1672 Y6.0227
G01 X5.0636 Y6.0656
G01 X5.0421 Y6.0731
G01 X4.9344 Y6.1042
G01 X4.9122 Y6.1093
G01 X4.8016 Y6.1280
G01 X4.7790 Y6.1306
G01 X4.6556 Y6.1372
G01 X4.5322 Y6.1306
G01 X4.5096 Y6.1280
G01 X4.4641 Y6.1203
G01 X4.3591 Y6.2254
G01 X4.3591 Y20.4066
G01 X6.2421 Y22.2897
G01 X6.2876 Y22.2820
G01 X6.3102 Y22.2794
G01 X6.4222 Y22.2731
G01 X6.4450 Y22.2731
G01 X6.5570 Y22.2794
G01 X6.5796 Y22.2820
G01 X6.6947 Y22.3016
G01 X6.7124 Y22.3058
G01 X6.8201 Y22.3369
G01 X6.8416 Y22.3444
G01 X6.9463 Y22.3878
G01 X6.9658 Y22.3972
G01 X7.0639 Y22.4514
G01 X7.0832 Y22.4636
G01 X7.1747 Y22.5284
G01 X7.1925 Y22.5427
G01 X7.2761 Y22.6174
G01 X7.2922 Y22.6335
G01 X7.3669 Y22.7171
G01 X7.3812 Y22.7349
G01 X7.4477 Y22.8287
G01 X7.4582 Y22.8457
G01 X7.5124 Y22.9438
G01 X7.5223 Y22.9644
G01 X7.5652 Y23.0680
G01 X7.5727 Y23.0895
G01 X7.6038 Y23.1972
G01 X7.6089 Y23.2194
G01 X7.6276 Y23.3300
G01 X7.6302 Y23.3526
G01 X7.6368 Y23.4760
G01 X7.6302 Y23.5994
G01 X7.6276 Y23.6220
G01 X7.6080 Y23.7371
G01 X7.6038 Y23.7548
G01 X7.5727 Y23.8625
G01 X7.5652 Y23.8840
G01 X7.5218 Y23.9887
G01 X7.5124 Y24.0082
G01 X7.4582 Y24.1063
G01 X7.4460 Y24.1256
G01 X7.3812 Y24.2171
G01 X7.3669 Y24.2349
G01 X7.2922 Y24.3185
G01 X7.2761 Y24.3346
G01 X7.1925 Y24.4093
G01 X7.1747 Y24.4236
G01 X7.0809 Y24.4901
G01 X7.0639 Y24.5006
G01 X6.9658 Y24.5548
G01 X6.9452 Y24.5647
G01 X6.8416 Y24.6076
G01 X6.8201 Y24.6151
G01 X6.7124 Y24.6462
G01 X6.6902 Y24.6513
G01 X6.5796 Y24.6700
G01 X6.5570 Y24.6726
G01 X6.4336 Y24.6792
G01 X6.3102 Y24.6726
G01 X6.2876 Y24.6700
G01 X6.1770 Y24.6513
G01 X6.1548 Y24.6462
G01 X6.0471 Y24.6151
G01 X6.0256 Y24.6076
G01 X5.9209 Y24.5642
G01 X5.9014 Y24.5548
G01 X5.8033 Y24.5006
G01 X5.7840 Y24.4884
G01 X5.6925 Y24.4236
G01 X5.6747 Y24.4093
G01 X5.5911 Y24.3346
G01 X5.5750 Y24.3185
G01 X5.5003 Y24.2349
G01 X5.4860 Y24.2171
G01 X5.4195 Y24.1233
G01 X5.4090 Y24.1063
G01 X5.3548 Y24.0082
G01 X5.3449 Y23.9876
G01 X5.3020 Y23.8840
G01 X5.2945 Y23.8625
G01 X5.2634 Y23.7548
G01 X5.2583 Y23.7326
G01 X5.2396 Y23.6220
G01 X5.2370 Y23.5994
G01 X5.2307 Y23.4874
G01 X5.2307 Y23.4646
G01 X5.2370 Y23.3526
G01 X5.2396 Y23.3300
G01 X5.2473 Y23.2845
G01 X3.1582 Y21.1954
G01 X3.1130 Y21.1453
G01 X3.0988 Y21.1275
G01 X3.0663 Y21.0817
G01 X3.0542 Y21.0624
G01 X3.0270 Y21.0133
G01 X3.0172 Y20.9928
G01 X2.9957 Y20.9410
G01 X2.9882 Y20.9195
G01 X2.9726 Y20.8656
G01 X2.9676 Y20.8434
G01 X2.9582 Y20.7880
G01 X2.9556 Y20.7654
G01 X2.9525 Y20.7094
G00 Z2.5400
G00 X7.7774 Y23.3527
G01 F76.20
G01 Z-0.2000
G01 F76.20
G01 X7.7796 Y23.3300
G01 X7.7992 Y23.2149
G01 X7.8034 Y23.1972
G01 X7.8345 Y23.0895
G01 X7.8420 Y23.0680
G01 X7.8854 Y22.9633
G01 X7.8948 Y22.9438
G01 X7.9490 Y22.8457
G01 X7.9612 Y22.8264
G01 X8.0260 Y22.7349
G01 X8.0403 Y22.7171
G01 X8.1150 Y22.6335
G01 X8.1311 Y22.6174
G01 X8.2147 Y22.5427
G01 X8.2325 Y22.5284
G01 X8.3240 Y22.4636
G01 X8.3433 Y22.4514
G01 X8.4414 Y22.3972
G01 X8.4620 Y22.3873
G01 X8.5656 Y22.3444
G01 X8.5871 Y22.3369
G01 X8.6948 Y22.3058
G01 X8.7170 Y22.3007
G01 X8.8276 Y22.2820
G01 X8.8502 Y22.2794
G01 X8.9622 Y22.2731
G01 X8.9850 Y22.2731
G01 X9.0970 Y22.2794
G01 X9.1196 Y22.2820
G01 X9.2302 Y22.3007
G01 X9.2524 Y22.3058
G01 X9.3601 Y22.3369
G01 X9.3816 Y22.3444
G01 X9.4863 Y22.3878
G01 X9.5058 Y22.3972
G01 X9.6039 Y22.4514
G01 X9.6232 Y22.4636
G01 X9.7147 Y22.5284
G01 X9.7325 Y22.5427
G01 X9.8161 Y22.6174
G01 X9.8322 Y22.6335
G01 X9.9069 Y22.7171
G01 X9.9212 Y22.7349
G01 X9.9877 Y22.8287
G01 X9.9982 Y22.8457
G01 X10.0524 Y22.9438
G01 X10.0623 Y22.9644
G01 X10.1052 Y23.0680
G01 X10.1127 Y23.0895
G01 X10.1438 Y23.1972
G01 X10.1489 Y23.2194
G01 X10.1676 Y23.3300
G01 X10.1702 Y23.3526
G01 X10.1768 Y23.4760
G01 X10.1702 Y23.5994
G01 X10.1676 Y23.6220
G01 X10.1480 Y23.7371
G01 X10.1438 Y23.7548
G01 X10.1127 Y23.8625
G01 X10.1052 Y23.8840
G01 X10.0618 Y23.9887
G01 X10.0524 Y24.0082
G01 X9.9982 Y24.1063
G01 X9.9860 Y24.1256
G01 X9.9212 Y24.2171
G01 X9.9069 Y24.2349
G01 X9.8322 Y24.3185
G01 X9.8161 Y24.3346
G01 X9.7325 Y24.4093
G01 X9.7147 Y24.4236
G01 X9.6771 Y24.4503
G01 X9.6771 Y25.7246
G01 X10.2810 Y26.3285
G01 X16.3022 Y26.3285
G01 X16.9061 Y25.7246
G01 X16.9061 Y24.4503
G01 X16.8685 Y24.4236
G01 X16.8507 Y24.4093
G01 X16.7671 Y24.3346
G01 X16.7510 Y24.3185
G01 X16.6763 Y24.2349
G01 X16.6620 Y24.2171
G01 X16.5955 Y24.1233
G01 X16.5850 Y24.1063
G01 X16.5308 Y24.0082
G01 X16.5209 Y23.9876
G01 X16.4780 Y23.8840
G01 X16.4705 Y23.8625
G01 X16.4394 Y23.7548
G01 X16.4343 Y23.7326
G01 X16.4156 Y23.6220
G01 X16.4130 Y23.5994
G01 X16.4064 Y23.4760
G01 X16.4130 Y23.3526
G01 X16.4156 Y23.3300
G01 X16.4352 Y23.2149
G01 X16.4394 Y23.1972
G01 X16.4705 Y23.0895
G01 X16.4780 Y23.0680
G01 X16.5214 Y22.9633
G01 X16.5308 Y22.9438
G01 X16.5850 Y22.8457
G01 X16.5972 Y22.8264
G01 X16.6620 Y22.7349
G01 X16.6763 Y22.7171
G01 X16.7510 Y22.6335
G01 X16.7671 Y22.6174
G01 X16.8507 Y22.5427
G01 X16.8685 Y22.5284
G01 X16.9623 Y22.4619
G01 X16.9793 Y22.4514
G01 X17.0774 Y22.3972
G01 X17.0980 Y22.3873
G01 X17.2016 Y22.3444
G01 X17.2231 Y22.3369
G01 X17.3308 Y22.3058
G01 X17.3530 Y22.3007
G01 X17.4636 Y22.2820
G01 X17.4862 Y22.2794
G01 X17.5982 Y22.2731
G01 X17.6210 Y22.2731
G01 X17.7330 Y22.2794
G01 X17.7556 Y22.2820
G01 X17.8662 Y22.3007
G01 X17.8884 Y22.3058
G01 X17.9961 Y22.3369
G01 X18.0176 Y22.3444
G01 X18.1223 Y22.3878
G01 X18.1418 Y22.3972
G01 X18.2399 Y22.4514
G01 X18.2592 Y22.4636
G01 X18.3507 Y22.5284
G01 X18.3685 Y22.5427
G01 X18.4521 Y22.6174
G01 X18.4682 Y22.6335
G01 X18.5429 Y22.7171
G01 X18.5572 Y22.7349
G01 X18.6220 Y22.8264
G01 X18.6342 Y22.8457
G01 X18.6884 Y22.9438
G01 X18.6983 Y22.9644
G01 X18.7412 Y23.0680
G01 X18.7487 Y23.0895
G01 X18.7798 Y23.1972
G01 X18.7849 Y23.2194
G01 X18.8036 Y23.3300
G01 X18.8062 Y23.3526
G01 X18.8128 Y23.4760
G01 X18.8062 Y23.5994
G01 X18.8036 Y23.6220
G01 X18.7840 Y23.7371
G01 X18.7798 Y23.7548
G01 X18.7487 Y23.8625
G01 X18.7412 Y23.8840
G01 X18.6978 Y23.9887
G01 X18.6884 Y24.0082
G01 X18.6342 Y24.1063
G01 X18.6220 Y24.1256
G01 X18.5572 Y24.2171
G01 X18.5429 Y24.2349
G01 X18.4682 Y24.3185
G01 X18.4521 Y24.3346
G01 X18.3685 Y24.4093
G01 X18.3507 Y24.4236
G01 X18.3131 Y24.4503
G01 X18.3127 Y26.0274
G01 X18.3096 Y26.0834
G01 X18.3070 Y26.1060
G01 X18.2968 Y26.1659
G01 X18.2926 Y26.1836
G01 X18.2770 Y26.2375
G01 X18.2695 Y26.2590
G01 X18.2476 Y26.3119
G01 X18.2382 Y26.3313
G01 X18.2110 Y26.3804
G01 X18.1989 Y26.3997
G01 X18.1664 Y26.4455
G01 X18.1522 Y26.4633
G01 X18.1070 Y26.5134
G01 X17.0910 Y27.5294
G01 X17.0409 Y27.5746
G01 X17.0231 Y27.5888
G01 X16.9750 Y27.6229
G01 X16.9580 Y27.6334
G01 X16.9089 Y27.6606
G01 X16.8884 Y27.6704
G01 X16.8366 Y27.6919
G01 X16.8151 Y27.6994
G01 X16.7612 Y27.7150
G01 X16.7390 Y27.7200
G01 X16.6836 Y27.7294
G01 X16.6610 Y27.7320
G01 X16.5936 Y27.7355
G01 X9.9896 Y27.7355
G01 X9.9222 Y27.7320
G01 X9.8996 Y27.7294
G01 X9.8442 Y27.7200
G01 X9.8220 Y27.7150
G01 X9.7681 Y27.6994
G01 X9.7466 Y27.6919
G01 X9.6937 Y27.6700
G01 X9.6743 Y27.6606
G01 X9.6252 Y27.6334
G01 X9.6059 Y27.6213
G01 X9.5601 Y27.5888
G01 X9.5423 Y27.5746
G01 X9.4922 Y27.5294
G01 X8.4762 Y26.5134
G01 X8.4310 Y26.4633
G01 X8.4168 Y26.4455
G01 X8.3827 Y26.3974
G01 X8.3722 Y26.3804
G01 X8.3450 Y26.3313
G01 X8.3352 Y26.3108
G01 X8.3137 Y26.2590
G01 X8.3062 Y26.2375
G01 X8.2906 Y26.1836
G01 X8.2856 Y26.1614
G01 X8.2762 Y26.1060
G01 X8.2736 Y26.0834
G01 X8.2705 Y26.0274
G01 X8.2701 Y24.4503
G01 X8.2325 Y24.4236
G01 X8.2147 Y24.4093
G01 X8.1311 Y24.3346
G01 X8.1150 Y24.3185
G01 X8.0403 Y24.2349
G01 X8.0260 Y24.2171
G01 X7.9595 Y24.1233
G01 X7.9490 Y24.1063
G01 X7.8948 Y24.0082
G01 X7.8849 Y23.9876
G01 X7.8420 Y23.8840
G01 X7.8345 Y23.8625
G01 X7.8034 Y23.7548
G01 X7.7983 Y23.7326
G01 X7.7796 Y23.6220
G01 X7.7770 Y23.5994
G01 X7.7704 Y23.4760
G01 X7.7774 Y23.3527
G00 Z2.5400
G00 X10.3174 Y23.3527
G01 F76.20
G01 Z-0.2000
G01 F76.20
G01 X10.3196 Y23.3300
G01 X10.3383 Y23.2194
G01 X10.3434 Y23.1972
G01 X10.3745 Y23.0895
G01 X10.3820 Y23.0680
G01 X10.4254 Y22.9633
G01 X10.4348 Y22.9438
G01 X10.4890 Y22.8457
G01 X10.5012 Y22.8264
G01 X10.5660 Y22.7349
G01 X10.5803 Y22.7171
G01 X10.6550 Y22.6335
G01 X10.6711 Y22.6174
G01 X10.7547 Y22.5427
G01 X10.7725 Y22.5284
G01 X10.8663 Y22.4619
G01 X10.8833 Y22.4514
G01 X10.9814 Y22.3972
G01 X11.0020 Y22.3873
G01 X11.1056 Y22.3444
G01 X11.1271 Y22.3369
G01 X11.2348 Y22.3058
G01 X11.2570 Y22.3007
G01 X11.3676 Y22.2820
G01 X11.3902 Y22.2794
G01 X11.5136 Y22.2728
G01 X11.6370 Y22.2794
G01 X11.6596 Y22.2820
G01 X11.7702 Y22.3007
G01 X11.7924 Y22.3058
G01 X11.9001 Y22.3369
G01 X11.9216 Y22.3444
G01 X12.0263 Y22.3878
G01 X12.0458 Y22.3972
G01 X12.1439 Y22.4514
G01 X12.1632 Y22.4636
G01 X12.2547 Y22.5284
G01 X12.2725 Y22.5427
G01 X12.3561 Y22.6174
G01 X12.3722 Y22.6335
G01 X12.4469 Y22.7171
G01 X12.4612 Y22.7349
G01 X12.5277 Y22.8287
G01 X12.5382 Y22.8457
G01 X12.5924 Y22.9438
G01 X12.6023 Y22.9644
G01 X12.6452 Y23.0680
G01 X12.6527 Y23.0895
G01 X12.6838 Y23.1972
G01 X12.6889 Y23.2194
G01 X12.7076 Y23.3300
G01 X12.7102 Y23.3526
G01 X12.7168 Y23.4760
G01 X12.7102 Y23.5994
G01 X12.7076 Y23.6220
G01 X12.6889 Y23.7326
G01 X12.6838 Y23.7548
G01 X12.6527 Y23.8625
G01 X12.6452 Y23.8840
G01 X12.6018 Y23.9887
G01 X12.5924 Y24.0082
G01 X12.5382 Y24.1063
G01 X12.5260 Y24.1256
G01 X12.4612 Y24.2171
G01 X12.4469 Y24.2349
G01 X12.3722 Y24.3185
G01 X12.3561 Y24.3346
G01 X12.2725 Y24.4093
G01 X12.2547 Y24.4236
G01 X12.1609 Y24.4901
G01 X12.1439 Y24.5006
G01 X12.0458 Y24.5548
G01 X12.0252 Y24.5647
G01 X11.9216 Y24.6076
G01 X11.9001 Y24.6151
G01 X11.7924 Y24.6462
G01 X11.7702 Y24.6513
G01 X11.6596 Y24.6700
G01 X11.6370 Y24.6726
G01 X11.5136 Y24.6792
G01 X11.3902 Y24.6726
G01 X11.3676 Y24.6700
G01 X11.2570 Y24.6513
G01 X11.2348 Y24.6462
G01 X11.1271 Y24.6151
G01 X11.1056 Y24.6076
G01 X11.0009 Y24.5642
G01 X10.9814 Y24.5548
G01 X10.8833 Y24.5006
G01 X10.8640 Y24.4884
G01 X10.7725 Y24.4236
G01 X10.7547 Y24.4093
G01 X10.6711 Y24.3346
G01 X10.6550 Y24.3185
G01 X10.5803 Y24.2349
G01 X10.5660 Y24.2171
G01 X10.4995 Y24.1233
G01 X10.4890 Y24.1063
G01 X10.4348 Y24.0082
G01 X10.4249 Y23.9876
G01 X10.3820 Y23.8840
G01 X10.3745 Y23.8625
G01 X10.3434 Y23.7548
G01 X10.3383 Y23.7326
G01 X10.3196 Y23.6220
G01 X10.3170 Y23.5994
G01 X10.3104 Y23.4760
G01 X10.3174 Y23.3527
G00 Z2.5400
G00 X7.7774 Y32.4967
G01 F76.20
G01 Z-0.2000
G01 F76.20
G01 X7.7796 Y32.4740
G01 X7.7992 Y32.3589
G01 X7.8034 Y32.3412
G01 X7.8345 Y32.2335
G01 X7.8420 Y32.2120
G01 X7.8854 Y32.1073
G01 X7.8948 Y32.0878
G01 X7.9490 Y31.9897
G01 X7.9612 Y31.9704
G01 X8.0260 Y31.8789
G01 X8.0403 Y31.8611
G01 X8.1150 Y31.7775
G01 X8.1311 Y31.7614
G01 X8.2147 Y31.6867
G01 X8.2325 Y31.6724
G01 X8.2701 Y31.6457
G01 X8.2701 Y31.0960
G01 X8.2736 Y31.0286
G01 X8.2762 Y31.0060
G01 X8.2864 Y30.9462
G01 X8.2906 Y30.9284
G01 X8.3062 Y30.8745
G01 X8.3137 Y30.8530
G01 X8.3356 Y30.8001
G01 X8.3450 Y30.7807
G01 X8.3722 Y30.7316
G01 X8.3843 Y30.7123
G01 X8.4168 Y30.6665
G01 X8.4310 Y30.6487
G01 X8.4762 Y30.5986
G01 X10.0002 Y29.0746
G01 X10.0503 Y29.0294
G01 X10.0681 Y29.0152
G01 X10.1162 Y28.9811
G01 X10.1332 Y28.9706
G01 X10.1823 Y28.9434
G01 X10.2028 Y28.9336
G01 X10.2546 Y28.9121
G01 X10.2761 Y28.9046
G01 X10.3300 Y28.8890
G01 X10.3522 Y28.8840
G01 X10.4076 Y28.8746
G01 X10.4302 Y28.8720
G01 X10.4976 Y28.8685
G01 X17.1016 Y28.8685
G01 X17.1690 Y28.8720
G01 X17.1916 Y28.8746
G01 X17.2470 Y28.8840
G01 X17.2692 Y28.8890
G01 X17.3231 Y28.9046
G01 X17.3446 Y28.9121
G01 X17.3975 Y28.9340
G01 X17.4169 Y28.9434
G01 X17.4660 Y28.9706
G01 X17.4853 Y28.9827
G01 X17.5311 Y29.0152
G01 X17.5489 Y29.0294
G01 X17.5990 Y29.0746
G01 X18.1148 Y29.5909
G01 X18.1522 Y29.6327
G01 X18.1664 Y29.6505
G01 X18.2005 Y29.6986
G01 X18.2110 Y29.7156
G01 X18.2382 Y29.7647
G01 X18.2480 Y29.7852
G01 X18.2695 Y29.8370
G01 X18.2770 Y29.8585
G01 X18.2926 Y29.9124
G01 X18.2976 Y29.9346
G01 X18.3070 Y29.9900
G01 X18.3096 Y30.0126
G01 X18.3127 Y30.0686
G01 X18.3131 Y31.6457
G01 X18.3507 Y31.6724
G01 X18.3685 Y31.6867
G01 X18.4521 Y31.7614
G01 X18.4682 Y31.7775
G01 X18.5429 Y31.8611
G01 X18.5572 Y31.8789
G01 X18.6237 Y31.9727
G01 X18.6342 Y31.9897
G01 X18.6884 Y32.0878
G01 X18.6983 Y32.1084
G01 X18.7412 Y32.2120
G01 X18.7487 Y32.2335
G01 X18.7798 Y32.3412
G01 X18.7849 Y32.3634
G01 X18.8036 Y32.4740
G01 X18.8062 Y32.4966
G01 X18.8128 Y32.6200
G01 X18.8062 Y32.7434
G01 X18.8036 Y32.7660
G01 X18.7840 Y32.8811
G01 X18.7798 Y32.8988
G01 X18.7487 Y33.0065
G01 X18.7412 Y33.0280
G01 X18.6978 Y33.1327
G01 X18.6884 Y33.1522
G01 X18.6342 Y33.2503
G01 X18.6220 Y33.2696
G01 X18.5572 Y33.3611
G01 X18.5429 Y33.3789
G01 X18.4682 Y33.4625
G01 X18.4521 Y33.4786
G01 X18.3685 Y33.5533
G01 X18.3507 Y33.5676
G01 X18.2569 Y33.6341
G01 X18.2399 Y33.6446
G01 X18.1418 Y33.6988
G01 X18.1212 Y33.7087
G01 X18.0176 Y33.7516
G01 X17.9961 Y33.7591
G01 X17.8884 Y33.7902
G01 X17.8662 Y33.7953
G01 X17.7556 Y33.8140
G01 X17.7330 Y33.8166
G01 X17.6096 Y33.8232
G01 X17.4862 Y33.8166
G01 X17.4636 Y33.8140
G01 X17.3530 Y33.7953
G01 X17.3308 Y33.7902
G01 X17.2231 Y33.7591
G01 X17.2016 Y33.7516
G01 X17.0969 Y33.7082
G01 X17.0774 Y33.6988
G01 X16.9793 Y33.6446
G01 X16.9600 Y33.6324
G01 X16.8685 Y33.5676
G01 X16.8507 Y33.5533
G01 X16.7671 Y33.4786
G01 X16.7510 Y33.4625
G01 X16.6763 Y33.3789
G01 X16.6620 Y33.3611
G01 X16.5955 Y33.2673
G01 X16.5850 Y33.2503
G01 X16.5308 Y33.1522
G01 X16.5209 Y33.1316
G01 X16.4780 Y33.0280
G01 X16.4705 Y33.0065
G01 X16.4394 Y32.8988
G01 X16.4343 Y32.8766
G01 X16.4156 Y32.7660
G01 X16.4130 Y32.7434
G01 X16.4067 Y32.6314
G01 X16.4067 Y32.6086
G01 X16.4130 Y32.4966
G01 X16.4156 Y32.4740
G01 X16.4352 Y32.3589
G01 X16.4394 Y32.3412
G01 X16.4705 Y32.2335
G01 X16.4780 Y32.2120
G01 X16.5214 Y32.1073
G01 X16.5308 Y32.0878
G01 X16.5850 Y31.9897
G01 X16.5972 Y31.9704
G01 X16.6620 Y31.8789
G01 X16.6763 Y31.8611
G01 X16.7510 Y31.7775
G01 X16.7671 Y31.7614
G01 X16.8507 Y31.6867
G01 X16.8685 Y31.6724
G01 X16.9061 Y31.6457
G01 X16.9061 Y30.3714
G01 X16.8102 Y30.2755
G01 X10.7890 Y30.2755
G01 X9.6771 Y31.3874
G01 X9.6771 Y31.6457
G01 X9.7147 Y31.6724
G01 X9.7325 Y31.6867
G01 X9.8161 Y31.7614
G01 X9.8322 Y31.7775
G01 X9.9069 Y31.8611
G01 X9.9212 Y31.8789
G01 X9.9877 Y31.9727
G01 X9.9982 Y31.9897
G01 X10.0524 Y32.0878
G01 X10.0623 Y32.1084
G01 X10.1052 Y32.2120
G01 X10.1127 Y32.2335
G01 X10.1438 Y32.3412
G01 X10.1489 Y32.3634
G01 X10.1676 Y32.4740
G01 X10.1702 Y32.4966
G01 X10.1765 Y32.6086
G01 X10.1765 Y32.6314
G01 X10.1702 Y32.7434
G01 X10.1676 Y32.7660
G01 X10.1489 Y32.8766
G01 X10.1438 Y32.8988
G01 X10.1127 Y33.0065
G01 X10.1052 Y33.0280
G01 X10.0618 Y33.1327
G01 X10.0524 Y33.1522
G01 X9.9982 Y33.2503
G01 X9.9860 Y33.2696
G01 X9.9212 Y33.3611
G01 X9.9069 Y33.3789
G01 X9.8322 Y33.4625
G01 X9.8161 Y33.4786
G01 X9.7325 Y33.5533
G01 X9.7147 Y33.5676
G01 X9.6209 Y33.6341
G01 X9.6039 Y33.6446
G01 X9.5058 Y33.6988
G01 X9.4852 Y33.7087
G01 X9.3816 Y33.7516
G01 X9.3601 Y33.7591
G01 X9.2524 Y33.7902
G01 X9.2302 Y33.7953
G01 X9.1196 Y33.8140
G01 X9.0970 Y33.8166
G01 X8.9736 Y33.8232
G01 X8.8502 Y33.8166
G01 X8.8276 Y33.8140
G01 X8.7125 Y33.7944
G01 X8.6948 Y33.7902
G01 X8.5871 Y33.7591
G01 X8.5656 Y33.7516
G01 X8.4609 Y33.7082
G01 X8.4414 Y33.6988
G01 X8.3433 Y33.6446
G01 X8.3240 Y33.6324
G01 X8.2325 Y33.5676
G01 X8.2147 Y33.5533
G01 X8.1311 Y33.4786
G01 X8.1150 Y33.4625
G01 X8.0403 Y33.3789
G01 X8.0260 Y33.3611
G01 X7.9612 Y33.2696
G01 X7.9490 Y33.2503
G01 X7.8948 Y33.1522
G01 X7.8849 Y33.1316
G01 X7.8420 Y33.0280
G01 X7.8345 Y33.0065
G01 X7.8034 Y32.8988
G01 X7.7983 Y32.8766
G01 X7.7796 Y32.7660
G01 X7.7770 Y32.7434
G01 X7.7704 Y32.6200
G01 X7.7774 Y32.4967
G00 Z2.5400
G00 X5.2374 Y32.4967
G01 F76.20
G01 Z-0.2000
G01 F76.20
G01 X5.2396 Y32.4740
G01 X5.2583 Y32.3634
G01 X5.2634 Y32.3412
G01 X5.2945 Y32.2335
G01 X5.3020 Y32.2120
G01 X5.3454 Y32.1073
G01 X5.3548 Y32.0878
G01 X5.4090 Y31.9897
G01 X5.4212 Y31.9704
G01 X5.4860 Y31.8789
G01 X5.5003 Y31.8611
G01 X5.5750 Y31.7775
G01 X5.5911 Y31.7614
G01 X5.6747 Y31.6867
G01 X5.6925 Y31.6724
G01 X5.7863 Y31.6059
G01 X5.8033 Y31.5954
G01 X5.9014 Y31.5412
G01 X5.9220 Y31.5313
G01 X6.0256 Y31.4884
G01 X6.0471 Y31.4809
G01 X6.1548 Y31.4498
G01 X6.1770 Y31.4447
G01 X6.2876 Y31.4260
G01 X6.3102 Y31.4234
G01 X6.4336 Y31.4168
G01 X6.5570 Y31.4234
G01 X6.5796 Y31.4260
G01 X6.6902 Y31.4447
G01 X6.7124 Y31.4498
G01 X6.8201 Y31.4809
G01 X6.8416 Y31.4884
G01 X6.9463 Y31.5318
G01 X6.9658 Y31.5412
G01 X7.0639 Y31.5954
G01 X7.0832 Y31.6076
G01 X7.1747 Y31.6724
G01 X7.1925 Y31.6867
G01 X7.2761 Y31.7614
G01 X7.2922 Y31.7775
G01 X7.3669 Y31.8611
G01 X7.3812 Y31.8789
G01 X7.4477 Y31.9727
G01 X7.4582 Y31.9897
G01 X7.5124 Y32.0878
G01 X7.5223 Y32.1084
G01 X7.5652 Y32.2120
G01 X7.5727 Y32.2335
G01 X7.6038 Y32.3412
G01 X7.6089 Y32.3634
G01 X7.6276 Y32.4740
G01 X7.6302 Y32.4966
G01 X7.6368 Y32.6200
G01 X7.6302 Y32.7434
G01 X7.6276 Y32.7660
G01 X7.6089 Y32.8766
G01 X7.6038 Y32.8988
G01 X7.5727 Y33.0065
G01 X7.5652 Y33.0280
G01 X7.5218 Y33.1327
G01 X7.5124 Y33.1522
G01 X7.4582 Y33.2503
G01 X7.4460 Y33.2696
G01 X7.3812 Y33.3611
G01 X7.3669 Y33.3789
G01 X7.2922 Y33.4625
G01 X7.2761 Y33.4786
G01 X7.1925 Y33.5533
G01 X7.1747 Y33.5676
G01 X7.0809 Y33.6341
G01 X7.0639 Y33.6446
G01 X6.9658 Y33.6988
G01 X6.9452 Y33.7087
G01 X6.8416 Y33.7516
G01 X6.8201 Y33.7591
G01 X6.7124 Y33.7902
G01 X6.6902 Y33.7953
G01 X6.5796 Y33.8140
G01 X6.5570 Y33.8166
G01 X6.4336 Y33.8232
G01 X6.3102 Y33.8166
G01 X6.2876 Y33.8140
G01 X6.1770 Y33.7953
G01 X6.1548 Y33.7902
G01 X6.0471 Y33.7591
G01 X6.0256 Y33.7516
G01 X5.9209 Y33.7082
G01 X5.9014 Y33.6988
G01 X5.8033 Y33.6446
G01 X5.7840 Y33.6324
G01 X5.6925 Y33.5676
G01 X5.6747 Y33.5533
G01 X5.5911 Y33.4786
G01 X5.5750 Y33.4625
G01 X5.5003 Y33.3789
G01 X5.4860 Y33.3611
G01 X5.4195 Y33.2673
G01 X5.4090 Y33.2503
G01 X5.3548 Y33.1522
G01 X5.3449 Y33.1316
G01 X5.3020 Y33.0280
G01 X5.2945 Y33.0065
G01 X5.2634 Y32.8988
G01 X5.2583 Y32.8766
G01 X5.2396 Y32.7660
G01 X5.2370 Y32.7434
G01 X5.2304 Y32.6200
G01 X5.2374 Y32.4967
G00 Z2.5400
G00 X6.8547 Y45.0973
G01 F76.20
G01 Z-0.2000
G01 F76.20
G01 X6.8343 Y45.0862
G01 X6.8153 Y45.0728
G01 X6.7979 Y45.0573
G01 X6.7824 Y45.0399
G01 X6.7690 Y45.0209
G01 X6.7579 Y45.0005
G01 X6.7495 Y44.9797
G01 X6.7433 Y44.9581
G01 X6.7396 Y44.9360
G01 X6.7384 Y44.9136
G01 X6.7384 Y43.1864
G01 X6.7396 Y43.1640
G01 X6.7433 Y43.1419
G01 X6.7495 Y43.1203
G01 X6.7579 Y43.0995
G01 X6.7690 Y43.0791
G01 X6.7824 Y43.0601
G01 X6.7979 Y43.0427
G01 X6.8153 Y43.0272
G01 X6.8343 Y43.0138
G01 X6.8547 Y43.0027
G01 X6.8755 Y42.9943
G01 X6.8971 Y42.9881
G01 X6.9192 Y42.9844
G01 X6.9416 Y42.9832
G01 X8.9736 Y42.9832
G01 X8.9960 Y42.9844
G01 X9.0181 Y42.9881
G01 X9.0397 Y42.9943
G01 X9.0605 Y43.0027
G01 X9.0809 Y43.0138
G01 X9.0999 Y43.0272
G01 X9.1173 Y43.0427
G01 X9.1328 Y43.0601
G01 X9.1462 Y43.0791
G01 X9.1573 Y43.0995
G01 X9.1657 Y43.1203
G01 X9.1719 Y43.1419
G01 X9.1756 Y43.1640
G01 X9.1768 Y43.1864
G01 X9.1768 Y43.3465
G01 X12.8185 Y43.3465
G01 X12.8983 Y43.2899
G01 X12.9153 Y43.2794
G01 X13.0134 Y43.2252
G01 X13.0340 Y43.2153
G01 X13.1376 Y43.1724
G01 X13.1591 Y43.1649
G01 X13.2668 Y43.1338
G01 X13.2890 Y43.1287
G01 X13.3996 Y43.1100
G01 X13.4222 Y43.1074
G01 X13.5456 Y43.1008
G01 X13.6690 Y43.1074
G01 X13.6916 Y43.1100
G01 X13.8067 Y43.1296
G01 X13.8244 Y43.1338
G01 X13.9321 Y43.1649
G01 X13.9536 Y43.1724
G01 X14.0583 Y43.2158
G01 X14.0778 Y43.2252
G01 X14.1759 Y43.2794
G01 X14.1952 Y43.2916
G01 X14.2867 Y43.3564
G01 X14.3045 Y43.3707
G01 X14.3881 Y43.4454
G01 X14.4042 Y43.4615
G01 X14.4789 Y43.5451
G01 X14.4932 Y43.5629
G01 X14.5199 Y43.6005
G01 X22.3208 Y43.6005
G01 X22.6228 Y43.2986
G01 X22.6729 Y43.2534
G01 X22.6907 Y43.2392
G01 X22.7364 Y43.2067
G01 X22.7557 Y43.1946
G01 X22.8048 Y43.1674
G01 X22.8254 Y43.1576
G01 X22.8772 Y43.1361
G01 X22.8987 Y43.1286
G01 X22.9526 Y43.1130
G01 X22.9748 Y43.1080
G01 X23.0301 Y43.0986
G01 X23.0528 Y43.0960
G01 X23.1202 Y43.0925
G01 X25.5421 Y43.0925
G01 X25.5421 Y40.9478
G01 X25.5456 Y40.8804
G01 X25.5482 Y40.8578
G01 X25.5584 Y40.7980
G01 X25.5626 Y40.7803
G01 X25.5782 Y40.7263
G01 X25.5857 Y40.7048
G01 X25.6076 Y40.6519
G01 X25.6170 Y40.6325
G01 X25.6442 Y40.5834
G01 X25.6563 Y40.5641
G01 X25.6888 Y40.5183
G01 X25.7030 Y40.5005
G01 X25.7482 Y40.4504
G01 X26.1639 Y40.0347
G01 X26.1584 Y39.9318
G01 X26.1584 Y39.5322
G01 X26.1644 Y39.4200
G01 X26.1669 Y39.3974
G01 X26.1847 Y39.2934
G01 X26.1889 Y39.2757
G01 X26.2168 Y39.1787
G01 X26.2244 Y39.1572
G01 X26.2635 Y39.0628
G01 X26.2729 Y39.0434
G01 X26.3217 Y38.9551
G01 X26.3338 Y38.9358
G01 X26.3922 Y38.8535
G01 X26.4064 Y38.8356
G01 X26.4737 Y38.7604
G01 X26.4898 Y38.7443
G01 X26.5651 Y38.6770
G01 X26.5829 Y38.6628
G01 X26.6675 Y38.6028
G01 X26.6845 Y38.5923
G01 X26.7728 Y38.5435
G01 X26.7933 Y38.5336
G01 X26.8866 Y38.4950
G01 X26.9081 Y38.4874
G01 X27.0051 Y38.4595
G01 X27.0273 Y38.4544
G01 X27.1268 Y38.4375
G01 X27.1494 Y38.4350
G01 X27.2616 Y38.4290
G01 X27.3738 Y38.4350
G01 X27.3964 Y38.4375
G01 X27.5004 Y38.4552
G01 X27.5181 Y38.4595
G01 X27.6151 Y38.4874
G01 X27.6366 Y38.4950
G01 X27.7309 Y38.5340
G01 X27.7504 Y38.5435
G01 X27.8387 Y38.5923
G01 X27.8580 Y38.6044
G01 X27.9403 Y38.6628
G01 X27.9581 Y38.6770
G01 X28.0334 Y38.7443
G01 X28.0495 Y38.7604
G01 X28.1168 Y38.8356
G01 X28.1310 Y38.8535
G01 X28.1910 Y38.9381
G01 X28.2015 Y38.9551
G01 X28.2503 Y39.0434
G01 X28.2602 Y39.0639
G01 X28.2988 Y39.1572
G01 X28.3064 Y39.1787
G01 X28.3343 Y39.2757
G01 X28.3394 Y39.2979
G01 X28.3563 Y39.3974
G01 X28.3588 Y39.4200
G01 X28.3648 Y39.5322
G01 X28.3648 Y39.9318
G01 X28.3588 Y40.0440
G01 X28.3563 Y40.0666
G01 X28.3385 Y40.1706
G01 X28.3343 Y40.1883
G01 X28.3064 Y40.2853
G01 X28.2988 Y40.3068
G01 X28.2597 Y40.4012
G01 X28.2503 Y40.4206
G01 X28.2015 Y40.5089
G01 X28.1894 Y40.5282
G01 X28.1310 Y40.6105
G01 X28.1168 Y40.6284
G01 X28.0495 Y40.7036
G01 X28.0334 Y40.7197
G01 X27.9581 Y40.7870
G01 X27.9403 Y40.8012
G01 X27.8557 Y40.8612
G01 X27.8387 Y40.8717
G01 X27.7504 Y40.9205
G01 X27.7299 Y40.9304
G01 X27.6366 Y40.9690
G01 X27.6151 Y40.9766
G01 X27.5181 Y41.0045
G01 X27.4959 Y41.0096
G01 X27.3964 Y41.0265
G01 X27.3738 Y41.0290
G01 X27.2616 Y41.0350
G01 X27.1587 Y41.0296
G01 X26.9491 Y41.2392
G01 X26.9491 Y43.7960
G01 X26.9456 Y43.8634
G01 X26.9430 Y43.8860
G01 X26.9328 Y43.9459
G01 X26.9286 Y43.9636
G01 X26.9130 Y44.0175
G01 X26.9055 Y44.0390
G01 X26.8836 Y44.0919
G01 X26.8742 Y44.1113
G01 X26.8470 Y44.1604
G01 X26.8349 Y44.1797
G01 X26.8024 Y44.2255
G01 X26.7882 Y44.2433
G01 X26.7508 Y44.2851
G01 X26.7347 Y44.3012
G01 X26.6929 Y44.3386
G01 X26.6751 Y44.3528
G01 X26.6270 Y44.3869
G01 X26.6100 Y44.3974
G01 X26.5609 Y44.4246
G01 X26.5404 Y44.4344
G01 X26.4886 Y44.4559
G01 X26.4671 Y44.4634
G01 X26.4132 Y44.4790
G01 X26.3910 Y44.4840
G01 X26.3356 Y44.4934
G01 X26.3130 Y44.4960
G01 X26.2456 Y44.4995
G01 X23.4116 Y44.4995
G01 X23.1096 Y44.8014
G01 X23.0595 Y44.8466
G01 X23.0417 Y44.8608
G01 X22.9936 Y44.8949
G01 X22.9766 Y44.9054
G01 X22.9275 Y44.9326
G01 X22.9070 Y44.9424
G01 X22.8552 Y44.9639
G01 X22.8337 Y44.9714
G01 X22.7797 Y44.9870
G01 X22.7575 Y44.9920
G01 X22.7022 Y45.0014
G01 X22.6796 Y45.0040
G01 X22.6236 Y45.0071
G01 X14.5199 Y45.0075
G01 X14.4932 Y45.0451
G01 X14.4789 Y45.0629
G01 X14.4042 Y45.1465
G01 X14.3881 Y45.1626
G01 X14.3045 Y45.2373
G01 X14.2867 Y45.2516
G01 X14.1929 Y45.3181
G01 X14.1759 Y45.3286
G01 X14.0778 Y45.3828
G01 X14.0572 Y45.3927
G01 X13.9536 Y45.4356
G01 X13.9321 Y45.4431
G01 X13.8244 Y45.4742
G01 X13.8022 Y45.4793
G01 X13.6916 Y45.4980
G01 X13.6690 Y45.5006
G01 X13.5570 Y45.5069
G01 X13.5342 Y45.5069
G01 X13.4222 Y45.5006
G01 X13.3996 Y45.4980
G01 X13.2890 Y45.4793
G01 X13.2668 Y45.4742
G01 X13.1591 Y45.4431
G01 X13.1376 Y45.4356
G01 X13.0329 Y45.3922
G01 X13.0134 Y45.3828
G01 X12.9153 Y45.3286
G01 X12.8960 Y45.3164
G01 X12.8045 Y45.2516
G01 X12.7867 Y45.2373
G01 X12.7031 Y45.1626
G01 X12.6870 Y45.1465
G01 X12.6123 Y45.0629
G01 X12.5980 Y45.0451
G01 X12.5315 Y44.9513
G01 X12.5210 Y44.9343
G01 X12.4668 Y44.8362
G01 X12.4569 Y44.8156
G01 X12.4311 Y44.7535
G01 X9.1768 Y44.7535
G01 X9.1768 Y44.9136
G01 X9.1756 Y44.9360
G01 X9.1719 Y44.9581
G01 X9.1657 Y44.9797
G01 X9.1573 Y45.0005
G01 X9.1462 Y45.0209
G01 X9.1328 Y45.0399
G01 X9.1173 Y45.0573
G01 X9.0999 Y45.0728
G01 X9.0809 Y45.0862
G01 X9.0605 Y45.0973
G01 X9.0397 Y45.1057
G01 X9.0181 Y45.1119
G01 X8.9960 Y45.1156
G01 X8.9736 Y45.1168
G01 X6.9416 Y45.1168
G01 X6.9192 Y45.1156
G01 X6.8971 Y45.1119
G01 X6.8755 Y45.1057
G01 X6.8547 Y45.0973
G00 Z2.5400
G00 X6.7445 Y46.4819
G01 F76.20
G01 Z-0.2000
G01 F76.20
G01 X6.7467 Y46.4593
G01 X6.7629 Y46.3638
G01 X6.7680 Y46.3416
G01 X6.7948 Y46.2485
G01 X6.8023 Y46.2270
G01 X6.8398 Y46.1364
G01 X6.8493 Y46.1170
G01 X6.8961 Y46.0322
G01 X6.9082 Y46.0130
G01 X6.9643 Y45.9340
G01 X6.9785 Y45.9162
G01 X7.0430 Y45.8439
G01 X7.0591 Y45.8278
G01 X7.1314 Y45.7633
G01 X7.1492 Y45.7491
G01 X7.2305 Y45.6914
G01 X7.2474 Y45.6809
G01 X7.3322 Y45.6341
G01 X7.3527 Y45.6242
G01 X7.4422 Y45.5871
G01 X7.4637 Y45.5796
G01 X7.5568 Y45.5528
G01 X7.5790 Y45.5477
G01 X7.6745 Y45.5315
G01 X7.6971 Y45.5289
G01 X7.8052 Y45.5232
G01 X8.1100 Y45.5232
G01 X8.2181 Y45.5289
G01 X8.2407 Y45.5315
G01 X8.3407 Y45.5485
G01 X8.3584 Y45.5528
G01 X8.4515 Y45.5796
G01 X8.4730 Y45.5871
G01 X8.5636 Y45.6246
G01 X8.5830 Y45.6341
G01 X8.6678 Y45.6809
G01 X8.6870 Y45.6930
G01 X8.7660 Y45.7491
G01 X8.7838 Y45.7633
G01 X8.8561 Y45.8278
G01 X8.8722 Y45.8439
G01 X8.9102 Y45.8865
G01 X12.8185 Y45.8865
G01 X12.8983 Y45.8299
G01 X12.9153 Y45.8194
G01 X13.0134 Y45.7652
G01 X13.0340 Y45.7553
G01 X13.1376 Y45.7124
G01 X13.1591 Y45.7049
G01 X13.2668 Y45.6738
G01 X13.2890 Y45.6687
G01 X13.3996 Y45.6500
G01 X13.4222 Y45.6474
G01 X13.5456 Y45.6408
G01 X13.6690 Y45.6474
G01 X13.6916 Y45.6500
G01 X13.8067 Y45.6696
G01 X13.8244 Y45.6738
G01 X13.9321 Y45.7049
G01 X13.9536 Y45.7124
G01 X14.0583 Y45.7558
G01 X14.0778 Y45.7652
G01 X14.1759 Y45.8194
G01 X14.1952 Y45.8316
G01 X14.2867 Y45.8964
G01 X14.3045 Y45.9107
G01 X14.3881 Y45.9854
G01 X14.4042 Y46.0015
G01 X14.4789 Y46.0851
G01 X14.4932 Y46.1029
G01 X14.5199 Y46.1405
G01 X33.3576 Y46.1405
G01 X33.4250 Y46.1440
G01 X33.4476 Y46.1466
G01 X33.5074 Y46.1568
G01 X33.5252 Y46.1610
G01 X33.5791 Y46.1766
G01 X33.6006 Y46.1841
G01 X33.6535 Y46.2060
G01 X33.6729 Y46.2154
G01 X33.7220 Y46.2426
G01 X33.7413 Y46.2547
G01 X33.7871 Y46.2872
G01 X33.8049 Y46.3014
G01 X33.8550 Y46.3466
G01 X37.9190 Y50.4106
G01 X37.9642 Y50.4607
G01 X37.9784 Y50.4785
G01 X38.0125 Y50.5266
G01 X38.0230 Y50.5436
G01 X38.0502 Y50.5927
G01 X38.0600 Y50.6132
G01 X38.0815 Y50.6650
G01 X38.0890 Y50.6865
G01 X38.1046 Y50.7404
G01 X38.1096 Y50.7626
G01 X38.1190 Y50.8180
G01 X38.1216 Y50.8406
G01 X38.1251 Y50.9080
G01 X38.1251 Y53.9232
G01 X38.1934 Y53.9843
G01 X38.2095 Y54.0004
G01 X38.2768 Y54.0756
G01 X38.2910 Y54.0935
G01 X38.3510 Y54.1781
G01 X38.3615 Y54.1951
G01 X38.4103 Y54.2834
G01 X38.4202 Y54.3039
G01 X38.4588 Y54.3972
G01 X38.4664 Y54.4187
G01 X38.4943 Y54.5157
G01 X38.4994 Y54.5379
G01 X38.5163 Y54.6374
G01 X38.5188 Y54.6600
G01 X38.5245 Y54.7608
G01 X38.5248 Y55.1718
G01 X38.5188 Y55.2840
G01 X38.5163 Y55.3066
G01 X38.4994 Y55.4061
G01 X38.4943 Y55.4283
G01 X38.4664 Y55.5253
G01 X38.4588 Y55.5468
G01 X38.4197 Y55.6412
G01 X38.4103 Y55.6606
G01 X38.3615 Y55.7489
G01 X38.3494 Y55.7682
G01 X38.2910 Y55.8505
G01 X38.2768 Y55.8684
G01 X38.2095 Y55.9436
G01 X38.1934 Y55.9597
G01 X38.1181 Y56.0270
G01 X38.1003 Y56.0412
G01 X38.0157 Y56.1012
G01 X37.9987 Y56.1117
G01 X37.9104 Y56.1605
G01 X37.8899 Y56.1704
G01 X37.7966 Y56.2090
G01 X37.7751 Y56.2166
G01 X37.6781 Y56.2445
G01 X37.6559 Y56.2496
G01 X37.5564 Y56.2665
G01 X37.5338 Y56.2690
G01 X37.4216 Y56.2750
G01 X37.3094 Y56.2690
G01 X37.2868 Y56.2665
G01 X37.1828 Y56.2488
G01 X37.1651 Y56.2445
G01 X37.0681 Y56.2166
G01 X37.0466 Y56.2090
G01 X36.9523 Y56.1700
G01 X36.9328 Y56.1605
G01 X36.8445 Y56.1117
G01 X36.8252 Y56.0996
G01 X36.7429 Y56.0412
G01 X36.7251 Y56.0270
G01 X36.6498 Y55.9597
G01 X36.6337 Y55.9436
G01 X36.5664 Y55.8684
G01 X36.5522 Y55.8505
G01 X36.4922 Y55.7659
G01 X36.4817 Y55.7489
G01 X36.4329 Y55.6606
G01 X36.4230 Y55.6401
G01 X36.3844 Y55.5468
G01 X36.3768 Y55.5253
G01 X36.3489 Y55.4283
G01 X36.3438 Y55.4061
G01 X36.3269 Y55.3066
G01 X36.3244 Y55.2840
G01 X36.3187 Y55.1832
G01 X36.3187 Y54.7608
G01 X36.3244 Y54.6600
G01 X36.3269 Y54.6374
G01 X36.3447 Y54.5334
G01 X36.3489 Y54.5157
G01 X36.3768 Y54.4187
G01 X36.3844 Y54.3972
G01 X36.4235 Y54.3028
G01 X36.4329 Y54.2834
G01 X36.4817 Y54.1951
G01 X36.4938 Y54.1758
G01 X36.5522 Y54.0935
G01 X36.5664 Y54.0756
G01 X36.6337 Y54.0004
G01 X36.6498 Y53.9843
G01 X36.7181 Y53.9232
G01 X36.7181 Y51.1994
G01 X33.0662 Y47.5475
G01 X14.5199 Y47.5475
G01 X14.4932 Y47.5851
G01 X14.4789 Y47.6029
G01 X14.4042 Y47.6865
G01 X14.3881 Y47.7026
G01 X14.3045 Y47.7773
G01 X14.2867 Y47.7916
G01 X14.1929 Y47.8581
G01 X14.1759 Y47.8686
G01 X14.0778 Y47.9228
G01 X14.0572 Y47.9327
G01 X13.9536 Y47.9756
G01 X13.9321 Y47.9831
G01 X13.8244 Y48.0142
G01 X13.8022 Y48.0193
G01 X13.6916 Y48.0380
G01 X13.6690 Y48.0406
G01 X13.5570 Y48.0469
G01 X13.5342 Y48.0469
G01 X13.4222 Y48.0406
G01 X13.3996 Y48.0380
G01 X13.2845 Y48.0184
G01 X13.2668 Y48.0142
G01 X13.1591 Y47.9831
G01 X13.1376 Y47.9756
G01 X13.0329 Y47.9322
G01 X13.0134 Y47.9228
G01 X12.9153 Y47.8686
G01 X12.8960 Y47.8564
G01 X12.8045 Y47.7916
G01 X12.7867 Y47.7773
G01 X12.7031 Y47.7026
G01 X12.6870 Y47.6865
G01 X12.6123 Y47.6029
G01 X12.5980 Y47.5851
G01 X12.5315 Y47.4913
G01 X12.5210 Y47.4743
G01 X12.4668 Y47.3762
G01 X12.4569 Y47.3556
G01 X12.4311 Y47.2935
G01 X8.9102 Y47.2935
G01 X8.8722 Y47.3361
G01 X8.8561 Y47.3522
G01 X8.7838 Y47.4167
G01 X8.7660 Y47.4309
G01 X8.6847 Y47.4886
G01 X8.6678 Y47.4991
G01 X8.5830 Y47.5459
G01 X8.5625 Y47.5558
G01 X8.4730 Y47.5929
G01 X8.4515 Y47.6004
G01 X8.3584 Y47.6272
G01 X8.3362 Y47.6323
G01 X8.2407 Y47.6485
G01 X8.2181 Y47.6511
G01 X8.1100 Y47.6568
G01 X7.7938 Y47.6565
G01 X7.6971 Y47.6511
G01 X7.6745 Y47.6485
G01 X7.5745 Y47.6315
G01 X7.5568 Y47.6272
G01 X7.4637 Y47.6004
G01 X7.4422 Y47.5929
G01 X7.3527 Y47.5558
G01 X7.3322 Y47.5459
G01 X7.2474 Y47.4991
G01 X7.2282 Y47.4870
G01 X7.1492 Y47.4309
G01 X7.1314 Y47.4167
G01 X7.0591 Y47.3522
G01 X7.0430 Y47.3361
G01 X6.9785 Y47.2638
G01 X6.9643 Y47.2460
G01 X6.9066 Y47.1647
G01 X6.8961 Y47.1478
G01 X6.8493 Y47.0630
G01 X6.8394 Y47.0425
G01 X6.8023 Y46.9530
G01 X6.7948 Y46.9315
G01 X6.7680 Y46.8384
G01 X6.7629 Y46.8162
G01 X6.7467 Y46.7207
G01 X6.7441 Y46.6981
G01 X6.7384 Y46.5900
G01 X6.7445 Y46.4819
G00 Z2.5400
G00 X6.7445 Y49.0219
G01 F76.20
G01 Z-0.2000
G01 F76.20
G01 X6.7467 Y48.9993
G01 X6.7637 Y48.8993
G01 X6.7680 Y48.8816
G01 X6.7948 Y48.7885
G01 X6.8023 Y48.7670
G01 X6.8398 Y48.6764
G01 X6.8493 Y48.6570
G01 X6.8961 Y48.5722
G01 X6.9082 Y48.5530
G01 X6.9643 Y48.4740
G01 X6.9785 Y48.4562
G01 X7.0430 Y48.3839
G01 X7.0591 Y48.3678
G01 X7.1314 Y48.3033
G01 X7.1492 Y48.2891
G01 X7.2305 Y48.2314
G01 X7.2474 Y48.2209
G01 X7.3322 Y48.1741
G01 X7.3527 Y48.1642
G01 X7.4422 Y48.1271
G01 X7.4637 Y48.1196
G01 X7.5568 Y48.0928
G01 X7.5790 Y48.0877
G01 X7.6745 Y48.0715
G01 X7.6971 Y48.0689
G01 X7.8052 Y48.0632
G01 X8.1100 Y48.0632
G01 X8.2181 Y48.0689
G01 X8.2407 Y48.0715
G01 X8.3362 Y48.0877
G01 X8.3584 Y48.0928
G01 X8.4515 Y48.1196
G01 X8.4730 Y48.1271
G01 X8.5636 Y48.1646
G01 X8.5830 Y48.1741
G01 X8.6678 Y48.2209
G01 X8.6870 Y48.2330
G01 X8.7660 Y48.2891
G01 X8.7838 Y48.3033
G01 X8.8561 Y48.3678
G01 X8.8722 Y48.3839
G01 X8.9367 Y48.4562
G01 X8.9509 Y48.4740
G01 X9.0086 Y48.5553
G01 X9.0191 Y48.5722
G01 X9.0659 Y48.6570
G01 X9.0758 Y48.6775
G01 X9.1129 Y48.7670
G01 X9.1204 Y48.7885
G01 X9.1472 Y48.8816
G01 X9.1523 Y48.9038
G01 X9.1685 Y48.9993
G01 X9.1711 Y49.0219
G01 X9.1768 Y49.1300
G01 X9.1711 Y49.2381
G01 X9.1685 Y49.2607
G01 X9.1515 Y49.3607
G01 X9.1472 Y49.3784
G01 X9.1204 Y49.4715
G01 X9.1129 Y49.4930
G01 X9.0754 Y49.5836
G01 X9.0659 Y49.6030
G01 X9.0191 Y49.6878
G01 X9.0070 Y49.7070
G01 X8.9509 Y49.7860
G01 X8.9367 Y49.8038
G01 X8.8722 Y49.8761
G01 X8.8561 Y49.8922
G01 X8.7838 Y49.9567
G01 X8.7660 Y49.9709
G01 X8.6847 Y50.0286
G01 X8.6678 Y50.0391
G01 X8.5830 Y50.0859
G01 X8.5625 Y50.0958
G01 X8.4730 Y50.1329
G01 X8.4515 Y50.1404
G01 X8.3584 Y50.1672
G01 X8.3362 Y50.1723
G01 X8.2407 Y50.1885
G01 X8.2181 Y50.1911
G01 X8.1100 Y50.1968
G01 X7.8052 Y50.1968
G01 X7.6971 Y50.1911
G01 X7.6745 Y50.1885
G01 X7.5790 Y50.1723
G01 X7.5568 Y50.1672
G01 X7.4637 Y50.1404
G01 X7.4422 Y50.1329
G01 X7.3516 Y50.0954
G01 X7.3322 Y50.0859
G01 X7.2474 Y50.0391
G01 X7.2282 Y50.0270
G01 X7.1492 Y49.9709
G01 X7.1314 Y49.9567
G01 X7.0591 Y49.8922
G01 X7.0430 Y49.8761
G01 X6.9785 Y49.8038
G01 X6.9643 Y49.7860
G01 X6.9066 Y49.7047
G01 X6.8961 Y49.6878
G01 X6.8493 Y49.6030
G01 X6.8394 Y49.5825
G01 X6.8023 Y49.4930
G01 X6.7948 Y49.4715
G01 X6.7680 Y49.3784
G01 X6.7629 Y49.3562
G01 X6.7467 Y49.2607
G01 X6.7441 Y49.2381
G01 X6.7384 Y49.1300
G01 X6.7445 Y49.0219
G00 Z2.5400
G00 X4.7145 Y51.1574
G01 F76.20
G01 Z-0.2000
G01 F76.20
G01 X4.7141 Y41.2560
G01 X4.7176 Y41.1886
G01 X4.7202 Y41.1660
G01 X4.7296 Y41.1106
G01 X4.7346 Y41.0884
G01 X4.7502 Y41.0345
G01 X4.7577 Y41.0130
G01 X4.7796 Y40.9601
G01 X4.7890 Y40.9407
G01 X4.8162 Y40.8916
G01 X4.8283 Y40.8723
G01 X4.8608 Y40.8265
G01 X4.8750 Y40.8087
G01 X4.9202 Y40.7586
G01 X8.9842 Y36.6946
G01 X9.0343 Y36.6494
G01 X9.0521 Y36.6352
G01 X9.1002 Y36.6011
G01 X9.1172 Y36.5906
G01 X9.1663 Y36.5634
G01 X9.1868 Y36.5536
G01 X9.2386 Y36.5321
G01 X9.2601 Y36.5246
G01 X9.3140 Y36.5090
G01 X9.3362 Y36.5040
G01 X9.3916 Y36.4946
G01 X9.4142 Y36.4920
G01 X9.4816 Y36.4885
G01 X21.4781 Y36.4885
G01 X21.4785 Y36.1646
G01 X21.4816 Y36.1086
G01 X21.4842 Y36.0860
G01 X21.4944 Y36.0261
G01 X21.4986 Y36.0084
G01 X21.5142 Y35.9545
G01 X21.5217 Y35.9330
G01 X21.5436 Y35.8801
G01 X21.5530 Y35.8607
G01 X21.5802 Y35.8116
G01 X21.5923 Y35.7923
G01 X21.6248 Y35.7465
G01 X21.6390 Y35.7287
G01 X21.6842 Y35.6786
G01 X23.5101 Y33.8526
G01 X23.5101 Y29.3994
G01 X23.5136 Y29.3320
G01 X23.5162 Y29.3093
G01 X23.5264 Y29.2495
G01 X23.5306 Y29.2318
G01 X23.5462 Y29.1779
G01 X23.5537 Y29.1564
G01 X23.5756 Y29.1035
G01 X23.5850 Y29.0840
G01 X23.6122 Y29.0349
G01 X23.6243 Y29.0156
G01 X23.6568 Y28.9699
G01 X23.6710 Y28.9521
G01 X23.7162 Y28.9020
G01 X25.7961 Y26.8220
G01 X25.7961 Y26.6968
G01 X25.7824 Y26.6831
G01 X25.7226 Y26.6162
G01 X25.7084 Y26.5984
G01 X25.6549 Y26.5229
G01 X25.6444 Y26.5059
G01 X25.6010 Y26.4274
G01 X25.5911 Y26.4069
G01 X25.5568 Y26.3240
G01 X25.5492 Y26.3025
G01 X25.5244 Y26.2163
G01 X25.5193 Y26.1941
G01 X25.5043 Y26.1056
G01 X25.5017 Y26.0830
G01 X25.4964 Y25.9820
G01 X25.5017 Y25.8810
G01 X25.5043 Y25.8584
G01 X25.5201 Y25.7654
G01 X25.5244 Y25.7477
G01 X25.5492 Y25.6615
G01 X25.5568 Y25.6400
G01 X25.5915 Y25.5560
G01 X25.6010 Y25.5366
G01 X25.6444 Y25.4581
G01 X25.6565 Y25.4388
G01 X25.7084 Y25.3656
G01 X25.7226 Y25.3478
G01 X25.7824 Y25.2809
G01 X25.7961 Y25.2672
G01 X25.7961 Y22.9095
G01 X22.4356 Y22.9095
G01 X22.3682 Y22.9060
G01 X22.3456 Y22.9034
G01 X22.2857 Y22.8932
G01 X22.2680 Y22.8890
G01 X22.2141 Y22.8734
G01 X22.1926 Y22.8659
G01 X22.1397 Y22.8440
G01 X22.1203 Y22.8346
G01 X22.0712 Y22.8074
G01 X22.0519 Y22.7953
G01 X22.0061 Y22.7628
G01 X21.9883 Y22.7486
G01 X21.9382 Y22.7034
G01 X18.3342 Y19.0995
G01 X15.5776 Y19.0995
G01 X15.5102 Y19.0960
G01 X15.4876 Y19.0934
G01 X15.4277 Y19.0832
G01 X15.4100 Y19.0790
G01 X15.3561 Y19.0634
G01 X15.3346 Y19.0559
G01 X15.2817 Y19.0340
G01 X15.2623 Y19.0246
G01 X15.2132 Y18.9974
G01 X15.1939 Y18.9853
G01 X15.1481 Y18.9528
G01 X15.1303 Y18.9386
G01 X15.0802 Y18.8934
G01 X11.7051 Y15.5183
G01 X11.6596 Y15.5260
G01 X11.6370 Y15.5286
G01 X11.5250 Y15.5349
G01 X11.5022 Y15.5349
G01 X11.3902 Y15.5286
G01 X11.3676 Y15.5260
G01 X11.2525 Y15.5064
G01 X11.2348 Y15.5022
G01 X11.1271 Y15.4711
G01 X11.1056 Y15.4636
G01 X11.0009 Y15.4202
G01 X10.9814 Y15.4108
G01 X10.8833 Y15.3566
G01 X10.8640 Y15.3444
G01 X10.7725 Y15.2796
G01 X10.7547 Y15.2653
G01 X10.6711 Y15.1906
G01 X10.6550 Y15.1745
G01 X10.5803 Y15.0909
G01 X10.5660 Y15.0731
G01 X10.4995 Y14.9793
G01 X10.4890 Y14.9623
G01 X10.4348 Y14.8642
G01 X10.4249 Y14.8436
G01 X10.3820 Y14.7400
G01 X10.3745 Y14.7185
G01 X10.3434 Y14.6108
G01 X10.3383 Y14.5886
G01 X10.3196 Y14.4780
G01 X10.3170 Y14.4554
G01 X10.3107 Y14.3434
G01 X10.3107 Y14.3206
G01 X10.3170 Y14.2086
G01 X10.3196 Y14.1860
G01 X10.3392 Y14.0709
G01 X10.3434 Y14.0532
G01 X10.3745 Y13.9455
G01 X10.3820 Y13.9240
G01 X10.4254 Y13.8193
G01 X10.4348 Y13.7998
G01 X10.4890 Y13.7017
G01 X10.5012 Y13.6824
G01 X10.5660 Y13.5909
G01 X10.5803 Y13.5731
G01 X10.6550 Y13.4895
G01 X10.6711 Y13.4734
G01 X10.7547 Y13.3987
G01 X10.7725 Y13.3844
G01 X10.8101 Y13.3577
G01 X10.8101 Y10.2680
G01 X10.8136 Y10.2006
G01 X10.8162 Y10.1780
G01 X10.8264 Y10.1182
G01 X10.8306 Y10.1004
G01 X10.8462 Y10.0465
G01 X10.8537 Y10.0250
G01 X10.8756 Y9.9721
G01 X10.8850 Y9.9527
G01 X10.9122 Y9.9036
G01 X10.9243 Y9.8843
G01 X10.9568 Y9.8385
G01 X10.9710 Y9.8207
G01 X11.0162 Y9.7706
G01 X11.5721 Y9.2146
G01 X11.5721 Y8.9395
G01 X7.4382 Y8.9391
G01 X7.3822 Y8.9360
G01 X7.3596 Y8.9334
G01 X7.2997 Y8.9232
G01 X7.2820 Y8.9190
G01 X7.2281 Y8.9034
G01 X7.2066 Y8.8959
G01 X7.1537 Y8.8740
G01 X7.1343 Y8.8646
G01 X7.0852 Y8.8374
G01 X7.0659 Y8.8253
G01 X7.0201 Y8.7928
G01 X7.0023 Y8.7786
G01 X6.9522 Y8.7334
G01 X6.6982 Y8.4794
G01 X6.6530 Y8.4293
G01 X6.6388 Y8.4115
G01 X6.6047 Y8.3634
G01 X6.5942 Y8.3464
G01 X6.5670 Y8.2973
G01 X6.5572 Y8.2768
G01 X6.5357 Y8.2250
G01 X6.5282 Y8.2035
G01 X6.5126 Y8.1496
G01 X6.5076 Y8.1274
G01 X6.4982 Y8.0720
G01 X6.4956 Y8.0494
G01 X6.4921 Y7.9820
G01 X6.4921 Y5.9083
G01 X6.4545 Y5.8816
G01 X6.4367 Y5.8673
G01 X6.3531 Y5.7926
G01 X6.3370 Y5.7765
G01 X6.2623 Y5.6929
G01 X6.2480 Y5.6751
G01 X6.1815 Y5.5813
G01 X6.1710 Y5.5643
G01 X6.1168 Y5.4662
G01 X6.1069 Y5.4456
G01 X6.0640 Y5.3420
G01 X6.0565 Y5.3205
G01 X6.0254 Y5.2128
G01 X6.0203 Y5.1906
G01 X6.0016 Y5.0800
G01 X5.9990 Y5.0574
G01 X5.9924 Y4.9340
G01 X5.9990 Y4.8106
G01 X6.0016 Y4.7880
G01 X6.0212 Y4.6729
G01 X6.0254 Y4.6552
G01 X6.0565 Y4.5475
G01 X6.0640 Y4.5260
G01 X6.1074 Y4.4213
G01 X6.1168 Y4.4018
G01 X6.1710 Y4.3037
G01 X6.1832 Y4.2844
G01 X6.2480 Y4.1929
G01 X6.2623 Y4.1751
G01 X6.3370 Y4.0915
G01 X6.3531 Y4.0754
G01 X6.4367 Y4.0007
G01 X6.4545 Y3.9864
G01 X6.5483 Y3.9199
G01 X6.5653 Y3.9094
G01 X6.6634 Y3.8552
G01 X6.6840 Y3.8453
G01 X6.7876 Y3.8024
G01 X6.8091 Y3.7949
G01 X6.9168 Y3.7638
G01 X6.9390 Y3.7587
G01 X7.0496 Y3.7400
G01 X7.0722 Y3.7374
G01 X7.1956 Y3.7308
G01 X7.3190 Y3.7374
G01 X7.3416 Y3.7400
G01 X7.4567 Y3.7596
G01 X7.4744 Y3.7638
G01 X7.5821 Y3.7949
G01 X7.6036 Y3.8024
G01 X7.7083 Y3.8458
G01 X7.7278 Y3.8552
G01 X7.8259 Y3.9094
G01 X7.8452 Y3.9216
G01 X7.9367 Y3.9864
G01 X7.9545 Y4.0007
G01 X8.0381 Y4.0754
G01 X8.0542 Y4.0915
G01 X8.1289 Y4.1751
G01 X8.1432 Y4.1929
G01 X8.2097 Y4.2867
G01 X8.2202 Y4.3037
G01 X8.2744 Y4.4018
G01 X8.2843 Y4.4224
G01 X8.3272 Y4.5260
G01 X8.3347 Y4.5475
G01 X8.3658 Y4.6552
G01 X8.3709 Y4.6774
G01 X8.3896 Y4.7880
G01 X8.3922 Y4.8106
G01 X8.3988 Y4.9340
G01 X8.3922 Y5.0574
G01 X8.3896 Y5.0800
G01 X8.3700 Y5.1951
G01 X8.3658 Y5.2128
G01 X8.3347 Y5.3205
G01 X8.3272 Y5.3420
G01 X8.2838 Y5.4467
G01 X8.2744 Y5.4662
G01 X8.2202 Y5.5643
G01 X8.2080 Y5.5836
G01 X8.1432 Y5.6751
G01 X8.1289 Y5.6929
G01 X8.0542 Y5.7765
G01 X8.0381 Y5.7926
G01 X7.9545 Y5.8673
G01 X7.9367 Y5.8816
G01 X7.8991 Y5.9083
G01 X7.8991 Y7.5325
G01 X11.5721 Y7.5325
G01 X11.5721 Y5.9083
G01 X11.5345 Y5.8816
G01 X11.5167 Y5.8673
G01 X11.4331 Y5.7926
G01 X11.4170 Y5.7765
G01 X11.3423 Y5.6929
G01 X11.3280 Y5.6751
G01 X11.2615 Y5.5813
G01 X11.2510 Y5.5643
G01 X11.1968 Y5.4662
G01 X11.1869 Y5.4456
G01 X11.1440 Y5.3420
G01 X11.1365 Y5.3205
G01 X11.1054 Y5.2128
G01 X11.1003 Y5.1906
G01 X11.0816 Y5.0800
G01 X11.0790 Y5.0574
G01 X11.0727 Y4.9454
G01 X11.0727 Y4.9226
G01 X11.0790 Y4.8106
G01 X11.0816 Y4.7880
G01 X11.1012 Y4.6729
G01 X11.1054 Y4.6552
G01 X11.1365 Y4.5475
G01 X11.1440 Y4.5260
G01 X11.1874 Y4.4213
G01 X11.1968 Y4.4018
G01 X11.2510 Y4.3037
G01 X11.2632 Y4.2844
G01 X11.3280 Y4.1929
G01 X11.3423 Y4.1751
G01 X11.4170 Y4.0915
G01 X11.4331 Y4.0754
G01 X11.5167 Y4.0007
G01 X11.5345 Y3.9864
G01 X11.6283 Y3.9199
G01 X11.6453 Y3.9094
G01 X11.7434 Y3.8552
G01 X11.7640 Y3.8453
G01 X11.8676 Y3.8024
G01 X11.8891 Y3.7949
G01 X11.9968 Y3.7638
G01 X12.0190 Y3.7587
G01 X12.1296 Y3.7400
G01 X12.1522 Y3.7374
G01 X12.2756 Y3.7308
G01 X12.3990 Y3.7374
G01 X12.4216 Y3.7400
G01 X12.5367 Y3.7596
G01 X12.5544 Y3.7638
G01 X12.6621 Y3.7949
G01 X12.6836 Y3.8024
G01 X12.7883 Y3.8458
G01 X12.8078 Y3.8552
G01 X12.9059 Y3.9094
G01 X12.9252 Y3.9216
G01 X13.0167 Y3.9864
G01 X13.0345 Y4.0007
G01 X13.1181 Y4.0754
G01 X13.1342 Y4.0915
G01 X13.2089 Y4.1751
G01 X13.2232 Y4.1929
G01 X13.2499 Y4.2305
G01 X13.8413 Y4.2305
G01 X13.8680 Y4.1929
G01 X13.8823 Y4.1751
G01 X13.9570 Y4.0915
G01 X13.9731 Y4.0754
G01 X14.0567 Y4.0007
G01 X14.0745 Y3.9864
G01 X14.1683 Y3.9199
G01 X14.1853 Y3.9094
G01 X14.2834 Y3.8552
G01 X14.3040 Y3.8453
G01 X14.4076 Y3.8024
G01 X14.4291 Y3.7949
G01 X14.5368 Y3.7638
G01 X14.5590 Y3.7587
G01 X14.6696 Y3.7400
G01 X14.6922 Y3.7374
G01 X14.8156 Y3.7308
G01 X14.9390 Y3.7374
G01 X14.9616 Y3.7400
G01 X15.0767 Y3.7596
G01 X15.0944 Y3.7638
G01 X15.2021 Y3.7949
G01 X15.2236 Y3.8024
G01 X15.3283 Y3.8458
G01 X15.3478 Y3.8552
G01 X15.4459 Y3.9094
G01 X15.4652 Y3.9216
G01 X15.5567 Y3.9864
G01 X15.5745 Y4.0007
G01 X15.6581 Y4.0754
G01 X15.6742 Y4.0915
G01 X15.7489 Y4.1751
G01 X15.7632 Y4.1929
G01 X15.8297 Y4.2867
G01 X15.8402 Y4.3037
G01 X15.8944 Y4.4018
G01 X15.9043 Y4.4224
G01 X15.9472 Y4.5260
G01 X15.9547 Y4.5475
G01 X15.9858 Y4.6552
G01 X15.9909 Y4.6774
G01 X16.0096 Y4.7880
G01 X16.0122 Y4.8106
G01 X16.0185 Y4.9226
G01 X16.0185 Y4.9454
G01 X16.0122 Y5.0574
G01 X16.0096 Y5.0800
G01 X15.9909 Y5.1906
G01 X15.9858 Y5.2128
G01 X15.9547 Y5.3205
G01 X15.9472 Y5.3420
G01 X15.9038 Y5.4467
G01 X15.8944 Y5.4662
G01 X15.8402 Y5.5643
G01 X15.8280 Y5.5836
G01 X15.7632 Y5.6751
G01 X15.7489 Y5.6929
G01 X15.6742 Y5.7765
G01 X15.6581 Y5.7926
G01 X15.5745 Y5.8673
G01 X15.5567 Y5.8816
G01 X15.4629 Y5.9481
G01 X15.4459 Y5.9586
G01 X15.3478 Y6.0128
G01 X15.3272 Y6.0227
G01 X15.2236 Y6.0656
G01 X15.2021 Y6.0731
G01 X15.0944 Y6.1042
G01 X15.0722 Y6.1093
G01 X14.9616 Y6.1280
G01 X14.9390 Y6.1306
G01 X14.8270 Y6.1369
G01 X14.8042 Y6.1369
G01 X14.6922 Y6.1306
G01 X14.6696 Y6.1280
G01 X14.5545 Y6.1084
G01 X14.5368 Y6.1042
G01 X14.4291 Y6.0731
G01 X14.4076 Y6.0656
G01 X14.3029 Y6.0222
G01 X14.2834 Y6.0128
G01 X14.1853 Y5.9586
G01 X14.1660 Y5.9464
G01 X14.0745 Y5.8816
G01 X14.0567 Y5.8673
G01 X13.9731 Y5.7926
G01 X13.9570 Y5.7765
G01 X13.8823 Y5.6929
G01 X13.8680 Y5.6751
G01 X13.8413 Y5.6375
G01 X13.2499 Y5.6375
G01 X13.2232 Y5.6751
G01 X13.2089 Y5.6929
G01 X13.1342 Y5.7765
G01 X13.1181 Y5.7926
G01 X13.0345 Y5.8673
G01 X13.0167 Y5.8816
G01 X12.9791 Y5.9083
G01 X12.9791 Y7.5325
G01 X18.8422 Y7.5325
G01 X19.1921 Y7.1826
G01 X19.1921 Y5.9083
G01 X19.1545 Y5.8816
G01 X19.1367 Y5.8673
G01 X19.0531 Y5.7926
G01 X19.0370 Y5.7765
G01 X18.9623 Y5.6929
G01 X18.9480 Y5.6751
G01 X18.8815 Y5.5813
G01 X18.8710 Y5.5643
G01 X18.8168 Y5.4662
G01 X18.8069 Y5.4456
G01 X18.7640 Y5.3420
G01 X18.7565 Y5.3205
G01 X18.7254 Y5.2128
G01 X18.7203 Y5.1906
G01 X18.7016 Y5.0800
G01 X18.6990 Y5.0574
G01 X18.6924 Y4.9340
G01 X18.6990 Y4.8106
G01 X18.7016 Y4.7880
G01 X18.7203 Y4.6774
G01 X18.7254 Y4.6552
G01 X18.7565 Y4.5475
G01 X18.7640 Y4.5260
G01 X18.8074 Y4.4213
G01 X18.8168 Y4.4018
G01 X18.8710 Y4.3037
G01 X18.8832 Y4.2844
G01 X18.9480 Y4.1929
G01 X18.9623 Y4.1751
G01 X19.0370 Y4.0915
G01 X19.0531 Y4.0754
G01 X19.1367 Y4.0007
G01 X19.1545 Y3.9864
G01 X19.2483 Y3.9199
G01 X19.2653 Y3.9094
G01 X19.3634 Y3.8552
G01 X19.3840 Y3.8453
G01 X19.4876 Y3.8024
G01 X19.5091 Y3.7949
G01 X19.6168 Y3.7638
G01 X19.6390 Y3.7587
G01 X19.7496 Y3.7400
G01 X19.7722 Y3.7374
G01 X19.8956 Y3.7308
G01 X20.0190 Y3.7374
G01 X20.0416 Y3.7400
G01 X20.1567 Y3.7596
G01 X20.1744 Y3.7638
G01 X20.2821 Y3.7949
G01 X20.3036 Y3.8024
G01 X20.4083 Y3.8458
G01 X20.4278 Y3.8552
G01 X20.5259 Y3.9094
G01 X20.5452 Y3.9216
G01 X20.6367 Y3.9864
G01 X20.6545 Y4.0007
G01 X20.7381 Y4.0754
G01 X20.7542 Y4.0915
G01 X20.8289 Y4.1751
G01 X20.8432 Y4.1929
G01 X20.9097 Y4.2867
G01 X20.9202 Y4.3037
G01 X20.9744 Y4.4018
G01 X20.9843 Y4.4224
G01 X21.0272 Y4.5260
G01 X21.0347 Y4.5475
G01 X21.0658 Y4.6552
G01 X21.0709 Y4.6774
G01 X21.0896 Y4.7880
G01 X21.0922 Y4.8106
G01 X21.0985 Y4.9226
G01 X21.0985 Y4.9454
G01 X21.0922 Y5.0574
G01 X21.0896 Y5.0800
G01 X21.0700 Y5.1951
G01 X21.0658 Y5.2128
G01 X21.0347 Y5.3205
G01 X21.0272 Y5.3420
G01 X20.9838 Y5.4467
G01 X20.9744 Y5.4662
G01 X20.9202 Y5.5643
G01 X20.9080 Y5.5836
G01 X20.8432 Y5.6751
G01 X20.8289 Y5.6929
G01 X20.7542 Y5.7765
G01 X20.7381 Y5.7926
G01 X20.6545 Y5.8673
G01 X20.6367 Y5.8816
G01 X20.5991 Y5.9083
G01 X20.5991 Y7.4740
G01 X20.5956 Y7.5414
G01 X20.5930 Y7.5640
G01 X20.5828 Y7.6239
G01 X20.5786 Y7.6416
G01 X20.5630 Y7.6955
G01 X20.5555 Y7.7170
G01 X20.5336 Y7.7699
G01 X20.5242 Y7.7893
G01 X20.4970 Y7.8384
G01 X20.4849 Y7.8577
G01 X20.4524 Y7.9035
G01 X20.4382 Y7.9213
G01 X20.3930 Y7.9714
G01 X19.6310 Y8.7334
G01 X19.5809 Y8.7786
G01 X19.5631 Y8.7928
G01 X19.5150 Y8.8269
G01 X19.4980 Y8.8374
G01 X19.4489 Y8.8646
G01 X19.4284 Y8.8744
G01 X19.3766 Y8.8959
G01 X19.3551 Y8.9034
G01 X19.3012 Y8.9190
G01 X19.2790 Y8.9240
G01 X19.2236 Y8.9334
G01 X19.2010 Y8.9360
G01 X19.1336 Y8.9395
G01 X12.9791 Y8.9395
G01 X12.9791 Y9.5060
G01 X12.9756 Y9.5734
G01 X12.9730 Y9.5960
G01 X12.9636 Y9.6514
G01 X12.9586 Y9.6736
G01 X12.9430 Y9.7275
G01 X12.9355 Y9.7490
G01 X12.9136 Y9.8019
G01 X12.9042 Y9.8213
G01 X12.8770 Y9.8704
G01 X12.8649 Y9.8897
G01 X12.8324 Y9.9355
G01 X12.8182 Y9.9533
G01 X12.7808 Y9.9951
G01 X12.2171 Y10.5594
G01 X12.2171 Y13.3577
G01 X12.2547 Y13.3844
G01 X12.2725 Y13.3987
G01 X12.3561 Y13.4734
G01 X12.3722 Y13.4895
G01 X12.4469 Y13.5731
G01 X12.4612 Y13.5909
G01 X12.5277 Y13.6847
G01 X12.5382 Y13.7017
G01 X12.5924 Y13.7998
G01 X12.6023 Y13.8204
G01 X12.6452 Y13.9240
G01 X12.6527 Y13.9455
G01 X12.6838 Y14.0532
G01 X12.6889 Y14.0754
G01 X12.7076 Y14.1860
G01 X12.7102 Y14.2086
G01 X12.7168 Y14.3320
G01 X12.7102 Y14.4554
G01 X12.7076 Y14.4780
G01 X12.6999 Y14.5235
G01 X15.8690 Y17.6925
G01 X18.6370 Y17.6929
G01 X18.6930 Y17.6960
G01 X18.7156 Y17.6986
G01 X18.7755 Y17.7088
G01 X18.7932 Y17.7130
G01 X18.8471 Y17.7286
G01 X18.8686 Y17.7361
G01 X18.9215 Y17.7580
G01 X18.9409 Y17.7674
G01 X18.9900 Y17.7946
G01 X19.0093 Y17.8067
G01 X19.0551 Y17.8392
G01 X19.0729 Y17.8534
G01 X19.1230 Y17.8986
G01 X22.7270 Y21.5025
G01 X26.4996 Y21.5025
G01 X26.5670 Y21.5060
G01 X26.5896 Y21.5086
G01 X26.6495 Y21.5188
G01 X26.6672 Y21.5230
G01 X26.7211 Y21.5386
G01 X26.7426 Y21.5461
G01 X26.7955 Y21.5680
G01 X26.8149 Y21.5774
G01 X26.8640 Y21.6046
G01 X26.8833 Y21.6167
G01 X26.9291 Y21.6492
G01 X26.9469 Y21.6634
G01 X26.9887 Y21.7008
G01 X27.0048 Y21.7169
G01 X27.0422 Y21.7587
G01 X27.0564 Y21.7765
G01 X27.0905 Y21.8246
G01 X27.1010 Y21.8416
G01 X27.1282 Y21.8907
G01 X27.1380 Y21.9112
G01 X27.1595 Y21.9630
G01 X27.1670 Y21.9845
G01 X27.1826 Y22.0384
G01 X27.1876 Y22.0606
G01 X27.1970 Y22.1160
G01 X27.1996 Y22.1386
G01 X27.2031 Y22.2060
G01 X27.2031 Y25.2672
G01 X27.2168 Y25.2809
G01 X27.2766 Y25.3478
G01 X27.2908 Y25.3656
G01 X27.3443 Y25.4411
G01 X27.3548 Y25.4581
G01 X27.3982 Y25.5366
G01 X27.4081 Y25.5571
G01 X27.4424 Y25.6400
G01 X27.4500 Y25.6615
G01 X27.4748 Y25.7477
G01 X27.4799 Y25.7699
G01 X27.4949 Y25.8584
G01 X27.4975 Y25.8810
G01 X27.5025 Y25.9706
G01 X27.5025 Y25.9934
G01 X27.4975 Y26.0830
G01 X27.4949 Y26.1056
G01 X27.4791 Y26.1986
G01 X27.4748 Y26.2163
G01 X27.4500 Y26.3025
G01 X27.4424 Y26.3240
G01 X27.4077 Y26.4080
G01 X27.3982 Y26.4274
G01 X27.3548 Y26.5059
G01 X27.3427 Y26.5252
G01 X27.2908 Y26.5984
G01 X27.2766 Y26.6162
G01 X27.2168 Y26.6831
G01 X27.2031 Y26.6968
G01 X27.2031 Y27.1134
G01 X27.1996 Y27.1808
G01 X27.1970 Y27.2034
G01 X27.1876 Y27.2587
G01 X27.1826 Y27.2809
G01 X27.1670 Y27.3348
G01 X27.1595 Y27.3564
G01 X27.1376 Y27.4093
G01 X27.1282 Y27.4287
G01 X27.1010 Y27.4778
G01 X27.0889 Y27.4971
G01 X27.0564 Y27.5429
G01 X27.0422 Y27.5607
G01 X26.9970 Y27.6108
G01 X24.9171 Y29.6907
G01 X24.9171 Y34.1440
G01 X24.9136 Y34.2114
G01 X24.9110 Y34.2340
G01 X24.9008 Y34.2939
G01 X24.8966 Y34.3116
G01 X24.8810 Y34.3655
G01 X24.8735 Y34.3870
G01 X24.8516 Y34.4399
G01 X24.8422 Y34.4593
G01 X24.8150 Y34.5084
G01 X24.8029 Y34.5277
G01 X24.7704 Y34.5735
G01 X24.7562 Y34.5913
G01 X24.7110 Y34.6414
G01 X22.8851 Y36.4674
G01 X22.8851 Y38.6832
G01 X22.9534 Y38.7443
G01 X22.9695 Y38.7604
G01 X23.0368 Y38.8356
G01 X23.0510 Y38.8535
G01 X23.1110 Y38.9381
G01 X23.1215 Y38.9551
G01 X23.1703 Y39.0434
G01 X23.1802 Y39.0639
G01 X23.2188 Y39.1572
G01 X23.2264 Y39.1787
G01 X23.2543 Y39.2757
G01 X23.2594 Y39.2979
G01 X23.2763 Y39.3974
G01 X23.2788 Y39.4200
G01 X23.2845 Y39.5208
G01 X23.2845 Y39.9432
G01 X23.2788 Y40.0440
G01 X23.2763 Y40.0666
G01 X23.2594 Y40.1661
G01 X23.2543 Y40.1883
G01 X23.2264 Y40.2853
G01 X23.2188 Y40.3068
G01 X23.1797 Y40.4012
G01 X23.1703 Y40.4206
G01 X23.1215 Y40.5089
G01 X23.1094 Y40.5282
G01 X23.0510 Y40.6105
G01 X23.0368 Y40.6284
G01 X22.9695 Y40.7036
G01 X22.9534 Y40.7197
G01 X22.8781 Y40.7870
G01 X22.8603 Y40.8012
G01 X22.7757 Y40.8612
G01 X22.7587 Y40.8717
G01 X22.6704 Y40.9205
G01 X22.6499 Y40.9304
G01 X22.5566 Y40.9690
G01 X22.5351 Y40.9766
G01 X22.4381 Y41.0045
G01 X22.4159 Y41.0096
G01 X22.3164 Y41.0265
G01 X22.2938 Y41.0290
G01 X22.1816 Y41.0350
G01 X22.0694 Y41.0290
G01 X22.0468 Y41.0265
G01 X21.9428 Y41.0088
G01 X21.9251 Y41.0045
G01 X21.8281 Y40.9766
G01 X21.8066 Y40.9690
G01 X21.7123 Y40.9300
G01 X21.6928 Y40.9205
G01 X21.6045 Y40.8717
G01 X21.5852 Y40.8596
G01 X21.5029 Y40.8012
G01 X21.4851 Y40.7870
G01 X21.4098 Y40.7197
G01 X21.3937 Y40.7036
G01 X21.3264 Y40.6284
G01 X21.3122 Y40.6105
G01 X21.2522 Y40.5259
G01 X21.2417 Y40.5089
G01 X21.1929 Y40.4206
G01 X21.1830 Y40.4001
G01 X21.1444 Y40.3068
G01 X21.1368 Y40.2853
G01 X21.1089 Y40.1883
G01 X21.1038 Y40.1661
G01 X21.0869 Y40.0666
G01 X21.0844 Y40.0440
G01 X21.0787 Y39.9432
G01 X21.0787 Y39.5208
G01 X21.0844 Y39.4200
G01 X21.0869 Y39.3974
G01 X21.1047 Y39.2934
G01 X21.1089 Y39.2757
G01 X21.1368 Y39.1787
G01 X21.1444 Y39.1572
G01 X21.1835 Y39.0628
G01 X21.1929 Y39.0434
G01 X21.2417 Y38.9551
G01 X21.2538 Y38.9358
G01 X21.3122 Y38.8535
G01 X21.3264 Y38.8356
G01 X21.3937 Y38.7604
G01 X21.4098 Y38.7443
G01 X21.4781 Y38.6832
G01 X21.4781 Y37.9236
G01 X21.4500 Y37.8955
G01 X9.7730 Y37.8955
G01 X6.1211 Y41.5474
G01 X6.1211 Y50.8546
G01 X6.2330 Y50.9665
G01 X7.0050 Y50.9665
G01 X7.0430 Y50.9239
G01 X7.0591 Y50.9078
G01 X7.1314 Y50.8433
G01 X7.1492 Y50.8291
G01 X7.2305 Y50.7714
G01 X7.2474 Y50.7609
G01 X7.3322 Y50.7141
G01 X7.3527 Y50.7042
G01 X7.4422 Y50.6671
G01 X7.4637 Y50.6596
G01 X7.5568 Y50.6328
G01 X7.5790 Y50.6277
G01 X7.6745 Y50.6115
G01 X7.6971 Y50.6089
G01 X7.7938 Y50.6035
G01 X8.1214 Y50.6035
G01 X8.2181 Y50.6089
G01 X8.2407 Y50.6115
G01 X8.3362 Y50.6277
G01 X8.3584 Y50.6328
G01 X8.4515 Y50.6596
G01 X8.4730 Y50.6671
G01 X8.5636 Y50.7046
G01 X8.5830 Y50.7141
G01 X8.6678 Y50.7609
G01 X8.6870 Y50.7730
G01 X8.7660 Y50.8291
G01 X8.7838 Y50.8433
G01 X8.8561 Y50.9078
G01 X8.8722 Y50.9239
G01 X8.9367 Y50.9962
G01 X8.9509 Y51.0140
G01 X9.0086 Y51.0953
G01 X9.0191 Y51.1122
G01 X9.0659 Y51.1970
G01 X9.0758 Y51.2175
G01 X9.1129 Y51.3070
G01 X9.1204 Y51.3285
G01 X9.1472 Y51.4216
G01 X9.1523 Y51.4438
G01 X9.1685 Y51.5393
G01 X9.1711 Y51.5619
G01 X9.1765 Y51.6586
G01 X9.1765 Y51.6814
G01 X9.1711 Y51.7781
G01 X9.1685 Y51.8007
G01 X9.1523 Y51.8962
G01 X9.1472 Y51.9184
G01 X9.1204 Y52.0115
G01 X9.1129 Y52.0330
G01 X9.0754 Y52.1236
G01 X9.0659 Y52.1430
G01 X9.0191 Y52.2278
G01 X9.0070 Y52.2470
G01 X8.9509 Y52.3260
G01 X8.9367 Y52.3438
G01 X8.8722 Y52.4161
G01 X8.8561 Y52.4322
G01 X8.7838 Y52.4967
G01 X8.7660 Y52.5109
G01 X8.6847 Y52.5686
G01 X8.6678 Y52.5791
G01 X8.5830 Y52.6259
G01 X8.5625 Y52.6358
G01 X8.4730 Y52.6729
G01 X8.4515 Y52.6804
G01 X8.3584 Y52.7072
G01 X8.3362 Y52.7123
G01 X8.2407 Y52.7285
G01 X8.2181 Y52.7311
G01 X8.1100 Y52.7368
G01 X7.8052 Y52.7368
G01 X7.6971 Y52.7311
G01 X7.6745 Y52.7285
G01 X7.5745 Y52.7115
G01 X7.5568 Y52.7072
G01 X7.4637 Y52.6804
G01 X7.4422 Y52.6729
G01 X7.3516 Y52.6354
G01 X7.3322 Y52.6259
G01 X7.2474 Y52.5791
G01 X7.2282 Y52.5670
G01 X7.1492 Y52.5109
G01 X7.1314 Y52.4967
G01 X7.0591 Y52.4322
G01 X7.0430 Y52.4161
G01 X7.0050 Y52.3735
G01 X5.9416 Y52.3735
G01 X5.8742 Y52.3700
G01 X5.8516 Y52.3674
G01 X5.7918 Y52.3572
G01 X5.7740 Y52.3530
G01 X5.7201 Y52.3374
G01 X5.6986 Y52.3299
G01 X5.6457 Y52.3080
G01 X5.6263 Y52.2986
G01 X5.5772 Y52.2714
G01 X5.5579 Y52.2593
G01 X5.5121 Y52.2268
G01 X5.4943 Y52.2126
G01 X5.4442 Y52.1674
G01 X4.9124 Y51.6351
G01 X4.8750 Y51.5933
G01 X4.8608 Y51.5755
G01 X4.8267 Y51.5274
G01 X4.8162 Y51.5104
G01 X4.7890 Y51.4613
G01 X4.7792 Y51.4408
G01 X4.7577 Y51.3890
G01 X4.7502 Y51.3675
G01 X4.7346 Y51.3136
G01 X4.7296 Y51.2914
G01 X4.7202 Y51.2360
G01 X4.7176 Y51.2134
G01 X4.7145 Y51.1574
G00 Z2.5400
G00 X3.1905 Y51.9354
G01 F76.20
G01 Z-0.2000
G01 F76.20
G01 X3.1901 Y38.2080
G01 X3.1936 Y38.1406
G01 X3.1962 Y38.1180
G01 X3.2056 Y38.0626
G01 X3.2106 Y38.0404
G01 X3.2262 Y37.9865
G01 X3.2337 Y37.9650
G01 X3.2556 Y37.9121
G01 X3.2650 Y37.8927
G01 X3.2922 Y37.8436
G01 X3.3043 Y37.8243
G01 X3.3368 Y37.7785
G01 X3.3510 Y37.7607
G01 X3.3962 Y37.7106
G01 X5.9362 Y35.1706
G01 X5.9863 Y35.1254
G01 X6.0041 Y35.1112
G01 X6.0522 Y35.0771
G01 X6.0692 Y35.0666
G01 X6.1183 Y35.0394
G01 X6.1388 Y35.0296
G01 X6.1906 Y35.0081
G01 X6.2121 Y35.0006
G01 X6.2660 Y34.9850
G01 X6.2882 Y34.9800
G01 X6.3436 Y34.9706
G01 X6.3662 Y34.9680
G01 X6.4336 Y34.9645
G01 X10.8101 Y34.9645
G01 X10.8101 Y33.5943
G01 X10.7725 Y33.5676
G01 X10.7547 Y33.5533
G01 X10.6711 Y33.4786
G01 X10.6550 Y33.4625
G01 X10.5803 Y33.3789
G01 X10.5660 Y33.3611
G01 X10.4995 Y33.2673
G01 X10.4890 Y33.2503
G01 X10.4348 Y33.1522
G01 X10.4249 Y33.1316
G01 X10.3820 Y33.0280
G01 X10.3745 Y33.0065
G01 X10.3434 Y32.8988
G01 X10.3383 Y32.8766
G01 X10.3196 Y32.7660
G01 X10.3170 Y32.7434
G01 X10.3104 Y32.6200
G01 X10.3170 Y32.4966
G01 X10.3196 Y32.4740
G01 X10.3392 Y32.3589
G01 X10.3434 Y32.3412
G01 X10.3745 Y32.2335
G01 X10.3820 Y32.2120
G01 X10.4249 Y32.1084
G01 X10.4348 Y32.0878
G01 X10.4890 Y31.9897
G01 X10.5012 Y31.9704
G01 X10.5660 Y31.8789
G01 X10.5803 Y31.8611
G01 X10.6550 Y31.7775
G01 X10.6711 Y31.7614
G01 X10.7547 Y31.6867
G01 X10.7725 Y31.6724
G01 X10.8640 Y31.6076
G01 X10.8833 Y31.5954
G01 X10.9814 Y31.5412
G01 X11.0020 Y31.5313
G01 X11.1056 Y31.4884
G01 X11.1271 Y31.4809
G01 X11.2348 Y31.4498
G01 X11.2570 Y31.4447
G01 X11.3676 Y31.4260
G01 X11.3902 Y31.4234
G01 X11.5022 Y31.4171
G01 X11.5250 Y31.4171
G01 X11.6370 Y31.4234
G01 X11.6596 Y31.4260
G01 X11.7747 Y31.4456
G01 X11.7924 Y31.4498
G01 X11.9001 Y31.4809
G01 X11.9216 Y31.4884
G01 X12.0263 Y31.5318
G01 X12.0458 Y31.5412
G01 X12.1439 Y31.5954
G01 X12.1632 Y31.6076
G01 X12.2547 Y31.6724
G01 X12.2725 Y31.6867
G01 X12.3561 Y31.7614
G01 X12.3722 Y31.7775
G01 X12.4469 Y31.8611
G01 X12.4612 Y31.8789
G01 X12.5277 Y31.9727
G01 X12.5382 Y31.9897
G01 X12.5924 Y32.0878
G01 X12.6023 Y32.1084
G01 X12.6452 Y32.2120
G01 X12.6527 Y32.2335
G01 X12.6838 Y32.3412
G01 X12.6889 Y32.3634
G01 X12.7076 Y32.4740
G01 X12.7102 Y32.4966
G01 X12.7168 Y32.6200
G01 X12.7102 Y32.7434
G01 X12.7076 Y32.7660
G01 X12.6889 Y32.8766
G01 X12.6838 Y32.8988
G01 X12.6527 Y33.0065
G01 X12.6452 Y33.0280
G01 X12.6018 Y33.1327
G01 X12.5924 Y33.1522
G01 X12.5382 Y33.2503
G01 X12.5260 Y33.2696
G01 X12.4612 Y33.3611
G01 X12.4469 Y33.3789
G01 X12.3722 Y33.4625
G01 X12.3561 Y33.4786
G01 X12.2725 Y33.5533
G01 X12.2547 Y33.5676
G01 X12.2171 Y33.5943
G01 X12.2171 Y35.6680
G01 X12.2136 Y35.7354
G01 X12.2110 Y35.7580
G01 X12.2016 Y35.8134
G01 X12.1966 Y35.8356
G01 X12.1810 Y35.8895
G01 X12.1735 Y35.9110
G01 X12.1516 Y35.9639
G01 X12.1422 Y35.9833
G01 X12.1150 Y36.0324
G01 X12.1029 Y36.0517
G01 X12.0704 Y36.0975
G01 X12.0562 Y36.1153
G01 X12.0188 Y36.1571
G01 X12.0027 Y36.1732
G01 X11.9609 Y36.2106
G01 X11.9431 Y36.2248
G01 X11.8973 Y36.2573
G01 X11.8780 Y36.2694
G01 X11.8289 Y36.2966
G01 X11.8084 Y36.3064
G01 X11.7566 Y36.3279
G01 X11.7351 Y36.3354
G01 X11.6812 Y36.3510
G01 X11.6590 Y36.3560
G01 X11.6036 Y36.3654
G01 X11.5810 Y36.3680
G01 X11.5250 Y36.3711
G01 X6.7250 Y36.3715
G01 X4.5971 Y38.4994
G01 X4.5971 Y51.6326
G01 X9.7730 Y56.8085
G01 X29.0700 Y56.8085
G01 X29.0981 Y56.7804
G01 X29.0981 Y56.0208
G01 X29.0298 Y55.9597
G01 X29.0137 Y55.9436
G01 X28.9464 Y55.8684
G01 X28.9322 Y55.8505
G01 X28.8722 Y55.7659
G01 X28.8617 Y55.7489
G01 X28.8129 Y55.6606
G01 X28.8030 Y55.6401
G01 X28.7644 Y55.5468
G01 X28.7568 Y55.5253
G01 X28.7289 Y55.4283
G01 X28.7238 Y55.4061
G01 X28.7069 Y55.3066
G01 X28.7044 Y55.2840
G01 X28.6984 Y55.1718
G01 X28.6987 Y54.7608
G01 X28.7044 Y54.6600
G01 X28.7069 Y54.6374
G01 X28.7247 Y54.5334
G01 X28.7289 Y54.5157
G01 X28.7568 Y54.4187
G01 X28.7644 Y54.3972
G01 X28.8035 Y54.3028
G01 X28.8129 Y54.2834
G01 X28.8617 Y54.1951
G01 X28.8738 Y54.1758
G01 X28.9322 Y54.0935
G01 X28.9464 Y54.0756
G01 X29.0137 Y54.0004
G01 X29.0298 Y53.9843
G01 X29.1051 Y53.9170
G01 X29.1229 Y53.9028
G01 X29.2075 Y53.8428
G01 X29.2245 Y53.8323
G01 X29.3128 Y53.7835
G01 X29.3333 Y53.7736
G01 X29.4266 Y53.7350
G01 X29.4481 Y53.7274
G01 X29.5451 Y53.6995
G01 X29.5673 Y53.6944
G01 X29.6668 Y53.6775
G01 X29.6894 Y53.6750
G01 X29.8016 Y53.6690
G01 X29.9138 Y53.6750
G01 X29.9364 Y53.6775
G01 X30.0359 Y53.6944
G01 X30.0581 Y53.6995
G01 X30.1551 Y53.7274
G01 X30.1766 Y53.7350
G01 X30.2709 Y53.7740
G01 X30.2904 Y53.7835
G01 X30.3787 Y53.8323
G01 X30.3980 Y53.8444
G01 X30.4803 Y53.9028
G01 X30.4981 Y53.9170
G01 X30.5734 Y53.9843
G01 X30.5895 Y54.0004
G01 X30.6568 Y54.0756
G01 X30.6710 Y54.0935
G01 X30.7310 Y54.1781
G01 X30.7415 Y54.1951
G01 X30.7903 Y54.2834
G01 X30.8002 Y54.3039
G01 X30.8388 Y54.3972
G01 X30.8464 Y54.4187
G01 X30.8743 Y54.5157
G01 X30.8794 Y54.5379
G01 X30.8963 Y54.6374
G01 X30.8988 Y54.6600
G01 X30.9048 Y54.7722
G01 X30.9048 Y55.1718
G01 X30.8988 Y55.2840
G01 X30.8963 Y55.3066
G01 X30.8785 Y55.4106
G01 X30.8743 Y55.4283
G01 X30.8464 Y55.5253
G01 X30.8388 Y55.5468
G01 X30.7997 Y55.6412
G01 X30.7903 Y55.6606
G01 X30.7415 Y55.7489
G01 X30.7294 Y55.7682
G01 X30.6710 Y55.8505
G01 X30.6568 Y55.8684
G01 X30.5895 Y55.9436
G01 X30.5734 Y55.9597
G01 X30.5051 Y56.0208
G01 X30.5047 Y57.0832
G01 X30.5016 Y57.1392
G01 X30.4990 Y57.1619
G01 X30.4888 Y57.2217
G01 X30.4846 Y57.2394
G01 X30.4690 Y57.2933
G01 X30.4615 Y57.3148
G01 X30.4396 Y57.3677
G01 X30.4302 Y57.3872
G01 X30.4030 Y57.4363
G01 X30.3909 Y57.4556
G01 X30.3584 Y57.5013
G01 X30.3442 Y57.5191
G01 X30.3068 Y57.5610
G01 X29.8588 Y58.0094
G01 X29.8087 Y58.0546
G01 X29.7909 Y58.0688
G01 X29.7428 Y58.1029
G01 X29.7259 Y58.1134
G01 X29.6768 Y58.1406
G01 X29.6562 Y58.1504
G01 X29.6044 Y58.1719
G01 X29.5829 Y58.1794
G01 X29.5290 Y58.1950
G01 X29.5068 Y58.2000
G01 X29.4515 Y58.2094
G01 X29.4288 Y58.2120
G01 X29.3614 Y58.2155
G01 X9.4816 Y58.2155
G01 X9.4142 Y58.2120
G01 X9.3916 Y58.2094
G01 X9.3318 Y58.1992
G01 X9.3140 Y58.1950
G01 X9.2601 Y58.1794
G01 X9.2386 Y58.1719
G01 X9.1857 Y58.1500
G01 X9.1663 Y58.1406
G01 X9.1172 Y58.1134
G01 X9.0979 Y58.1013
G01 X9.0521 Y58.0688
G01 X9.0343 Y58.0546
G01 X8.9842 Y58.0094
G01 X3.3962 Y52.4214
G01 X3.3510 Y52.3713
G01 X3.3368 Y52.3535
G01 X3.3027 Y52.3054
G01 X3.2922 Y52.2884
G01 X3.2650 Y52.2393
G01 X3.2552 Y52.2188
G01 X3.2337 Y52.1670
G01 X3.2262 Y52.1455
G01 X3.2106 Y52.0916
G01 X3.2056 Y52.0694
G01 X3.1962 Y52.0140
G01 X3.1936 Y51.9914
G01 X3.1905 Y51.9354
G00 Z2.5400
G00 X18.5448 Y54.6600
G01 F76.20
G01 Z-0.2000
G01 F76.20
G01 X18.5469 Y54.6374
G01 X18.5647 Y54.5334
G01 X18.5689 Y54.5157
G01 X18.5968 Y54.4187
G01 X18.6044 Y54.3972
G01 X18.6435 Y54.3028
G01 X18.6529 Y54.2834
G01 X18.7017 Y54.1951
G01 X18.7138 Y54.1758
G01 X18.7722 Y54.0935
G01 X18.7864 Y54.0756
G01 X18.8537 Y54.0004
G01 X18.8698 Y53.9843
G01 X18.9451 Y53.9170
G01 X18.9629 Y53.9028
G01 X19.0475 Y53.8428
G01 X19.0645 Y53.8323
G01 X19.1528 Y53.7835
G01 X19.1733 Y53.7736
G01 X19.2666 Y53.7350
G01 X19.2881 Y53.7274
G01 X19.3851 Y53.6995
G01 X19.4073 Y53.6944
G01 X19.5068 Y53.6775
G01 X19.5294 Y53.6750
G01 X19.6302 Y53.6693
G01 X19.6530 Y53.6693
G01 X19.7538 Y53.6750
G01 X19.7764 Y53.6775
G01 X19.8804 Y53.6952
G01 X19.8981 Y53.6995
G01 X19.9951 Y53.7274
G01 X20.0166 Y53.7350
G01 X20.1109 Y53.7740
G01 X20.1304 Y53.7835
G01 X20.2187 Y53.8323
G01 X20.2380 Y53.8444
G01 X20.3203 Y53.9028
G01 X20.3381 Y53.9170
G01 X20.4134 Y53.9843
G01 X20.4295 Y54.0004
G01 X20.4968 Y54.0756
G01 X20.5110 Y54.0935
G01 X20.5710 Y54.1781
G01 X20.5815 Y54.1951
G01 X20.6303 Y54.2834
G01 X20.6402 Y54.3039
G01 X20.6788 Y54.3972
G01 X20.6864 Y54.4187
G01 X20.7143 Y54.5157
G01 X20.7194 Y54.5379
G01 X20.7363 Y54.6374
G01 X20.7388 Y54.6600
G01 X20.7445 Y54.7608
G01 X20.7448 Y55.1718
G01 X20.7388 Y55.2840
G01 X20.7363 Y55.3066
G01 X20.7194 Y55.4061
G01 X20.7143 Y55.4283
G01 X20.6864 Y55.5253
G01 X20.6788 Y55.5468
G01 X20.6397 Y55.6412
G01 X20.6303 Y55.6606
G01 X20.5815 Y55.7489
G01 X20.5694 Y55.7682
G01 X20.5110 Y55.8505
G01 X20.4968 Y55.8684
G01 X20.4295 Y55.9436
G01 X20.4134 Y55.9597
G01 X20.3381 Y56.0270
G01 X20.3203 Y56.0412
G01 X20.2357 Y56.1012
G01 X20.2187 Y56.1117
G01 X20.1304 Y56.1605
G01 X20.1099 Y56.1704
G01 X20.0166 Y56.2090
G01 X19.9951 Y56.2166
G01 X19.8981 Y56.2445
G01 X19.8759 Y56.2496
G01 X19.7764 Y56.2665
G01 X19.7538 Y56.2690
G01 X19.6530 Y56.2747
G01 X19.6302 Y56.2747
G01 X19.5294 Y56.2690
G01 X19.5068 Y56.2665
G01 X19.4028 Y56.2488
G01 X19.3851 Y56.2445
G01 X19.2881 Y56.2166
G01 X19.2666 Y56.2090
G01 X19.1723 Y56.1700
G01 X19.1528 Y56.1605
G01 X19.0645 Y56.1117
G01 X19.0452 Y56.0996
G01 X18.9629 Y56.0412
G01 X18.9451 Y56.0270
G01 X18.8698 Y55.9597
G01 X18.8537 Y55.9436
G01 X18.7864 Y55.8684
G01 X18.7722 Y55.8505
G01 X18.7122 Y55.7659
G01 X18.7017 Y55.7489
G01 X18.6529 Y55.6606
G01 X18.6430 Y55.6401
G01 X18.6044 Y55.5468
G01 X18.5968 Y55.5253
G01 X18.5689 Y55.4283
G01 X18.5638 Y55.4061
G01 X18.5469 Y55.3066
G01 X18.5444 Y55.2840
G01 X18.5384 Y55.1718
G01 X18.5384 Y54.7722
G01 X18.5448 Y54.6600
G00 Z2.5400
G00 X21.0848 Y54.6600
G01 F76.20
G01 Z-0.2000
G01 F76.20
G01 X21.0869 Y54.6374
G01 X21.1047 Y54.5334
G01 X21.1089 Y54.5157
G01 X21.1368 Y54.4187
G01 X21.1444 Y54.3972
G01 X21.1835 Y54.3028
G01 X21.1929 Y54.2834
G01 X21.2417 Y54.1951
G01 X21.2538 Y54.1758
G01 X21.3122 Y54.0935
G01 X21.3264 Y54.0756
G01 X21.3937 Y54.0004
G01 X21.4098 Y53.9843
G01 X21.4851 Y53.9170
G01 X21.5029 Y53.9028
G01 X21.5875 Y53.8428
G01 X21.6045 Y53.8323
G01 X21.6928 Y53.7835
G01 X21.7133 Y53.7736
G01 X21.8066 Y53.7350
G01 X21.8281 Y53.7274
G01 X21.9251 Y53.6995
G01 X21.9473 Y53.6944
G01 X22.0468 Y53.6775
G01 X22.0694 Y53.6750
G01 X22.1702 Y53.6693
G01 X22.1930 Y53.6693
G01 X22.2938 Y53.6750
G01 X22.3164 Y53.6775
G01 X22.4204 Y53.6952
G01 X22.4381 Y53.6995
G01 X22.5351 Y53.7274
G01 X22.5566 Y53.7350
G01 X22.6509 Y53.7740
G01 X22.6704 Y53.7835
G01 X22.7587 Y53.8323
G01 X22.7780 Y53.8444
G01 X22.8603 Y53.9028
G01 X22.8781 Y53.9170
G01 X22.9534 Y53.9843
G01 X22.9695 Y54.0004
G01 X23.0368 Y54.0756
G01 X23.0510 Y54.0935
G01 X23.1110 Y54.1781
G01 X23.1215 Y54.1951
G01 X23.1703 Y54.2834
G01 X23.1802 Y54.3039
G01 X23.2188 Y54.3972
G01 X23.2264 Y54.4187
G01 X23.2543 Y54.5157
G01 X23.2594 Y54.5379
G01 X23.2763 Y54.6374
G01 X23.2788 Y54.6600
G01 X23.2845 Y54.7608
G01 X23.2848 Y55.1718
G01 X23.2788 Y55.2840
G01 X23.2763 Y55.3066
G01 X23.2594 Y55.4061
G01 X23.2543 Y55.4283
G01 X23.2264 Y55.5253
G01 X23.2188 Y55.5468
G01 X23.1797 Y55.6412
G01 X23.1703 Y55.6606
G01 X23.1215 Y55.7489
G01 X23.1094 Y55.7682
G01 X23.0510 Y55.8505
G01 X23.0368 Y55.8684
G01 X22.9695 Y55.9436
G01 X22.9534 Y55.9597
G01 X22.8781 Y56.0270
G01 X22.8603 Y56.0412
G01 X22.7757 Y56.1012
G01 X22.7587 Y56.1117
G01 X22.6704 Y56.1605
G01 X22.6499 Y56.1704
G01 X22.5566 Y56.2090
G01 X22.5351 Y56.2166
G01 X22.4381 Y56.2445
G01 X22.4159 Y56.2496
G01 X22.3164 Y56.2665
G01 X22.2938 Y56.2690
G01 X22.1930 Y56.2747
G01 X22.1702 Y56.2747
G01 X22.0694 Y56.2690
G01 X22.0468 Y56.2665
G01 X21.9428 Y56.2488
G01 X21.9251 Y56.2445
G01 X21.8281 Y56.2166
G01 X21.8066 Y56.2090
G01 X21.7123 Y56.1700
G01 X21.6928 Y56.1605
G01 X21.6045 Y56.1117
G01 X21.5852 Y56.0996
G01 X21.5029 Y56.0412
G01 X21.4851 Y56.0270
G01 X21.4098 Y55.9597
G01 X21.3937 Y55.9436
G01 X21.3264 Y55.8684
G01 X21.3122 Y55.8505
G01 X21.2522 Y55.7659
G01 X21.2417 Y55.7489
G01 X21.1929 Y55.6606
G01 X21.1830 Y55.6401
G01 X21.1444 Y55.5468
G01 X21.1368 Y55.5253
G01 X21.1089 Y55.4283
G01 X21.1038 Y55.4061
G01 X21.0869 Y55.3066
G01 X21.0844 Y55.2840
G01 X21.0784 Y55.1718
G01 X21.0784 Y54.7722
G01 X21.0848 Y54.6600
G00 Z2.5400
G00 X23.6248 Y54.6600
G01 F76.20
G01 Z-0.2000
G01 F76.20
G01 X23.6269 Y54.6374
G01 X23.6447 Y54.5334
G01 X23.6489 Y54.5157
G01 X23.6768 Y54.4187
G01 X23.6844 Y54.3972
G01 X23.7235 Y54.3028
G01 X23.7329 Y54.2834
G01 X23.7817 Y54.1951
G01 X23.7938 Y54.1758
G01 X23.8522 Y54.0935
G01 X23.8664 Y54.0756
G01 X23.9337 Y54.0004
G01 X23.9498 Y53.9843
G01 X24.0251 Y53.9170
G01 X24.0429 Y53.9028
G01 X24.1275 Y53.8428
G01 X24.1445 Y53.8323
G01 X24.2328 Y53.7835
G01 X24.2533 Y53.7736
G01 X24.3466 Y53.7350
G01 X24.3681 Y53.7274
G01 X24.4651 Y53.6995
G01 X24.4873 Y53.6944
G01 X24.5868 Y53.6775
G01 X24.6094 Y53.6750
G01 X24.7102 Y53.6693
G01 X24.7330 Y53.6693
G01 X24.8338 Y53.6750
G01 X24.8564 Y53.6775
G01 X24.9604 Y53.6952
G01 X24.9781 Y53.6995
G01 X25.0751 Y53.7274
G01 X25.0966 Y53.7350
G01 X25.1909 Y53.7740
G01 X25.2104 Y53.7835
G01 X25.2987 Y53.8323
G01 X25.3180 Y53.8444
G01 X25.4003 Y53.9028
G01 X25.4181 Y53.9170
G01 X25.4934 Y53.9843
G01 X25.5095 Y54.0004
G01 X25.5768 Y54.0756
G01 X25.5910 Y54.0935
G01 X25.6510 Y54.1781
G01 X25.6615 Y54.1951
G01 X25.7103 Y54.2834
G01 X25.7202 Y54.3039
G01 X25.7588 Y54.3972
G01 X25.7664 Y54.4187
G01 X25.7943 Y54.5157
G01 X25.7994 Y54.5379
G01 X25.8163 Y54.6374
G01 X25.8188 Y54.6600
G01 X25.8245 Y54.7608
G01 X25.8248 Y55.1718
G01 X25.8188 Y55.2840
G01 X25.8163 Y55.3066
G01 X25.7994 Y55.4061
G01 X25.7943 Y55.4283
G01 X25.7664 Y55.5253
G01 X25.7588 Y55.5468
G01 X25.7197 Y55.6412
G01 X25.7103 Y55.6606
G01 X25.6615 Y55.7489
G01 X25.6494 Y55.7682
G01 X25.5910 Y55.8505
G01 X25.5768 Y55.8684
G01 X25.5095 Y55.9436
G01 X25.4934 Y55.9597
G01 X25.4181 Y56.0270
G01 X25.4003 Y56.0412
G01 X25.3157 Y56.1012
G01 X25.2987 Y56.1117
G01 X25.2104 Y56.1605
G01 X25.1899 Y56.1704
G01 X25.0966 Y56.2090
G01 X25.0751 Y56.2166
G01 X24.9781 Y56.2445
G01 X24.9559 Y56.2496
G01 X24.8564 Y56.2665
G01 X24.8338 Y56.2690
G01 X24.7330 Y56.2747
G01 X24.7102 Y56.2747
G01 X24.6094 Y56.2690
G01 X24.5868 Y56.2665
G01 X24.4828 Y56.2488
G01 X24.4651 Y56.2445
G01 X24.3681 Y56.2166
G01 X24.3466 Y56.2090
G01 X24.2523 Y56.1700
G01 X24.2328 Y56.1605
G01 X24.1445 Y56.1117
G01 X24.1252 Y56.0996
G01 X24.0429 Y56.0412
G01 X24.0251 Y56.0270
G01 X23.9498 Y55.9597
G01 X23.9337 Y55.9436
G01 X23.8664 Y55.8684
G01 X23.8522 Y55.8505
G01 X23.7922 Y55.7659
G01 X23.7817 Y55.7489
G01 X23.7329 Y55.6606
G01 X23.7230 Y55.6401
