(G-CODE GENERATED BY FLATCAM v8.912 - www.flatcam.org - Version Date: 2019/03/17)

(Name: CAPA ABAJO_cnc)
(Type: G-code from Geometry)
(Units: MM)

(Created on Friday, 12 April 2019 at 10:52)

(TOOL DIAMETER: 0.41 mm)
(Feedrate: 76.2 mm/min)
(Feedrate_Z: 76.2 mm/min)
(Feedrate rapids 76.2 mm/min)

(Z_Cut: -0.2 mm)
(Z_Move: 2.54 mm)
(Z Toolchange: 25.4 mm)
(X,Y Toolchange: 0.0000, 0.0000 mm)
(Z Start: None mm)
(Z End: 50.8 mm)
(Steps per circle: 64)
(Postprocessor Geometry: default)

(X range:    0.1904 ...   46.8452  mm)
(Y range:    2.0784 ...   56.9357  mm)

(Spindle Speed: None RPM)

G21
G90
G94

G01 F76.20
G00 Z2.5400

M03
G00 X0.1974 Y3.1583
G01 F76.20
G01 Z-0.2000
G01 F76.20
G01 X0.1996 Y3.1356
G01 X0.2183 Y3.0250
G01 X0.2234 Y3.0028
G01 X0.2545 Y2.8951
G01 X0.2620 Y2.8736
G01 X0.3054 Y2.7689
G01 X0.3148 Y2.7494
G01 X0.3690 Y2.6513
G01 X0.3812 Y2.6320
G01 X0.4460 Y2.5405
G01 X0.4603 Y2.5227
G01 X0.5350 Y2.4391
G01 X0.5511 Y2.4230
G01 X0.6347 Y2.3483
G01 X0.6525 Y2.3340
G01 X0.7463 Y2.2675
G01 X0.7633 Y2.2570
G01 X0.8614 Y2.2028
G01 X0.8820 Y2.1929
G01 X0.9856 Y2.1500
G01 X1.0071 Y2.1425
G01 X1.1148 Y2.1114
G01 X1.1370 Y2.1063
G01 X1.2476 Y2.0876
G01 X1.2702 Y2.0850
G01 X1.3936 Y2.0784
G01 X1.5170 Y2.0850
G01 X1.5396 Y2.0876
G01 X1.6502 Y2.1063
G01 X1.6724 Y2.1114
G01 X1.7801 Y2.1425
G01 X1.8016 Y2.1500
G01 X1.9063 Y2.1934
G01 X1.9258 Y2.2028
G01 X2.0239 Y2.2570
G01 X2.0432 Y2.2692
G01 X2.1347 Y2.3340
G01 X2.1525 Y2.3483
G01 X2.2361 Y2.4230
G01 X2.2522 Y2.4391
G01 X2.3269 Y2.5227
G01 X2.3412 Y2.5405
G01 X2.4077 Y2.6343
G01 X2.4182 Y2.6513
G01 X2.4724 Y2.7494
G01 X2.4823 Y2.7700
G01 X2.5252 Y2.8736
G01 X2.5327 Y2.8951
G01 X2.5638 Y3.0028
G01 X2.5689 Y3.0250
G01 X2.5876 Y3.1356
G01 X2.5902 Y3.1582
G01 X2.5968 Y3.2816
G01 X2.5902 Y3.4050
G01 X2.5876 Y3.4276
G01 X2.5689 Y3.5382
G01 X2.5638 Y3.5604
G01 X2.5327 Y3.6681
G01 X2.5252 Y3.6896
G01 X2.4818 Y3.7943
G01 X2.4724 Y3.8138
G01 X2.4182 Y3.9119
G01 X2.4060 Y3.9312
G01 X2.3412 Y4.0227
G01 X2.3269 Y4.0405
G01 X2.2522 Y4.1241
G01 X2.2361 Y4.1402
G01 X2.1525 Y4.2149
G01 X2.1347 Y4.2292
G01 X2.0409 Y4.2957
G01 X2.0239 Y4.3062
G01 X1.9258 Y4.3604
G01 X1.9052 Y4.3703
G01 X1.8016 Y4.4132
G01 X1.7801 Y4.4207
G01 X1.6724 Y4.4518
G01 X1.6502 Y4.4569
G01 X1.5396 Y4.4756
G01 X1.5170 Y4.4782
G01 X1.3936 Y4.4848
G01 X1.2702 Y4.4782
G01 X1.2476 Y4.4756
G01 X1.1370 Y4.4569
G01 X1.1148 Y4.4518
G01 X1.0071 Y4.4207
G01 X0.9856 Y4.4132
G01 X0.8809 Y4.3698
G01 X0.8614 Y4.3604
G01 X0.7633 Y4.3062
G01 X0.7440 Y4.2940
G01 X0.6525 Y4.2292
G01 X0.6347 Y4.2149
G01 X0.5511 Y4.1402
G01 X0.5350 Y4.1241
G01 X0.4603 Y4.0405
G01 X0.4460 Y4.0227
G01 X0.3795 Y3.9289
G01 X0.3690 Y3.9119
G01 X0.3148 Y3.8138
G01 X0.3049 Y3.7932
G01 X0.2620 Y3.6896
G01 X0.2545 Y3.6681
G01 X0.2234 Y3.5604
G01 X0.2183 Y3.5382
G01 X0.1996 Y3.4276
G01 X0.1970 Y3.4050
G01 X0.1904 Y3.2816
G01 X0.1974 Y3.1583
G00 Z2.5400
G00 X2.7374 Y3.1583
G01 F76.20
G01 Z-0.2000
G01 F76.20
G01 X2.7396 Y3.1356
G01 X2.7583 Y3.0250
G01 X2.7634 Y3.0028
G01 X2.7945 Y2.8951
G01 X2.8020 Y2.8736
G01 X2.8454 Y2.7689
G01 X2.8548 Y2.7494
G01 X2.9090 Y2.6513
G01 X2.9212 Y2.6320
G01 X2.9860 Y2.5405
G01 X3.0003 Y2.5227
G01 X3.0750 Y2.4391
G01 X3.0911 Y2.4230
G01 X3.1747 Y2.3483
G01 X3.1925 Y2.3340
G01 X3.2863 Y2.2675
G01 X3.3033 Y2.2570
G01 X3.4014 Y2.2028
G01 X3.4220 Y2.1929
G01 X3.5256 Y2.1500
G01 X3.5471 Y2.1425
G01 X3.6548 Y2.1114
G01 X3.6770 Y2.1063
G01 X3.7876 Y2.0876
G01 X3.8102 Y2.0850
G01 X3.9336 Y2.0784
G01 X4.0570 Y2.0850
G01 X4.0796 Y2.0876
G01 X4.1947 Y2.1072
G01 X4.2124 Y2.1114
G01 X4.3201 Y2.1425
G01 X4.3416 Y2.1500
G01 X4.4463 Y2.1934
G01 X4.4658 Y2.2028
G01 X4.5639 Y2.2570
G01 X4.5832 Y2.2692
G01 X4.6747 Y2.3340
G01 X4.6925 Y2.3483
G01 X4.7761 Y2.4230
G01 X4.7922 Y2.4391
G01 X4.8669 Y2.5227
G01 X4.8812 Y2.5405
G01 X4.9477 Y2.6343
G01 X4.9582 Y2.6513
G01 X5.0124 Y2.7494
G01 X5.0223 Y2.7700
G01 X5.0652 Y2.8736
G01 X5.0727 Y2.8951
G01 X5.1038 Y3.0028
G01 X5.1089 Y3.0250
G01 X5.1276 Y3.1356
G01 X5.1302 Y3.1582
G01 X5.1365 Y3.2702
G01 X5.1365 Y3.2930
G01 X5.1302 Y3.4050
G01 X5.1276 Y3.4276
G01 X5.1199 Y3.4731
G01 X5.3459 Y3.6991
G01 X5.3345 Y3.6681
G01 X5.3034 Y3.5604
G01 X5.2983 Y3.5382
G01 X5.2796 Y3.4276
G01 X5.2770 Y3.4050
G01 X5.2704 Y3.2816
G01 X5.2770 Y3.1582
G01 X5.2796 Y3.1356
G01 X5.2992 Y3.0205
G01 X5.3034 Y3.0028
G01 X5.3345 Y2.8951
G01 X5.3420 Y2.8736
G01 X5.3854 Y2.7689
G01 X5.3948 Y2.7494
G01 X5.4490 Y2.6513
G01 X5.4612 Y2.6320
G01 X5.5260 Y2.5405
G01 X5.5403 Y2.5227
G01 X5.6150 Y2.4391
G01 X5.6311 Y2.4230
G01 X5.7147 Y2.3483
G01 X5.7325 Y2.3340
G01 X5.8263 Y2.2675
G01 X5.8433 Y2.2570
G01 X5.9414 Y2.2028
G01 X5.9620 Y2.1929
G01 X6.0656 Y2.1500
G01 X6.0871 Y2.1425
G01 X6.1948 Y2.1114
G01 X6.2170 Y2.1063
G01 X6.3276 Y2.0876
G01 X6.3502 Y2.0850
G01 X6.4736 Y2.0784
G01 X6.5970 Y2.0850
G01 X6.6196 Y2.0876
G01 X6.7302 Y2.1063
G01 X6.7524 Y2.1114
G01 X6.8601 Y2.1425
G01 X6.8816 Y2.1500
G01 X6.9863 Y2.1934
G01 X7.0058 Y2.2028
G01 X7.1039 Y2.2570
G01 X7.1232 Y2.2692
G01 X7.2147 Y2.3340
G01 X7.2325 Y2.3483
G01 X7.3161 Y2.4230
G01 X7.3322 Y2.4391
G01 X7.4069 Y2.5227
G01 X7.4212 Y2.5405
G01 X7.4877 Y2.6343
G01 X7.4982 Y2.6513
G01 X7.5524 Y2.7494
G01 X7.5623 Y2.7700
G01 X7.6052 Y2.8736
G01 X7.6127 Y2.8951
G01 X7.6438 Y3.0028
G01 X7.6489 Y3.0250
G01 X7.6676 Y3.1356
G01 X7.6702 Y3.1582
G01 X7.6768 Y3.2816
G01 X7.6702 Y3.4050
G01 X7.6676 Y3.4276
G01 X7.6489 Y3.5382
G01 X7.6438 Y3.5604
G01 X7.6127 Y3.6681
G01 X7.6013 Y3.6991
G01 X7.8273 Y3.4731
G01 X7.8196 Y3.4276
G01 X7.8170 Y3.4050
G01 X7.8107 Y3.2930
G01 X7.8107 Y3.2702
G01 X7.8170 Y3.1582
G01 X7.8196 Y3.1356
G01 X7.8383 Y3.0250
G01 X7.8434 Y3.0028
G01 X7.8745 Y2.8951
G01 X7.8820 Y2.8736
G01 X7.9254 Y2.7689
G01 X7.9348 Y2.7494
G01 X7.9890 Y2.6513
G01 X8.0012 Y2.6320
G01 X8.0660 Y2.5405
G01 X8.0803 Y2.5227
G01 X8.1550 Y2.4391
G01 X8.1711 Y2.4230
G01 X8.2547 Y2.3483
G01 X8.2725 Y2.3340
G01 X8.3663 Y2.2675
G01 X8.3833 Y2.2570
G01 X8.4814 Y2.2028
G01 X8.5020 Y2.1929
G01 X8.6056 Y2.1500
G01 X8.6271 Y2.1425
G01 X8.7348 Y2.1114
G01 X8.7570 Y2.1063
G01 X8.8676 Y2.0876
G01 X8.8902 Y2.0850
G01 X9.0136 Y2.0784
G01 X9.1370 Y2.0850
G01 X9.1596 Y2.0876
G01 X9.2702 Y2.1063
G01 X9.2924 Y2.1114
G01 X9.4001 Y2.1425
G01 X9.4216 Y2.1500
G01 X9.5263 Y2.1934
G01 X9.5458 Y2.2028
G01 X9.6439 Y2.2570
G01 X9.6632 Y2.2692
G01 X9.7547 Y2.3340
G01 X9.7725 Y2.3483
G01 X9.8561 Y2.4230
G01 X9.8722 Y2.4391
G01 X9.9469 Y2.5227
G01 X9.9612 Y2.5405
G01 X9.9879 Y2.5781
G01 X10.5793 Y2.5781
G01 X10.6060 Y2.5405
G01 X10.6203 Y2.5227
G01 X10.6950 Y2.4391
G01 X10.7111 Y2.4230
G01 X10.7947 Y2.3483
G01 X10.8125 Y2.3340
G01 X10.9063 Y2.2675
G01 X10.9233 Y2.2570
G01 X11.0214 Y2.2028
G01 X11.0420 Y2.1929
G01 X11.1456 Y2.1500
G01 X11.1671 Y2.1425
G01 X11.2748 Y2.1114
G01 X11.2970 Y2.1063
G01 X11.4076 Y2.0876
G01 X11.4302 Y2.0850
G01 X11.5536 Y2.0784
G01 X11.6770 Y2.0850
G01 X11.6996 Y2.0876
G01 X11.8147 Y2.1072
G01 X11.8324 Y2.1114
G01 X11.9401 Y2.1425
G01 X11.9616 Y2.1500
G01 X12.0663 Y2.1934
G01 X12.0858 Y2.2028
G01 X12.1839 Y2.2570
G01 X12.2032 Y2.2692
G01 X12.2947 Y2.3340
G01 X12.3125 Y2.3483
G01 X12.3961 Y2.4230
G01 X12.4122 Y2.4391
G01 X12.4869 Y2.5227
G01 X12.5012 Y2.5405
G01 X12.5677 Y2.6343
G01 X12.5782 Y2.6513
G01 X12.6324 Y2.7494
G01 X12.6423 Y2.7700
G01 X12.6852 Y2.8736
G01 X12.6927 Y2.8951
G01 X12.7238 Y3.0028
G01 X12.7289 Y3.0250
G01 X12.7476 Y3.1356
G01 X12.7502 Y3.1582
G01 X12.7568 Y3.2816
G01 X12.7502 Y3.4050
G01 X12.7476 Y3.4276
G01 X12.7399 Y3.4731
G01 X12.9659 Y3.6991
G01 X12.9545 Y3.6681
G01 X12.9234 Y3.5604
G01 X12.9183 Y3.5382
G01 X12.8996 Y3.4276
G01 X12.8970 Y3.4050
G01 X12.8904 Y3.2816
G01 X12.8970 Y3.1582
G01 X12.8996 Y3.1356
G01 X12.9192 Y3.0205
G01 X12.9234 Y3.0028
G01 X12.9545 Y2.8951
G01 X12.9620 Y2.8736
G01 X13.0054 Y2.7689
G01 X13.0148 Y2.7494
G01 X13.0690 Y2.6513
G01 X13.0812 Y2.6320
G01 X13.1460 Y2.5405
G01 X13.1603 Y2.5227
G01 X13.2350 Y2.4391
G01 X13.2511 Y2.4230
G01 X13.3347 Y2.3483
G01 X13.3525 Y2.3340
G01 X13.4463 Y2.2675
G01 X13.4633 Y2.2570
G01 X13.5614 Y2.2028
G01 X13.5820 Y2.1929
G01 X13.6856 Y2.1500
G01 X13.7071 Y2.1425
G01 X13.8148 Y2.1114
G01 X13.8370 Y2.1063
G01 X13.9476 Y2.0876
G01 X13.9702 Y2.0850
G01 X14.0936 Y2.0784
G01 X14.2170 Y2.0850
G01 X14.2396 Y2.0876
G01 X14.3547 Y2.1072
G01 X14.3724 Y2.1114
G01 X14.4801 Y2.1425
G01 X14.5016 Y2.1500
G01 X14.6063 Y2.1934
G01 X14.6258 Y2.2028
G01 X14.7239 Y2.2570
G01 X14.7432 Y2.2692
G01 X14.8347 Y2.3340
G01 X14.8525 Y2.3483
G01 X14.9361 Y2.4230
G01 X14.9522 Y2.4391
G01 X15.0269 Y2.5227
G01 X15.0412 Y2.5405
G01 X15.1077 Y2.6343
G01 X15.1182 Y2.6513
G01 X15.1724 Y2.7494
G01 X15.1823 Y2.7700
G01 X15.2252 Y2.8736
G01 X15.2327 Y2.8951
G01 X15.2638 Y3.0028
G01 X15.2689 Y3.0250
G01 X15.2876 Y3.1356
G01 X15.2902 Y3.1582
G01 X15.2968 Y3.2816
G01 X15.2902 Y3.4050
G01 X15.2876 Y3.4276
G01 X15.2689 Y3.5382
G01 X15.2638 Y3.5604
G01 X15.2327 Y3.6681
G01 X15.2213 Y3.6991
G01 X15.4473 Y3.4731
G01 X15.4396 Y3.4276
G01 X15.4370 Y3.4050
G01 X15.4304 Y3.2816
G01 X15.4370 Y3.1582
G01 X15.4396 Y3.1356
G01 X15.4592 Y3.0205
G01 X15.4634 Y3.0028
G01 X15.4945 Y2.8951
G01 X15.5020 Y2.8736
G01 X15.5449 Y2.7700
G01 X15.5548 Y2.7494
G01 X15.6090 Y2.6513
G01 X15.6212 Y2.6320
G01 X15.6860 Y2.5405
G01 X15.7003 Y2.5227
G01 X15.7750 Y2.4391
G01 X15.7911 Y2.4230
G01 X15.8747 Y2.3483
G01 X15.8925 Y2.3340
G01 X15.9863 Y2.2675
G01 X16.0033 Y2.2570
G01 X16.1014 Y2.2028
G01 X16.1220 Y2.1929
G01 X16.2256 Y2.1500
G01 X16.2471 Y2.1425
G01 X16.3548 Y2.1114
G01 X16.3770 Y2.1063
G01 X16.4876 Y2.0876
G01 X16.5102 Y2.0850
G01 X16.6336 Y2.0784
G01 X16.7570 Y2.0850
G01 X16.7796 Y2.0876
G01 X16.8902 Y2.1063
G01 X16.9124 Y2.1114
G01 X17.0201 Y2.1425
G01 X17.0416 Y2.1500
G01 X17.1463 Y2.1934
G01 X17.1658 Y2.2028
G01 X17.2639 Y2.2570
G01 X17.2832 Y2.2692
G01 X17.3747 Y2.3340
G01 X17.3925 Y2.3483
G01 X17.4761 Y2.4230
G01 X17.4922 Y2.4391
G01 X17.5669 Y2.5227
G01 X17.5812 Y2.5405
G01 X17.6477 Y2.6343
G01 X17.6582 Y2.6513
G01 X17.7124 Y2.7494
G01 X17.7223 Y2.7700
G01 X17.7652 Y2.8736
G01 X17.7727 Y2.8951
G01 X17.8038 Y3.0028
G01 X17.8089 Y3.0250
G01 X17.8276 Y3.1356
G01 X17.8302 Y3.1582
G01 X17.8365 Y3.2702
G01 X17.8365 Y3.2930
G01 X17.8302 Y3.4050
G01 X17.8276 Y3.4276
G01 X17.8080 Y3.5427
G01 X17.8038 Y3.5604
G01 X17.7727 Y3.6681
G01 X17.7652 Y3.6896
G01 X17.7218 Y3.7943
G01 X17.7124 Y3.8138
G01 X17.6582 Y3.9119
G01 X17.6460 Y3.9312
G01 X17.5812 Y4.0227
G01 X17.5669 Y4.0405
G01 X17.4922 Y4.1241
G01 X17.4761 Y4.1402
G01 X17.3925 Y4.2149
G01 X17.3747 Y4.2292
G01 X17.2809 Y4.2957
G01 X17.2639 Y4.3062
G01 X17.1658 Y4.3604
G01 X17.1452 Y4.3703
G01 X17.0416 Y4.4132
G01 X17.0201 Y4.4207
G01 X16.9124 Y4.4518
G01 X16.8902 Y4.4569
G01 X16.7796 Y4.4756
G01 X16.7570 Y4.4782
G01 X16.6450 Y4.4845
G01 X16.6222 Y4.4845
G01 X16.5102 Y4.4782
G01 X16.4876 Y4.4756
G01 X16.4421 Y4.4679
G01 X15.4310 Y5.4790
G01 X15.3809 Y5.5242
G01 X15.3631 Y5.5384
G01 X15.3150 Y5.5725
G01 X15.2980 Y5.5830
G01 X15.2489 Y5.6102
G01 X15.2284 Y5.6200
G01 X15.1766 Y5.6415
G01 X15.1551 Y5.6490
G01 X15.1012 Y5.6646
G01 X15.0790 Y5.6696
G01 X15.0236 Y5.6790
G01 X15.0010 Y5.6816
G01 X14.9336 Y5.6851
G01 X13.2536 Y5.6851
G01 X13.1862 Y5.6816
G01 X13.1636 Y5.6790
G01 X13.1038 Y5.6688
G01 X13.0860 Y5.6646
G01 X13.0321 Y5.6490
G01 X13.0106 Y5.6415
G01 X12.9577 Y5.6196
G01 X12.9383 Y5.6102
G01 X12.8892 Y5.5830
G01 X12.8699 Y5.5709
G01 X12.8241 Y5.5384
G01 X12.8063 Y5.5242
G01 X12.7645 Y5.4868
G01 X11.7451 Y4.4679
G01 X11.6996 Y4.4756
G01 X11.6770 Y4.4782
G01 X11.5650 Y4.4845
G01 X11.5422 Y4.4845
G01 X11.4302 Y4.4782
G01 X11.4076 Y4.4756
G01 X11.2925 Y4.4560
G01 X11.2748 Y4.4518
G01 X11.1671 Y4.4207
G01 X11.1456 Y4.4132
G01 X11.0409 Y4.3698
G01 X11.0214 Y4.3604
G01 X10.9233 Y4.3062
G01 X10.9040 Y4.2940
G01 X10.8125 Y4.2292
G01 X10.7947 Y4.2149
G01 X10.7111 Y4.1402
G01 X10.6950 Y4.1241
G01 X10.6203 Y4.0405
G01 X10.6060 Y4.0227
G01 X10.5793 Y3.9851
G01 X9.9879 Y3.9851
G01 X9.9612 Y4.0227
G01 X9.9469 Y4.0405
G01 X9.8722 Y4.1241
G01 X9.8561 Y4.1402
G01 X9.7725 Y4.2149
G01 X9.7547 Y4.2292
G01 X9.6609 Y4.2957
G01 X9.6439 Y4.3062
G01 X9.5458 Y4.3604
G01 X9.5252 Y4.3703
G01 X9.4216 Y4.4132
G01 X9.4001 Y4.4207
G01 X9.2924 Y4.4518
G01 X9.2702 Y4.4569
G01 X9.1596 Y4.4756
G01 X9.1370 Y4.4782
G01 X9.0136 Y4.4848
G01 X8.8902 Y4.4782
G01 X8.8676 Y4.4756
G01 X8.8221 Y4.4679
G01 X7.8110 Y5.4790
G01 X7.7609 Y5.5242
G01 X7.7431 Y5.5384
G01 X7.6973 Y5.5709
G01 X7.6780 Y5.5830
G01 X7.6289 Y5.6102
G01 X7.6084 Y5.6200
G01 X7.5566 Y5.6415
G01 X7.5351 Y5.6490
G01 X7.4812 Y5.6646
G01 X7.4590 Y5.6696
G01 X7.4036 Y5.6790
G01 X7.3810 Y5.6816
G01 X7.3312 Y5.6844
G01 X10.9334 Y9.2866
G01 X10.9786 Y9.3367
G01 X10.9928 Y9.3545
G01 X11.0269 Y9.4026
G01 X11.0374 Y9.4196
G01 X11.0646 Y9.4687
G01 X11.0744 Y9.4892
G01 X11.0959 Y9.5410
G01 X11.1034 Y9.5625
G01 X11.1190 Y9.6164
G01 X11.1240 Y9.6386
G01 X11.1334 Y9.6940
G01 X11.1360 Y9.7166
G01 X11.1395 Y9.7840
G01 X11.1395 Y15.9725
G01 X11.1771 Y15.9992
G01 X11.1949 Y16.0135
G01 X11.2785 Y16.0882
G01 X11.2946 Y16.1043
G01 X11.3693 Y16.1879
G01 X11.3836 Y16.2057
G01 X11.4103 Y16.2433
G01 X12.1124 Y16.2433
G01 X12.1798 Y16.2468
G01 X12.2024 Y16.2494
G01 X12.2623 Y16.2596
G01 X12.2800 Y16.2638
G01 X12.3339 Y16.2794
G01 X12.3554 Y16.2869
G01 X12.4083 Y16.3088
G01 X12.4277 Y16.3182
G01 X12.4768 Y16.3454
G01 X12.4961 Y16.3575
G01 X12.5419 Y16.3900
G01 X12.5597 Y16.4042
G01 X12.6098 Y16.4494
G01 X13.9778 Y17.8174
G01 X13.9275 Y17.7465
G01 X13.9170 Y17.7295
G01 X13.8628 Y17.6314
G01 X13.8529 Y17.6108
G01 X13.8100 Y17.5072
G01 X13.8025 Y17.4857
G01 X13.7714 Y17.3780
G01 X13.7663 Y17.3558
G01 X13.7476 Y17.2452
G01 X13.7450 Y17.2226
G01 X13.7384 Y17.0992
G01 X13.7450 Y16.9758
G01 X13.7476 Y16.9532
G01 X13.7663 Y16.8426
G01 X13.7714 Y16.8204
G01 X13.8025 Y16.7127
G01 X13.8100 Y16.6912
G01 X13.8534 Y16.5865
G01 X13.8628 Y16.5670
G01 X13.9170 Y16.4689
G01 X13.9292 Y16.4496
G01 X13.9940 Y16.3581
G01 X14.0083 Y16.3403
G01 X14.0830 Y16.2567
G01 X14.0991 Y16.2406
G01 X14.1827 Y16.1659
G01 X14.2005 Y16.1516
G01 X14.2943 Y16.0851
G01 X14.3113 Y16.0746
G01 X14.4094 Y16.0204
G01 X14.4300 Y16.0105
G01 X14.5336 Y15.9676
G01 X14.5551 Y15.9601
G01 X14.6628 Y15.9290
G01 X14.6850 Y15.9239
G01 X14.7956 Y15.9052
G01 X14.8182 Y15.9026
G01 X14.9302 Y15.8963
G01 X14.9530 Y15.8963
G01 X15.0650 Y15.9026
G01 X15.0876 Y15.9052
G01 X15.2027 Y15.9248
G01 X15.2204 Y15.9290
G01 X15.3281 Y15.9601
G01 X15.3496 Y15.9676
G01 X15.4543 Y16.0110
G01 X15.4738 Y16.0204
G01 X15.5719 Y16.0746
G01 X15.5912 Y16.0868
G01 X15.6827 Y16.1516
G01 X15.7005 Y16.1659
G01 X15.7841 Y16.2406
G01 X15.8002 Y16.2567
G01 X15.8749 Y16.3403
G01 X15.8892 Y16.3581
G01 X15.9540 Y16.4496
G01 X15.9662 Y16.4689
G01 X16.0204 Y16.5670
G01 X16.0303 Y16.5876
G01 X16.0732 Y16.6912
G01 X16.0807 Y16.7127
G01 X16.1118 Y16.8204
G01 X16.1169 Y16.8426
G01 X16.1356 Y16.9532
G01 X16.1382 Y16.9758
G01 X16.1448 Y17.0992
G01 X16.1382 Y17.2226
G01 X16.1356 Y17.2452
G01 X16.1169 Y17.3558
G01 X16.1118 Y17.3780
G01 X16.0807 Y17.4857
G01 X16.0732 Y17.5072
G01 X16.0298 Y17.6119
G01 X16.0204 Y17.6314
G01 X15.9662 Y17.7295
G01 X15.9540 Y17.7488
G01 X15.8892 Y17.8403
G01 X15.8749 Y17.8581
G01 X15.8002 Y17.9417
G01 X15.7841 Y17.9578
G01 X15.7005 Y18.0325
G01 X15.6827 Y18.0468
G01 X15.5889 Y18.1133
G01 X15.5719 Y18.1238
G01 X15.4738 Y18.1780
G01 X15.4532 Y18.1879
G01 X15.3496 Y18.2308
G01 X15.3281 Y18.2383
G01 X15.2204 Y18.2694
G01 X15.1982 Y18.2745
G01 X15.0876 Y18.2932
G01 X15.0650 Y18.2958
G01 X14.9416 Y18.3024
G01 X14.8182 Y18.2958
G01 X14.7956 Y18.2932
G01 X14.6805 Y18.2736
G01 X14.6628 Y18.2694
G01 X14.5551 Y18.2383
G01 X14.5336 Y18.2308
G01 X14.4289 Y18.1874
G01 X14.4094 Y18.1780
G01 X14.3113 Y18.1238
G01 X14.2920 Y18.1116
G01 X14.2234 Y18.0630
G01 X19.6850 Y23.5245
G01 X22.6752 Y23.5245
G01 X22.6889 Y23.5108
G01 X22.7558 Y23.4510
G01 X22.7736 Y23.4368
G01 X22.8491 Y23.3833
G01 X22.8661 Y23.3728
G01 X22.9446 Y23.3294
G01 X22.9651 Y23.3195
G01 X23.0480 Y23.2852
G01 X23.0695 Y23.2776
G01 X23.1557 Y23.2528
G01 X23.1779 Y23.2477
G01 X23.2664 Y23.2327
G01 X23.2890 Y23.2301
G01 X23.3900 Y23.2248
G01 X23.4910 Y23.2301
G01 X23.5136 Y23.2327
G01 X23.6066 Y23.2485
G01 X23.6243 Y23.2528
G01 X23.7105 Y23.2776
G01 X23.7320 Y23.2852
G01 X23.8160 Y23.3199
G01 X23.8354 Y23.3294
G01 X23.9139 Y23.3728
G01 X23.9332 Y23.3849
G01 X24.0064 Y23.4368
G01 X24.0242 Y23.4510
G01 X24.0911 Y23.5108
G01 X24.1072 Y23.5269
G01 X24.1670 Y23.5938
G01 X24.1812 Y23.6116
G01 X24.2347 Y23.6871
G01 X24.2452 Y23.7041
G01 X24.2886 Y23.7826
G01 X24.2985 Y23.8031
G01 X24.3328 Y23.8860
G01 X24.3404 Y23.9075
G01 X24.3652 Y23.9937
G01 X24.3703 Y24.0159
G01 X24.3853 Y24.1044
G01 X24.3879 Y24.1270
G01 X24.3932 Y24.2280
G01 X24.3879 Y24.3290
G01 X24.3853 Y24.3516
G01 X24.3695 Y24.4446
G01 X24.3652 Y24.4623
G01 X24.3404 Y24.5485
G01 X24.3328 Y24.5700
G01 X24.2981 Y24.6540
G01 X24.2886 Y24.6734
G01 X24.2452 Y24.7519
G01 X24.2331 Y24.7712
G01 X24.1812 Y24.8444
G01 X24.1670 Y24.8622
G01 X24.1072 Y24.9291
G01 X24.0935 Y24.9428
G01 X24.0935 Y35.6446
G01 X24.0900 Y35.7120
G01 X24.0874 Y35.7346
G01 X24.0772 Y35.7944
G01 X24.0730 Y35.8121
G01 X24.0574 Y35.8661
G01 X24.0499 Y35.8876
G01 X24.0280 Y35.9405
G01 X24.0186 Y35.9599
G01 X23.9914 Y36.0090
G01 X23.9793 Y36.0283
G01 X23.9468 Y36.0741
G01 X23.9326 Y36.0919
G01 X23.8952 Y36.1337
G01 X22.2133 Y37.8161
G01 X22.2879 Y37.7632
G01 X22.3049 Y37.7527
G01 X22.3932 Y37.7039
G01 X22.4137 Y37.6940
G01 X22.5070 Y37.6554
G01 X22.5285 Y37.6478
G01 X22.6255 Y37.6199
G01 X22.6477 Y37.6148
G01 X22.7472 Y37.5979
G01 X22.7698 Y37.5954
G01 X22.8820 Y37.5894
G01 X22.9942 Y37.5954
G01 X23.0168 Y37.5979
G01 X23.1163 Y37.6148
G01 X23.1385 Y37.6199
G01 X23.2355 Y37.6478
G01 X23.2570 Y37.6554
G01 X23.3513 Y37.6944
G01 X23.3708 Y37.7039
G01 X23.4591 Y37.7527
G01 X23.4784 Y37.7648
G01 X23.5607 Y37.8232
G01 X23.5785 Y37.8374
G01 X23.6538 Y37.9047
G01 X23.6699 Y37.9208
G01 X23.7372 Y37.9960
G01 X23.7514 Y38.0139
G01 X23.8114 Y38.0985
G01 X23.8219 Y38.1155
G01 X23.8707 Y38.2038
G01 X23.8806 Y38.2243
G01 X23.9192 Y38.3176
G01 X23.9268 Y38.3391
G01 X23.9547 Y38.4361
G01 X23.9598 Y38.4583
G01 X23.9767 Y38.5578
G01 X23.9792 Y38.5804
G01 X23.9852 Y38.6926
G01 X23.9849 Y39.1036
G01 X23.9792 Y39.2044
G01 X23.9767 Y39.2270
G01 X23.9589 Y39.3310
G01 X23.9547 Y39.3487
G01 X23.9268 Y39.4457
G01 X23.9192 Y39.4672
G01 X23.8801 Y39.5616
G01 X23.8707 Y39.5810
G01 X23.8219 Y39.6693
G01 X23.8098 Y39.6886
G01 X23.7514 Y39.7709
G01 X23.7372 Y39.7888
G01 X23.6699 Y39.8640
G01 X23.6538 Y39.8801
G01 X23.5785 Y39.9474
G01 X23.5607 Y39.9616
G01 X23.4761 Y40.0216
G01 X23.4591 Y40.0321
G01 X23.3708 Y40.0809
G01 X23.3503 Y40.0908
G01 X23.2570 Y40.1294
G01 X23.2355 Y40.1370
G01 X23.1385 Y40.1649
G01 X23.1163 Y40.1700
G01 X23.0168 Y40.1869
G01 X22.9942 Y40.1894
G01 X22.8820 Y40.1954
G01 X22.7698 Y40.1894
G01 X22.7472 Y40.1869
G01 X22.6432 Y40.1692
G01 X22.6255 Y40.1649
G01 X22.5285 Y40.1370
G01 X22.5070 Y40.1294
G01 X22.4127 Y40.0904
G01 X22.3932 Y40.0809
G01 X22.3049 Y40.0321
G01 X22.2856 Y40.0200
G01 X22.2033 Y39.9616
G01 X22.1855 Y39.9474
G01 X22.1102 Y39.8801
G01 X22.0941 Y39.8640
G01 X22.0268 Y39.7888
G01 X22.0126 Y39.7709
G01 X21.9526 Y39.6863
G01 X21.9421 Y39.6693
G01 X21.8933 Y39.5810
G01 X21.8834 Y39.5605
G01 X21.8448 Y39.4672
G01 X21.8372 Y39.4457
G01 X21.8093 Y39.3487
G01 X21.8042 Y39.3265
G01 X21.7873 Y39.2270
G01 X21.7848 Y39.2044
G01 X21.7788 Y39.0922
G01 X21.7788 Y38.6926
G01 X21.7848 Y38.5804
G01 X21.7873 Y38.5578
G01 X21.8051 Y38.4538
G01 X21.8093 Y38.4361
G01 X21.8372 Y38.3391
G01 X21.8448 Y38.3176
G01 X21.8839 Y38.2232
G01 X21.8933 Y38.2038
G01 X21.9421 Y38.1155
G01 X21.9542 Y38.0962
G01 X22.0055 Y38.0239
G01 X21.4397 Y38.5897
G01 X21.4452 Y38.6926
G01 X21.4452 Y39.0922
G01 X21.4392 Y39.2044
G01 X21.4367 Y39.2270
G01 X21.4189 Y39.3310
G01 X21.4147 Y39.3487
G01 X21.3868 Y39.4457
G01 X21.3792 Y39.4672
G01 X21.3401 Y39.5616
G01 X21.3307 Y39.5810
G01 X21.2819 Y39.6693
G01 X21.2698 Y39.6886
G01 X21.2114 Y39.7709
G01 X21.1972 Y39.7888
G01 X21.1299 Y39.8640
G01 X21.1138 Y39.8801
G01 X21.0455 Y39.9412
G01 X21.0455 Y47.3506
G01 X21.0420 Y47.4180
G01 X21.0394 Y47.4406
G01 X21.0292 Y47.5005
G01 X21.0250 Y47.5182
G01 X21.0094 Y47.5721
G01 X21.0019 Y47.5936
G01 X20.9800 Y47.6465
G01 X20.9706 Y47.6659
G01 X20.9434 Y47.7150
G01 X20.9313 Y47.7343
G01 X20.8988 Y47.7801
G01 X20.8846 Y47.7979
G01 X20.8394 Y47.8480
G01 X18.9090 Y49.7784
G01 X18.8589 Y49.8236
G01 X18.8411 Y49.8378
G01 X18.7930 Y49.8719
G01 X18.7760 Y49.8824
G01 X18.7269 Y49.9096
G01 X18.7064 Y49.9194
G01 X18.6546 Y49.9409
G01 X18.6331 Y49.9484
G01 X18.5792 Y49.9640
G01 X18.5570 Y49.9690
G01 X18.5016 Y49.9784
G01 X18.4790 Y49.9810
G01 X18.4230 Y49.9841
G01 X18.4002 Y49.9841
G01 X18.3442 Y49.9810
G01 X18.3216 Y49.9784
G01 X18.2662 Y49.9690
G01 X18.2440 Y49.9640
G01 X18.1901 Y49.9484
G01 X18.1686 Y49.9409
G01 X18.1157 Y49.9190
G01 X18.0963 Y49.9096
G01 X18.0472 Y49.8824
G01 X18.0279 Y49.8703
G01 X17.9821 Y49.8378
G01 X17.9643 Y49.8236
G01 X17.9225 Y49.7862
G01 X17.9064 Y49.7701
G01 X17.8690 Y49.7283
G01 X17.8548 Y49.7105
G01 X17.8207 Y49.6624
G01 X17.8102 Y49.6454
G01 X17.7830 Y49.5963
G01 X17.7732 Y49.5758
G01 X17.7517 Y49.5240
G01 X17.7442 Y49.5025
G01 X17.7286 Y49.4486
G01 X17.7236 Y49.4264
G01 X17.7142 Y49.3710
G01 X17.7116 Y49.3484
G01 X17.7085 Y49.2924
G01 X17.7085 Y49.2696
G01 X17.7116 Y49.2136
G01 X17.7142 Y49.1910
G01 X17.7244 Y49.1311
G01 X17.7286 Y49.1134
G01 X17.7442 Y49.0595
G01 X17.7517 Y49.0380
G01 X17.7736 Y48.9851
G01 X17.7830 Y48.9657
G01 X17.8102 Y48.9166
G01 X17.8223 Y48.8973
G01 X17.8548 Y48.8515
G01 X17.8690 Y48.8337
G01 X17.9142 Y48.7836
G01 X19.6385 Y47.0592
G01 X19.6385 Y39.9412
G01 X19.5702 Y39.8801
G01 X19.5541 Y39.8640
G01 X19.4868 Y39.7888
G01 X19.4726 Y39.7709
G01 X19.4126 Y39.6863
G01 X19.4021 Y39.6693
G01 X19.3533 Y39.5810
G01 X19.3434 Y39.5605
G01 X19.3048 Y39.4672
G01 X19.2972 Y39.4457
G01 X19.2693 Y39.3487
G01 X19.2642 Y39.3265
G01 X19.2473 Y39.2270
G01 X19.2448 Y39.2044
G01 X19.2388 Y39.0922
G01 X19.2391 Y38.6812
G01 X19.2448 Y38.5804
G01 X19.2473 Y38.5578
G01 X19.2642 Y38.4583
G01 X19.2693 Y38.4361
G01 X19.2972 Y38.3391
G01 X19.3048 Y38.3176
G01 X19.3439 Y38.2232
G01 X19.3533 Y38.2038
G01 X19.4021 Y38.1155
G01 X19.4142 Y38.0962
G01 X19.4726 Y38.0139
G01 X19.4868 Y37.9960
G01 X19.5541 Y37.9208
G01 X19.5702 Y37.9047
G01 X19.6455 Y37.8374
G01 X19.6633 Y37.8232
G01 X19.7479 Y37.7632
G01 X19.7649 Y37.7527
G01 X19.8532 Y37.7039
G01 X19.8737 Y37.6940
G01 X19.9670 Y37.6554
G01 X19.9885 Y37.6478
G01 X20.0855 Y37.6199
G01 X20.1077 Y37.6148
G01 X20.2072 Y37.5979
G01 X20.2298 Y37.5954
G01 X20.3420 Y37.5894
G01 X20.4449 Y37.5948
G01 X22.6865 Y35.3532
G01 X22.6865 Y24.9428
G01 X22.6752 Y24.9315
G01 X19.3936 Y24.9315
G01 X19.3262 Y24.9280
G01 X19.3036 Y24.9254
G01 X19.2438 Y24.9152
G01 X19.2260 Y24.9110
G01 X19.1721 Y24.8954
G01 X19.1506 Y24.8879
G01 X19.0977 Y24.8660
G01 X19.0783 Y24.8566
G01 X19.0292 Y24.8294
G01 X19.0099 Y24.8173
G01 X18.9641 Y24.7848
G01 X18.9463 Y24.7706
G01 X18.8962 Y24.7254
G01 X11.8210 Y17.6503
G01 X11.4103 Y17.6503
G01 X11.3836 Y17.6879
G01 X11.3693 Y17.7057
G01 X11.2946 Y17.7893
G01 X11.2785 Y17.8054
G01 X11.1949 Y17.8801
G01 X11.1771 Y17.8944
G01 X11.0833 Y17.9609
G01 X11.0663 Y17.9714
G01 X10.9682 Y18.0256
G01 X10.9476 Y18.0355
G01 X10.8440 Y18.0784
G01 X10.8225 Y18.0859
G01 X10.7148 Y18.1170
G01 X10.6926 Y18.1221
G01 X10.5820 Y18.1408
G01 X10.5594 Y18.1434
G01 X10.4360 Y18.1500
G01 X10.3126 Y18.1434
G01 X10.2900 Y18.1408
G01 X10.1749 Y18.1212
G01 X10.1572 Y18.1170
G01 X10.0495 Y18.0859
G01 X10.0280 Y18.0784
G01 X9.9233 Y18.0350
G01 X9.9038 Y18.0256
G01 X9.8057 Y17.9714
G01 X9.7864 Y17.9592
G01 X9.6949 Y17.8944
G01 X9.6771 Y17.8801
G01 X9.5935 Y17.8054
G01 X9.5774 Y17.7893
G01 X9.5027 Y17.7057
G01 X9.4884 Y17.6879
G01 X9.4219 Y17.5941
G01 X9.4114 Y17.5771
G01 X9.3572 Y17.4790
G01 X9.3473 Y17.4584
G01 X9.3044 Y17.3548
G01 X9.2969 Y17.3333
G01 X9.2658 Y17.2256
G01 X9.2607 Y17.2034
G01 X9.2420 Y17.0928
G01 X9.2394 Y17.0702
G01 X9.2328 Y16.9468
G01 X9.2394 Y16.8234
G01 X9.2420 Y16.8008
G01 X9.2616 Y16.6857
G01 X9.2658 Y16.6680
G01 X9.2969 Y16.5603
G01 X9.3044 Y16.5388
G01 X9.3478 Y16.4341
G01 X9.3572 Y16.4146
G01 X9.4114 Y16.3165
G01 X9.4236 Y16.2972
G01 X9.4884 Y16.2057
G01 X9.5027 Y16.1879
G01 X9.5774 Y16.1043
G01 X9.5935 Y16.0882
G01 X9.6771 Y16.0135
G01 X9.6949 Y15.9992
G01 X9.7325 Y15.9725
G01 X9.7325 Y10.0754
G01 X4.1251 Y4.4679
G01 X4.0796 Y4.4756
G01 X4.0570 Y4.4782
G01 X3.9450 Y4.4845
G01 X3.9222 Y4.4845
G01 X3.8102 Y4.4782
G01 X3.7876 Y4.4756
G01 X3.6725 Y4.4560
G01 X3.6548 Y4.4518
G01 X3.5471 Y4.4207
G01 X3.5256 Y4.4132
G01 X3.4209 Y4.3698
G01 X3.4014 Y4.3604
G01 X3.3033 Y4.3062
G01 X3.2840 Y4.2940
G01 X3.1925 Y4.2292
G01 X3.1747 Y4.2149
G01 X3.0911 Y4.1402
G01 X3.0750 Y4.1241
G01 X3.0003 Y4.0405
G01 X2.9860 Y4.0227
G01 X2.9195 Y3.9289
G01 X2.9090 Y3.9119
G01 X2.8548 Y3.8138
G01 X2.8449 Y3.7932
G01 X2.8020 Y3.6896
G01 X2.7945 Y3.6681
G01 X2.7634 Y3.5604
G01 X2.7583 Y3.5382
G01 X2.7396 Y3.4276
G01 X2.7370 Y3.4050
G01 X2.7304 Y3.2816
G01 X2.7374 Y3.1583
G00 Z2.5400
G00 X4.1598 Y16.8235
G01 F76.20
G01 Z-0.2000
G01 F76.20
G01 X4.1620 Y16.8008
G01 X4.1807 Y16.6902
G01 X4.1858 Y16.6680
G01 X4.2169 Y16.5603
G01 X4.2244 Y16.5388
G01 X4.2678 Y16.4341
G01 X4.2772 Y16.4146
G01 X4.3314 Y16.3165
G01 X4.3436 Y16.2972
G01 X4.4084 Y16.2057
G01 X4.4227 Y16.1879
G01 X4.4974 Y16.1043
G01 X4.5135 Y16.0882
G01 X4.5971 Y16.0135
G01 X4.6149 Y15.9992
G01 X4.7087 Y15.9327
G01 X4.7257 Y15.9222
G01 X4.8238 Y15.8680
G01 X4.8444 Y15.8581
G01 X4.9480 Y15.8152
G01 X4.9695 Y15.8077
G01 X5.0772 Y15.7766
G01 X5.0994 Y15.7715
G01 X5.2100 Y15.7528
G01 X5.2326 Y15.7502
G01 X5.3560 Y15.7436
G01 X5.4794 Y15.7502
G01 X5.5020 Y15.7528
G01 X5.6126 Y15.7715
G01 X5.6348 Y15.7766
G01 X5.7425 Y15.8077
G01 X5.7640 Y15.8152
G01 X5.8687 Y15.8586
G01 X5.8882 Y15.8680
G01 X5.9863 Y15.9222
G01 X6.0056 Y15.9344
G01 X6.0971 Y15.9992
G01 X6.1149 Y16.0135
G01 X6.1985 Y16.0882
G01 X6.2146 Y16.1043
G01 X6.2893 Y16.1879
G01 X6.3036 Y16.2057
G01 X6.3701 Y16.2995
G01 X6.3806 Y16.3165
G01 X6.4348 Y16.4146
G01 X6.4447 Y16.4352
G01 X6.4876 Y16.5388
G01 X6.4951 Y16.5603
G01 X6.5262 Y16.6680
G01 X6.5313 Y16.6902
G01 X6.5500 Y16.8008
G01 X6.5526 Y16.8234
G01 X6.5592 Y16.9468
G01 X6.5526 Y17.0702
G01 X6.5500 Y17.0928
G01 X6.5313 Y17.2034
G01 X6.5262 Y17.2256
G01 X6.4951 Y17.3333
G01 X6.4876 Y17.3548
G01 X6.4442 Y17.4595
G01 X6.4348 Y17.4790
G01 X6.3806 Y17.5771
G01 X6.3684 Y17.5964
G01 X6.3036 Y17.6879
G01 X6.2893 Y17.7057
G01 X6.2146 Y17.7893
G01 X6.1985 Y17.8054
G01 X6.1149 Y17.8801
G01 X6.0971 Y17.8944
G01 X6.0033 Y17.9609
G01 X5.9863 Y17.9714
G01 X5.8882 Y18.0256
G01 X5.8676 Y18.0355
G01 X5.7640 Y18.0784
G01 X5.7425 Y18.0859
G01 X5.6348 Y18.1170
G01 X5.6126 Y18.1221
G01 X5.5020 Y18.1408
G01 X5.4794 Y18.1434
G01 X5.3560 Y18.1500
G01 X5.2326 Y18.1434
G01 X5.2100 Y18.1408
G01 X5.0994 Y18.1221
G01 X5.0772 Y18.1170
G01 X4.9695 Y18.0859
G01 X4.9480 Y18.0784
G01 X4.8433 Y18.0350
G01 X4.8238 Y18.0256
G01 X4.7257 Y17.9714
G01 X4.7064 Y17.9592
G01 X4.6149 Y17.8944
G01 X4.5971 Y17.8801
G01 X4.5135 Y17.8054
G01 X4.4974 Y17.7893
G01 X4.4227 Y17.7057
G01 X4.4084 Y17.6879
G01 X4.3419 Y17.5941
G01 X4.3314 Y17.5771
G01 X4.2772 Y17.4790
G01 X4.2673 Y17.4584
G01 X4.2244 Y17.3548
G01 X4.2169 Y17.3333
G01 X4.1858 Y17.2256
G01 X4.1807 Y17.2034
G01 X4.1620 Y17.0928
G01 X4.1594 Y17.0702
G01 X4.1528 Y16.9468
G01 X4.1598 Y16.8235
G00 Z2.5400
G00 X6.6998 Y16.8235
G01 F76.20
G01 Z-0.2000
G01 F76.20
G01 X6.7020 Y16.8008
G01 X6.7207 Y16.6902
G01 X6.7258 Y16.6680
G01 X6.7569 Y16.5603
G01 X6.7644 Y16.5388
G01 X6.8078 Y16.4341
G01 X6.8172 Y16.4146
G01 X6.8714 Y16.3165
G01 X6.8836 Y16.2972
G01 X6.9484 Y16.2057
G01 X6.9627 Y16.1879
G01 X7.0374 Y16.1043
G01 X7.0535 Y16.0882
G01 X7.1371 Y16.0135
G01 X7.1549 Y15.9992
G01 X7.2487 Y15.9327
G01 X7.2657 Y15.9222
G01 X7.3638 Y15.8680
G01 X7.3844 Y15.8581
G01 X7.4880 Y15.8152
G01 X7.5095 Y15.8077
G01 X7.6172 Y15.7766
G01 X7.6394 Y15.7715
G01 X7.7500 Y15.7528
G01 X7.7726 Y15.7502
G01 X7.8960 Y15.7436
G01 X8.0194 Y15.7502
G01 X8.0420 Y15.7528
G01 X8.1526 Y15.7715
G01 X8.1748 Y15.7766
G01 X8.2825 Y15.8077
G01 X8.3040 Y15.8152
G01 X8.4087 Y15.8586
G01 X8.4282 Y15.8680
G01 X8.5263 Y15.9222
G01 X8.5456 Y15.9344
G01 X8.6371 Y15.9992
G01 X8.6549 Y16.0135
G01 X8.7385 Y16.0882
G01 X8.7546 Y16.1043
G01 X8.8293 Y16.1879
G01 X8.8436 Y16.2057
G01 X8.9101 Y16.2995
G01 X8.9206 Y16.3165
G01 X8.9748 Y16.4146
G01 X8.9847 Y16.4352
G01 X9.0276 Y16.5388
G01 X9.0351 Y16.5603
G01 X9.0662 Y16.6680
G01 X9.0713 Y16.6902
G01 X9.0900 Y16.8008
G01 X9.0926 Y16.8234
G01 X9.0992 Y16.9468
G01 X9.0926 Y17.0702
G01 X9.0900 Y17.0928
G01 X9.0713 Y17.2034
G01 X9.0662 Y17.2256
G01 X9.0351 Y17.3333
G01 X9.0276 Y17.3548
G01 X8.9842 Y17.4595
G01 X8.9748 Y17.4790
G01 X8.9206 Y17.5771
G01 X8.9084 Y17.5964
G01 X8.8436 Y17.6879
G01 X8.8293 Y17.7057
G01 X8.7546 Y17.7893
G01 X8.7385 Y17.8054
G01 X8.6549 Y17.8801
G01 X8.6371 Y17.8944
G01 X8.5433 Y17.9609
G01 X8.5263 Y17.9714
G01 X8.4282 Y18.0256
G01 X8.4076 Y18.0355
G01 X8.3040 Y18.0784
G01 X8.2825 Y18.0859
G01 X8.1748 Y18.1170
G01 X8.1526 Y18.1221
G01 X8.0420 Y18.1408
G01 X8.0194 Y18.1434
G01 X7.8960 Y18.1500
G01 X7.7726 Y18.1434
G01 X7.7500 Y18.1408
G01 X7.6394 Y18.1221
G01 X7.6172 Y18.1170
G01 X7.5095 Y18.0859
G01 X7.4880 Y18.0784
G01 X7.3833 Y18.0350
G01 X7.3638 Y18.0256
G01 X7.2657 Y17.9714
G01 X7.2464 Y17.9592
G01 X7.1549 Y17.8944
G01 X7.1371 Y17.8801
G01 X7.0535 Y17.8054
G01 X7.0374 Y17.7893
G01 X6.9627 Y17.7057
G01 X6.9484 Y17.6879
G01 X6.8819 Y17.5941
G01 X6.8714 Y17.5771
G01 X6.8172 Y17.4790
G01 X6.8073 Y17.4584
G01 X6.7644 Y17.3548
G01 X6.7569 Y17.3333
G01 X6.7258 Y17.2256
G01 X6.7207 Y17.2034
G01 X6.7020 Y17.0928
G01 X6.6994 Y17.0702
G01 X6.6928 Y16.9468
G01 X6.6998 Y16.8235
G00 Z2.5400
G00 X6.9030 Y26.0183
G01 F76.20
G01 Z-0.2000
G01 F76.20
G01 X6.9052 Y25.9956
G01 X6.9239 Y25.8850
G01 X6.9290 Y25.8628
G01 X6.9601 Y25.7551
G01 X6.9676 Y25.7336
G01 X7.0110 Y25.6289
G01 X7.0204 Y25.6094
G01 X7.0746 Y25.5113
G01 X7.0868 Y25.4920
G01 X7.1516 Y25.4005
G01 X7.1659 Y25.3827
G01 X7.2406 Y25.2991
G01 X7.2567 Y25.2830
G01 X7.3403 Y25.2083
G01 X7.3581 Y25.1940
G01 X7.4519 Y25.1275
G01 X7.4689 Y25.1170
G01 X7.5670 Y25.0628
G01 X7.5876 Y25.0529
G01 X7.6912 Y25.0100
G01 X7.7127 Y25.0025
G01 X7.8204 Y24.9714
G01 X7.8426 Y24.9663
G01 X7.9532 Y24.9476
G01 X7.9758 Y24.9450
G01 X8.0878 Y24.9387
G01 X8.1106 Y24.9387
G01 X8.2226 Y24.9450
G01 X8.2452 Y24.9476
G01 X8.2907 Y24.9553
G01 X11.5874 Y21.6586
G01 X11.6375 Y21.6134
G01 X11.6553 Y21.5992
G01 X11.7034 Y21.5651
G01 X11.7204 Y21.5546
G01 X11.7695 Y21.5274
G01 X11.7900 Y21.5175
G01 X11.8418 Y21.4961
G01 X11.8633 Y21.4886
G01 X11.9172 Y21.4730
G01 X11.9395 Y21.4680
G01 X11.9948 Y21.4586
G01 X12.0174 Y21.4560
G01 X12.0848 Y21.4525
G01 X14.2379 Y21.4525
G01 X14.3053 Y21.4560
G01 X14.3279 Y21.4586
G01 X14.3832 Y21.4680
G01 X14.4054 Y21.4730
G01 X14.4593 Y21.4886
G01 X14.4808 Y21.4961
G01 X14.5338 Y21.5180
G01 X14.5532 Y21.5274
G01 X14.6023 Y21.5546
G01 X14.6216 Y21.5667
G01 X14.6673 Y21.5992
G01 X14.6852 Y21.6134
G01 X14.7353 Y21.6586
G01 X16.2752 Y23.1990
G01 X16.3126 Y23.2408
G01 X16.3268 Y23.2586
G01 X16.3609 Y23.3067
G01 X16.3714 Y23.3237
G01 X16.3986 Y23.3728
G01 X16.4084 Y23.3933
G01 X16.4299 Y23.4451
G01 X16.4374 Y23.4667
G01 X16.4530 Y23.5206
G01 X16.4580 Y23.5428
G01 X16.4674 Y23.5981
G01 X16.4700 Y23.6207
G01 X16.4735 Y23.6881
G01 X16.4735 Y25.1165
G01 X16.5111 Y25.1432
G01 X16.5289 Y25.1575
G01 X16.6125 Y25.2322
G01 X16.6286 Y25.2483
G01 X16.7033 Y25.3319
G01 X16.7176 Y25.3497
G01 X16.7841 Y25.4435
G01 X16.7946 Y25.4605
G01 X16.8488 Y25.5586
G01 X16.8587 Y25.5792
G01 X16.9016 Y25.6828
G01 X16.9091 Y25.7043
G01 X16.9402 Y25.8120
G01 X16.9453 Y25.8342
G01 X16.9640 Y25.9448
G01 X16.9666 Y25.9674
G01 X16.9732 Y26.0908
G01 X16.9666 Y26.2142
G01 X16.9640 Y26.2368
G01 X16.9444 Y26.3519
G01 X16.9402 Y26.3696
G01 X16.9091 Y26.4773
G01 X16.9016 Y26.4988
G01 X16.8582 Y26.6035
G01 X16.8488 Y26.6230
G01 X16.7946 Y26.7211
G01 X16.7824 Y26.7404
G01 X16.7176 Y26.8319
G01 X16.7033 Y26.8497
G01 X16.6286 Y26.9333
G01 X16.6125 Y26.9494
G01 X16.5289 Y27.0241
G01 X16.5111 Y27.0384
G01 X16.4173 Y27.1049
G01 X16.4003 Y27.1154
G01 X16.3022 Y27.1696
G01 X16.2816 Y27.1795
G01 X16.1780 Y27.2224
G01 X16.1565 Y27.2299
G01 X16.0488 Y27.2610
G01 X16.0266 Y27.2661
G01 X15.9160 Y27.2848
G01 X15.8934 Y27.2874
G01 X15.7700 Y27.2940
G01 X15.6466 Y27.2874
G01 X15.6240 Y27.2848
G01 X15.5089 Y27.2652
G01 X15.4912 Y27.2610
G01 X15.3835 Y27.2299
G01 X15.3620 Y27.2224
G01 X15.2573 Y27.1790
G01 X15.2378 Y27.1696
G01 X15.1397 Y27.1154
G01 X15.1204 Y27.1032
G01 X15.0289 Y27.0384
G01 X15.0111 Y27.0241
G01 X14.9275 Y26.9494
G01 X14.9114 Y26.9333
G01 X14.8367 Y26.8497
G01 X14.8224 Y26.8319
G01 X14.7559 Y26.7381
G01 X14.7454 Y26.7211
G01 X14.6912 Y26.6230
G01 X14.6813 Y26.6024
G01 X14.6384 Y26.4988
G01 X14.6309 Y26.4773
G01 X14.5998 Y26.3696
G01 X14.5947 Y26.3474
G01 X14.5760 Y26.2368
G01 X14.5734 Y26.2142
G01 X14.5668 Y26.0908
G01 X14.5734 Y25.9674
G01 X14.5760 Y25.9448
G01 X14.5956 Y25.8297
G01 X14.5998 Y25.8120
G01 X14.6309 Y25.7043
G01 X14.6384 Y25.6828
G01 X14.6818 Y25.5781
G01 X14.6912 Y25.5586
G01 X14.7454 Y25.4605
G01 X14.7576 Y25.4412
G01 X14.8224 Y25.3497
G01 X14.8367 Y25.3319
G01 X14.9114 Y25.2483
G01 X14.9275 Y25.2322
G01 X15.0111 Y25.1575
G01 X15.0289 Y25.1432
G01 X15.0665 Y25.1165
G01 X15.0665 Y23.9795
G01 X14.4443 Y23.3572
G01 X14.4443 Y30.9730
G01 X14.4408 Y31.0404
G01 X14.4382 Y31.0630
G01 X14.4280 Y31.1228
G01 X14.4238 Y31.1406
G01 X14.4082 Y31.1945
G01 X14.4007 Y31.2160
G01 X14.3788 Y31.2689
G01 X14.3694 Y31.2883
G01 X14.3422 Y31.3374
G01 X14.3301 Y31.3567
G01 X14.2976 Y31.4025
G01 X14.2834 Y31.4203
G01 X14.2382 Y31.4704
G01 X11.3427 Y34.3660
G01 X11.3427 Y34.5145
G01 X11.3803 Y34.5412
G01 X11.3981 Y34.5555
G01 X11.4817 Y34.6302
G01 X11.4978 Y34.6463
G01 X11.5725 Y34.7299
G01 X11.5868 Y34.7477
G01 X11.6533 Y34.8415
G01 X11.6638 Y34.8585
G01 X11.7180 Y34.9566
G01 X11.7279 Y34.9772
G01 X11.7708 Y35.0808
G01 X11.7783 Y35.1023
G01 X11.8094 Y35.2100
G01 X11.8145 Y35.2322
G01 X11.8332 Y35.3428
G01 X11.8358 Y35.3654
G01 X11.8424 Y35.4888
G01 X11.8358 Y35.6122
G01 X11.8332 Y35.6348
G01 X11.8136 Y35.7499
G01 X11.8094 Y35.7676
G01 X11.7783 Y35.8753
G01 X11.7708 Y35.8968
G01 X11.7274 Y36.0015
G01 X11.7180 Y36.0210
G01 X11.6638 Y36.1191
G01 X11.6516 Y36.1384
G01 X11.5868 Y36.2299
G01 X11.5725 Y36.2477
G01 X11.4978 Y36.3313
G01 X11.4817 Y36.3474
G01 X11.3981 Y36.4221
G01 X11.3803 Y36.4364
G01 X11.3112 Y36.4854
G01 X13.8294 Y36.4854
G01 X14.6345 Y35.6803
G01 X14.6268 Y35.6348
G01 X14.6242 Y35.6122
G01 X14.6179 Y35.5002
G01 X14.6179 Y35.4774
G01 X14.6242 Y35.3654
G01 X14.6268 Y35.3428
G01 X14.6464 Y35.2277
G01 X14.6506 Y35.2100
G01 X14.6817 Y35.1023
G01 X14.6892 Y35.0808
G01 X14.7326 Y34.9761
G01 X14.7420 Y34.9566
G01 X14.7962 Y34.8585
G01 X14.8084 Y34.8392
G01 X14.8732 Y34.7477
G01 X14.8875 Y34.7299
G01 X14.9622 Y34.6463
G01 X14.9783 Y34.6302
G01 X15.0619 Y34.5555
G01 X15.0797 Y34.5412
G01 X15.1712 Y34.4764
G01 X15.1905 Y34.4642
G01 X15.2886 Y34.4100
G01 X15.3092 Y34.4001
G01 X15.4128 Y34.3572
G01 X15.4343 Y34.3497
G01 X15.5420 Y34.3186
G01 X15.5642 Y34.3135
G01 X15.6748 Y34.2948
G01 X15.6974 Y34.2922
G01 X15.8208 Y34.2856
G01 X15.9442 Y34.2922
G01 X15.9668 Y34.2948
G01 X16.0819 Y34.3144
G01 X16.0996 Y34.3186
G01 X16.2073 Y34.3497
G01 X16.2288 Y34.3572
G01 X16.3335 Y34.4006
G01 X16.3530 Y34.4100
G01 X16.4511 Y34.4642
G01 X16.4704 Y34.4764
G01 X16.5619 Y34.5412
G01 X16.5797 Y34.5555
G01 X16.6633 Y34.6302
G01 X16.6794 Y34.6463
G01 X16.7541 Y34.7299
G01 X16.7684 Y34.7477
G01 X16.8349 Y34.8415
G01 X16.8454 Y34.8585
G01 X16.8996 Y34.9566
G01 X16.9095 Y34.9772
G01 X16.9524 Y35.0808
G01 X16.9599 Y35.1023
G01 X16.9910 Y35.2100
G01 X16.9961 Y35.2322
G01 X17.0148 Y35.3428
G01 X17.0174 Y35.3654
G01 X17.0240 Y35.4888
G01 X17.0174 Y35.6122
G01 X17.0148 Y35.6348
G01 X16.9952 Y35.7499
G01 X16.9910 Y35.7676
G01 X16.9599 Y35.8753
G01 X16.9524 Y35.8968
G01 X16.9090 Y36.0015
G01 X16.8996 Y36.0210
G01 X16.8454 Y36.1191
G01 X16.8332 Y36.1384
G01 X16.7684 Y36.2299
G01 X16.7541 Y36.2477
G01 X16.6794 Y36.3313
G01 X16.6633 Y36.3474
G01 X16.5797 Y36.4221
G01 X16.5619 Y36.4364
G01 X16.4681 Y36.5029
G01 X16.4511 Y36.5134
G01 X16.3530 Y36.5676
G01 X16.3324 Y36.5775
G01 X16.2288 Y36.6204
G01 X16.2073 Y36.6279
G01 X16.0996 Y36.6590
G01 X16.0774 Y36.6641
G01 X15.9668 Y36.6828
G01 X15.9442 Y36.6854
G01 X15.8322 Y36.6917
G01 X15.8094 Y36.6917
G01 X15.6974 Y36.6854
G01 X15.6748 Y36.6828
G01 X15.6293 Y36.6751
G01 X14.6182 Y37.6862
G01 X14.5681 Y37.7314
G01 X14.5503 Y37.7456
G01 X14.5022 Y37.7797
G01 X14.4852 Y37.7902
G01 X14.4361 Y37.8174
G01 X14.4156 Y37.8272
G01 X14.3638 Y37.8487
G01 X14.3423 Y37.8562
G01 X14.2884 Y37.8718
G01 X14.2662 Y37.8768
G01 X14.2108 Y37.8862
G01 X14.1882 Y37.8888
G01 X14.1208 Y37.8923
G01 X9.7992 Y37.8923
G01 X9.7318 Y37.8888
G01 X9.7092 Y37.8862
G01 X9.6538 Y37.8768
G01 X9.6316 Y37.8718
G01 X9.5777 Y37.8562
G01 X9.5562 Y37.8487
G01 X9.5033 Y37.8268
G01 X9.4839 Y37.8174
G01 X9.4348 Y37.7902
G01 X9.4155 Y37.7781
G01 X9.3697 Y37.7456
G01 X9.3519 Y37.7314
G01 X9.3018 Y37.6862
G01 X8.2907 Y36.6751
G01 X8.2452 Y36.6828
G01 X8.2226 Y36.6854
G01 X8.1106 Y36.6917
G01 X8.0878 Y36.6917
G01 X7.9758 Y36.6854
G01 X7.9532 Y36.6828
G01 X7.8381 Y36.6632
G01 X7.8204 Y36.6590
G01 X7.7127 Y36.6279
G01 X7.6912 Y36.6204
G01 X7.5865 Y36.5770
G01 X7.5670 Y36.5676
G01 X7.4689 Y36.5134
G01 X7.4496 Y36.5012
G01 X7.3581 Y36.4364
G01 X7.3403 Y36.4221
G01 X7.2567 Y36.3474
G01 X7.2406 Y36.3313
G01 X7.1659 Y36.2477
G01 X7.1516 Y36.2299
G01 X7.0851 Y36.1361
G01 X7.0746 Y36.1191
G01 X7.0204 Y36.0210
G01 X7.0105 Y36.0004
G01 X6.9676 Y35.8968
G01 X6.9601 Y35.8753
G01 X6.9290 Y35.7676
G01 X6.9239 Y35.7454
G01 X6.9052 Y35.6348
G01 X6.9026 Y35.6122
G01 X6.8963 Y35.5002
G01 X6.8963 Y35.4774
G01 X6.9026 Y35.3654
G01 X6.9052 Y35.3428
G01 X6.9248 Y35.2277
G01 X6.9290 Y35.2100
G01 X6.9601 Y35.1023
G01 X6.9676 Y35.0808
G01 X7.0110 Y34.9761
G01 X7.0204 Y34.9566
G01 X7.0746 Y34.8585
G01 X7.0868 Y34.8392
G01 X7.1516 Y34.7477
G01 X7.1659 Y34.7299
G01 X7.2406 Y34.6463
G01 X7.2567 Y34.6302
G01 X7.3403 Y34.5555
G01 X7.3581 Y34.5412
G01 X7.4496 Y34.4764
G01 X7.4689 Y34.4642
G01 X7.5670 Y34.4100
G01 X7.5876 Y34.4001
G01 X7.6912 Y34.3572
G01 X7.7127 Y34.3497
G01 X7.8204 Y34.3186
G01 X7.8426 Y34.3135
G01 X7.9532 Y34.2948
G01 X7.9758 Y34.2922
G01 X8.0992 Y34.2856
G01 X8.2226 Y34.2922
G01 X8.2452 Y34.2948
G01 X8.3558 Y34.3135
G01 X8.3780 Y34.3186
G01 X8.4857 Y34.3497
G01 X8.5072 Y34.3572
G01 X8.6119 Y34.4006
G01 X8.6314 Y34.4100
G01 X8.7295 Y34.4642
G01 X8.7488 Y34.4764
G01 X8.8403 Y34.5412
G01 X8.8581 Y34.5555
G01 X8.9417 Y34.6302
G01 X8.9578 Y34.6463
G01 X9.0325 Y34.7299
G01 X9.0468 Y34.7477
G01 X9.1133 Y34.8415
G01 X9.1238 Y34.8585
G01 X9.1780 Y34.9566
G01 X9.1879 Y34.9772
G01 X9.2308 Y35.0808
G01 X9.2383 Y35.1023
G01 X9.2694 Y35.2100
G01 X9.2745 Y35.2322
G01 X9.2932 Y35.3428
G01 X9.2958 Y35.3654
G01 X9.3021 Y35.4774
G01 X9.3021 Y35.5002
G01 X9.2958 Y35.6122
G01 X9.2932 Y35.6348
G01 X9.2855 Y35.6803
G01 X9.5115 Y35.9063
G01 X9.5001 Y35.8753
G01 X9.4690 Y35.7676
G01 X9.4639 Y35.7454
G01 X9.4452 Y35.6348
G01 X9.4426 Y35.6122
G01 X9.4360 Y35.4888
G01 X9.4426 Y35.3654
G01 X9.4452 Y35.3428
G01 X9.4639 Y35.2322
G01 X9.4690 Y35.2100
G01 X9.5001 Y35.1023
G01 X9.5076 Y35.0808
G01 X9.5510 Y34.9761
G01 X9.5604 Y34.9566
G01 X9.6146 Y34.8585
G01 X9.6268 Y34.8392
G01 X9.6916 Y34.7477
G01 X9.7059 Y34.7299
G01 X9.7806 Y34.6463
G01 X9.7967 Y34.6302
G01 X9.8803 Y34.5555
G01 X9.8981 Y34.5412
G01 X9.9357 Y34.5145
G01 X9.9357 Y34.0746
G01 X9.9392 Y34.0072
G01 X9.9418 Y33.9845
G01 X9.9520 Y33.9247
G01 X9.9562 Y33.9070
G01 X9.9718 Y33.8531
G01 X9.9793 Y33.8316
G01 X10.0012 Y33.7787
G01 X10.0106 Y33.7592
G01 X10.0378 Y33.7101
G01 X10.0499 Y33.6909
G01 X10.0824 Y33.6451
G01 X10.0966 Y33.6273
G01 X10.1418 Y33.5772
G01 X13.0374 Y30.6816
G01 X13.0374 Y23.3560
G01 X13.0408 Y23.2886
G01 X13.0434 Y23.2660
G01 X13.0528 Y23.2106
G01 X13.0578 Y23.1884
G01 X13.0734 Y23.1345
G01 X13.0809 Y23.1130
G01 X13.1028 Y23.0601
G01 X13.1122 Y23.0407
G01 X13.1394 Y22.9916
G01 X13.1515 Y22.9723
G01 X13.1840 Y22.9265
G01 X13.1982 Y22.9087
G01 X13.2430 Y22.8594
G01 X12.3762 Y22.8594
G01 X10.2217 Y25.0139
G01 X10.2527 Y25.0025
G01 X10.3604 Y24.9714
G01 X10.3826 Y24.9663
G01 X10.4932 Y24.9476
G01 X10.5158 Y24.9450
G01 X10.6392 Y24.9384
G01 X10.7626 Y24.9450
G01 X10.7852 Y24.9476
G01 X10.8958 Y24.9663
G01 X10.9180 Y24.9714
G01 X11.0257 Y25.0025
G01 X11.0472 Y25.0100
G01 X11.1519 Y25.0534
G01 X11.1714 Y25.0628
G01 X11.2695 Y25.1170
G01 X11.2888 Y25.1292
G01 X11.3803 Y25.1940
G01 X11.3981 Y25.2083
G01 X11.4817 Y25.2830
G01 X11.4978 Y25.2991
G01 X11.5725 Y25.3827
G01 X11.5868 Y25.4005
G01 X11.6516 Y25.4920
G01 X11.6638 Y25.5113
G01 X11.7180 Y25.6094
G01 X11.7279 Y25.6300
G01 X11.7708 Y25.7336
G01 X11.7783 Y25.7551
G01 X11.8094 Y25.8628
G01 X11.8145 Y25.8850
G01 X11.8332 Y25.9956
G01 X11.8358 Y26.0182
G01 X11.8424 Y26.1416
G01 X11.8358 Y26.2650
G01 X11.8332 Y26.2876
G01 X11.8136 Y26.4027
G01 X11.8094 Y26.4204
G01 X11.7783 Y26.5281
G01 X11.7708 Y26.5496
G01 X11.7274 Y26.6543
G01 X11.7180 Y26.6738
G01 X11.6638 Y26.7719
G01 X11.6516 Y26.7912
G01 X11.5868 Y26.8827
G01 X11.5725 Y26.9005
G01 X11.4978 Y26.9841
G01 X11.4817 Y27.0002
G01 X11.3981 Y27.0749
G01 X11.3803 Y27.0892
G01 X11.2865 Y27.1557
G01 X11.2695 Y27.1662
G01 X11.1714 Y27.2204
G01 X11.1508 Y27.2303
G01 X11.0472 Y27.2732
G01 X11.0257 Y27.2807
G01 X10.9180 Y27.3118
G01 X10.8958 Y27.3169
G01 X10.7852 Y27.3356
G01 X10.7626 Y27.3382
G01 X10.6392 Y27.3448
G01 X10.5158 Y27.3382
G01 X10.4932 Y27.3356
G01 X10.3781 Y27.3160
G01 X10.3604 Y27.3118
G01 X10.2527 Y27.2807
G01 X10.2312 Y27.2732
G01 X10.1265 Y27.2298
G01 X10.1070 Y27.2204
G01 X10.0089 Y27.1662
G01 X9.9896 Y27.1540
G01 X9.8981 Y27.0892
G01 X9.8803 Y27.0749
G01 X9.7967 Y27.0002
G01 X9.7806 Y26.9841
G01 X9.7059 Y26.9005
G01 X9.6916 Y26.8827
G01 X9.6251 Y26.7889
G01 X9.6146 Y26.7719
G01 X9.5604 Y26.6738
G01 X9.5505 Y26.6532
G01 X9.5076 Y26.5496
G01 X9.5001 Y26.5281
G01 X9.4690 Y26.4204
G01 X9.4639 Y26.3982
G01 X9.4452 Y26.2876
G01 X9.4426 Y26.2650
G01 X9.4360 Y26.1416
G01 X9.4426 Y26.0182
G01 X9.4452 Y25.9956
G01 X9.4648 Y25.8805
G01 X9.4690 Y25.8628
G01 X9.5001 Y25.7551
G01 X9.5115 Y25.7241
G01 X9.2855 Y25.9501
G01 X9.2932 Y25.9956
G01 X9.2958 Y26.0182
G01 X9.3021 Y26.1302
G01 X9.3021 Y26.1530
G01 X9.2958 Y26.2650
G01 X9.2932 Y26.2876
G01 X9.2736 Y26.4027
G01 X9.2694 Y26.4204
G01 X9.2383 Y26.5281
G01 X9.2308 Y26.5496
G01 X9.1874 Y26.6543
G01 X9.1780 Y26.6738
G01 X9.1238 Y26.7719
G01 X9.1116 Y26.7912
G01 X9.0468 Y26.8827
G01 X9.0325 Y26.9005
G01 X8.9578 Y26.9841
G01 X8.9417 Y27.0002
G01 X8.8581 Y27.0749
G01 X8.8403 Y27.0892
G01 X8.7465 Y27.1557
G01 X8.7295 Y27.1662
G01 X8.6314 Y27.2204
G01 X8.6108 Y27.2303
G01 X8.5072 Y27.2732
G01 X8.4857 Y27.2807
G01 X8.3780 Y27.3118
G01 X8.3558 Y27.3169
G01 X8.2452 Y27.3356
G01 X8.2226 Y27.3382
G01 X8.0992 Y27.3448
G01 X7.9758 Y27.3382
G01 X7.9532 Y27.3356
G01 X7.8426 Y27.3169
G01 X7.8204 Y27.3118
G01 X7.7127 Y27.2807
G01 X7.6912 Y27.2732
G01 X7.5865 Y27.2298
G01 X7.5670 Y27.2204
G01 X7.4689 Y27.1662
G01 X7.4496 Y27.1540
G01 X7.3581 Y27.0892
G01 X7.3403 Y27.0749
G01 X7.2567 Y27.0002
G01 X7.2406 Y26.9841
G01 X7.1659 Y26.9005
G01 X7.1516 Y26.8827
G01 X7.0868 Y26.7912
G01 X7.0746 Y26.7719
G01 X7.0204 Y26.6738
G01 X7.0105 Y26.6532
G01 X6.9676 Y26.5496
G01 X6.9601 Y26.5281
G01 X6.9290 Y26.4204
G01 X6.9239 Y26.3982
G01 X6.9052 Y26.2876
G01 X6.9026 Y26.2650
G01 X6.8960 Y26.1416
G01 X6.9030 Y26.0183
G00 Z2.5400
G00 X4.3630 Y26.0183
G01 F76.20
G01 Z-0.2000
G01 F76.20
G01 X4.3652 Y25.9956
G01 X4.3839 Y25.8850
G01 X4.3890 Y25.8628
G01 X4.4201 Y25.7551
G01 X4.4276 Y25.7336
G01 X4.4710 Y25.6289
G01 X4.4804 Y25.6094
G01 X4.5346 Y25.5113
G01 X4.5468 Y25.4920
G01 X4.6116 Y25.4005
G01 X4.6259 Y25.3827
G01 X4.7006 Y25.2991
G01 X4.7167 Y25.2830
G01 X4.8003 Y25.2083
G01 X4.8181 Y25.1940
G01 X4.9119 Y25.1275
G01 X4.9289 Y25.1170
G01 X5.0270 Y25.0628
G01 X5.0476 Y25.0529
G01 X5.1512 Y25.0100
G01 X5.1727 Y25.0025
G01 X5.2804 Y24.9714
G01 X5.3026 Y24.9663
G01 X5.4132 Y24.9476
G01 X5.4358 Y24.9450
G01 X5.5592 Y24.9384
G01 X5.6826 Y24.9450
G01 X5.7052 Y24.9476
G01 X5.8158 Y24.9663
G01 X5.8380 Y24.9714
G01 X5.9457 Y25.0025
G01 X5.9672 Y25.0100
G01 X6.0719 Y25.0534
G01 X6.0914 Y25.0628
G01 X6.1895 Y25.1170
G01 X6.2088 Y25.1292
G01 X6.3003 Y25.1940
G01 X6.3181 Y25.2083
G01 X6.4017 Y25.2830
G01 X6.4178 Y25.2991
G01 X6.4925 Y25.3827
G01 X6.5068 Y25.4005
G01 X6.5733 Y25.4943
G01 X6.5838 Y25.5113
G01 X6.6380 Y25.6094
G01 X6.6479 Y25.6300
G01 X6.6908 Y25.7336
G01 X6.6983 Y25.7551
G01 X6.7294 Y25.8628
G01 X6.7345 Y25.8850
G01 X6.7532 Y25.9956
G01 X6.7558 Y26.0182
G01 X6.7624 Y26.1416
G01 X6.7558 Y26.2650
G01 X6.7532 Y26.2876
G01 X6.7345 Y26.3982
G01 X6.7294 Y26.4204
G01 X6.6983 Y26.5281
G01 X6.6908 Y26.5496
G01 X6.6474 Y26.6543
G01 X6.6380 Y26.6738
G01 X6.5838 Y26.7719
G01 X6.5716 Y26.7912
G01 X6.5068 Y26.8827
G01 X6.4925 Y26.9005
G01 X6.4178 Y26.9841
G01 X6.4017 Y27.0002
G01 X6.3181 Y27.0749
G01 X6.3003 Y27.0892
G01 X6.2065 Y27.1557
G01 X6.1895 Y27.1662
G01 X6.0914 Y27.2204
G01 X6.0708 Y27.2303
G01 X5.9672 Y27.2732
G01 X5.9457 Y27.2807
G01 X5.8380 Y27.3118
G01 X5.8158 Y27.3169
G01 X5.7052 Y27.3356
G01 X5.6826 Y27.3382
G01 X5.5592 Y27.3448
G01 X5.4358 Y27.3382
G01 X5.4132 Y27.3356
G01 X5.3026 Y27.3169
G01 X5.2804 Y27.3118
G01 X5.1727 Y27.2807
G01 X5.1512 Y27.2732
G01 X5.0465 Y27.2298
G01 X5.0270 Y27.2204
G01 X4.9289 Y27.1662
G01 X4.9096 Y27.1540
G01 X4.8181 Y27.0892
G01 X4.8003 Y27.0749
G01 X4.7167 Y27.0002
G01 X4.7006 Y26.9841
G01 X4.6259 Y26.9005
G01 X4.6116 Y26.8827
G01 X4.5451 Y26.7889
G01 X4.5346 Y26.7719
G01 X4.4804 Y26.6738
G01 X4.4705 Y26.6532
G01 X4.4276 Y26.5496
G01 X4.4201 Y26.5281
G01 X4.3890 Y26.4204
G01 X4.3839 Y26.3982
G01 X4.3652 Y26.2876
G01 X4.3626 Y26.2650
G01 X4.3560 Y26.1416
G01 X4.3630 Y26.0183
G00 Z2.5400
G00 X4.3630 Y35.3655
G01 F76.20
G01 Z-0.2000
G01 F76.20
G01 X4.3652 Y35.3428
G01 X4.3848 Y35.2277
G01 X4.3890 Y35.2100
G01 X4.4201 Y35.1023
G01 X4.4276 Y35.0808
G01 X4.4710 Y34.9761
G01 X4.4804 Y34.9566
G01 X4.5346 Y34.8585
G01 X4.5468 Y34.8392
G01 X4.6116 Y34.7477
G01 X4.6259 Y34.7299
G01 X4.7006 Y34.6463
G01 X4.7167 Y34.6302
G01 X4.8003 Y34.5555
G01 X4.8181 Y34.5412
G01 X4.9096 Y34.4764
G01 X4.9289 Y34.4642
G01 X5.0270 Y34.4100
G01 X5.0476 Y34.4001
G01 X5.1512 Y34.3572
G01 X5.1727 Y34.3497
G01 X5.2804 Y34.3186
G01 X5.3026 Y34.3135
G01 X5.4132 Y34.2948
G01 X5.4358 Y34.2922
G01 X5.5592 Y34.2856
G01 X5.6826 Y34.2922
G01 X5.7052 Y34.2948
G01 X5.8203 Y34.3144
G01 X5.8380 Y34.3186
G01 X5.9457 Y34.3497
G01 X5.9672 Y34.3572
G01 X6.0719 Y34.4006
G01 X6.0914 Y34.4100
G01 X6.1895 Y34.4642
G01 X6.2088 Y34.4764
G01 X6.3003 Y34.5412
G01 X6.3181 Y34.5555
G01 X6.4017 Y34.6302
G01 X6.4178 Y34.6463
G01 X6.4925 Y34.7299
G01 X6.5068 Y34.7477
G01 X6.5716 Y34.8392
G01 X6.5838 Y34.8585
G01 X6.6380 Y34.9566
G01 X6.6479 Y34.9772
G01 X6.6908 Y35.0808
G01 X6.6983 Y35.1023
G01 X6.7294 Y35.2100
G01 X6.7345 Y35.2322
G01 X6.7532 Y35.3428
G01 X6.7558 Y35.3654
G01 X6.7624 Y35.4888
G01 X6.7558 Y35.6122
G01 X6.7532 Y35.6348
G01 X6.7336 Y35.7499
G01 X6.7294 Y35.7676
G01 X6.6983 Y35.8753
G01 X6.6908 Y35.8968
G01 X6.6474 Y36.0015
G01 X6.6380 Y36.0210
G01 X6.5838 Y36.1191
G01 X6.5716 Y36.1384
G01 X6.5068 Y36.2299
G01 X6.4925 Y36.2477
G01 X6.4178 Y36.3313
G01 X6.4017 Y36.3474
G01 X6.3181 Y36.4221
G01 X6.3003 Y36.4364
G01 X6.2627 Y36.4631
G01 X6.2627 Y36.6116
G01 X8.7036 Y39.0525
G01 X11.5410 Y39.0529
G01 X11.5970 Y39.0560
G01 X11.6196 Y39.0586
G01 X11.6795 Y39.0688
G01 X11.6972 Y39.0730
G01 X11.7511 Y39.0886
G01 X11.7726 Y39.0961
G01 X11.8255 Y39.1180
G01 X11.8449 Y39.1274
G01 X11.8940 Y39.1546
G01 X11.9133 Y39.1667
G01 X11.9591 Y39.1992
G01 X11.9769 Y39.2134
G01 X12.0270 Y39.2586
G01 X16.6994 Y43.9310
G01 X16.7446 Y43.9811
G01 X16.7588 Y43.9989
G01 X16.7913 Y44.0447
G01 X16.8034 Y44.0639
G01 X16.8305 Y44.1130
G01 X16.8404 Y44.1336
G01 X16.8619 Y44.1854
G01 X16.8694 Y44.2069
G01 X16.8850 Y44.2608
G01 X16.8900 Y44.2830
G01 X16.8994 Y44.3383
G01 X16.9020 Y44.3610
G01 X16.9054 Y44.4284
G01 X16.9054 Y53.2922
G01 X16.9326 Y53.2539
G01 X16.9468 Y53.2360
G01 X17.0141 Y53.1608
G01 X17.0302 Y53.1447
G01 X17.0985 Y53.0836
G01 X17.0985 Y52.0326
G01 X17.1020 Y51.9652
G01 X17.1046 Y51.9425
G01 X17.1148 Y51.8827
G01 X17.1190 Y51.8650
G01 X17.1346 Y51.8111
G01 X17.1421 Y51.7896
G01 X17.1640 Y51.7367
G01 X17.1734 Y51.7172
G01 X17.2006 Y51.6681
G01 X17.2127 Y51.6488
G01 X17.2452 Y51.6031
G01 X17.2594 Y51.5853
G01 X17.3046 Y51.5352
G01 X23.8662 Y44.9736
G01 X23.9163 Y44.9284
G01 X23.9341 Y44.9142
G01 X23.9822 Y44.8801
G01 X23.9991 Y44.8696
G01 X24.0482 Y44.8424
G01 X24.0688 Y44.8326
G01 X24.1206 Y44.8111
G01 X24.1421 Y44.8036
G01 X24.1960 Y44.7880
G01 X24.2182 Y44.7830
G01 X24.2735 Y44.7736
G01 X24.2962 Y44.7710
G01 X24.3636 Y44.7675
G01 X40.6480 Y44.7679
G01 X40.7040 Y44.7710
G01 X40.7266 Y44.7736
G01 X40.7864 Y44.7838
G01 X40.8042 Y44.7880
G01 X40.8581 Y44.8036
G01 X40.8796 Y44.8111
G01 X40.9325 Y44.8330
G01 X40.9519 Y44.8424
G01 X41.0010 Y44.8696
G01 X41.0203 Y44.8817
G01 X41.0661 Y44.9142
G01 X41.0839 Y44.9284
G01 X41.1257 Y44.9658
G01 X41.1418 Y44.9819
G01 X41.1792 Y45.0237
G01 X41.1934 Y45.0415
G01 X41.2275 Y45.0896
G01 X41.2380 Y45.1066
G01 X41.2652 Y45.1557
G01 X41.2750 Y45.1762
G01 X41.2965 Y45.2280
G01 X41.3040 Y45.2495
G01 X41.3196 Y45.3034
G01 X41.3246 Y45.3256
G01 X41.3340 Y45.3810
G01 X41.3366 Y45.4036
G01 X41.3401 Y45.4710
G01 X41.3366 Y45.5384
G01 X41.3340 Y45.5610
G01 X41.3238 Y45.6209
G01 X41.3196 Y45.6386
G01 X41.3040 Y45.6925
G01 X41.2965 Y45.7140
G01 X41.2746 Y45.7669
G01 X41.2652 Y45.7863
G01 X41.2380 Y45.8354
G01 X41.2259 Y45.8547
G01 X41.1934 Y45.9005
G01 X41.1792 Y45.9183
G01 X41.1418 Y45.9601
G01 X41.1257 Y45.9762
G01 X41.0839 Y46.0136
G01 X41.0661 Y46.0278
G01 X41.0180 Y46.0619
G01 X41.0010 Y46.0724
G01 X40.9519 Y46.0996
G01 X40.9314 Y46.1094
G01 X40.8796 Y46.1309
G01 X40.8581 Y46.1384
G01 X40.8042 Y46.1540
G01 X40.7820 Y46.1590
G01 X40.7266 Y46.1684
G01 X40.7040 Y46.1710
G01 X40.6480 Y46.1741
G01 X24.6550 Y46.1745
G01 X18.5055 Y52.3240
G01 X18.5055 Y53.0836
G01 X18.5738 Y53.1447
G01 X18.5899 Y53.1608
G01 X18.6572 Y53.2360
G01 X18.6714 Y53.2539
G01 X18.7314 Y53.3385
G01 X18.7419 Y53.3555
G01 X18.7907 Y53.4438
G01 X18.8006 Y53.4643
G01 X18.8392 Y53.5576
G01 X18.8468 Y53.5791
G01 X18.8747 Y53.6761
G01 X18.8798 Y53.6983
G01 X18.8967 Y53.7978
G01 X18.8992 Y53.8204
G01 X18.9052 Y53.9326
G01 X18.9052 Y54.3322
G01 X18.8992 Y54.4444
G01 X18.8967 Y54.4670
G01 X18.8789 Y54.5710
G01 X18.8747 Y54.5887
G01 X18.8468 Y54.6857
G01 X18.8392 Y54.7072
G01 X18.8001 Y54.8016
G01 X18.7907 Y54.8210
G01 X18.7419 Y54.9093
G01 X18.7298 Y54.9286
G01 X18.6785 Y55.0009
G01 X19.2443 Y54.4351
G01 X19.2388 Y54.3322
G01 X19.2388 Y53.9326
G01 X19.2448 Y53.8204
G01 X19.2473 Y53.7978
G01 X19.2651 Y53.6938
G01 X19.2693 Y53.6761
G01 X19.2972 Y53.5791
G01 X19.3048 Y53.5576
G01 X19.3439 Y53.4632
G01 X19.3533 Y53.4438
G01 X19.4021 Y53.3555
G01 X19.4142 Y53.3362
G01 X19.4726 Y53.2539
G01 X19.4868 Y53.2360
G01 X19.5541 Y53.1608
G01 X19.5702 Y53.1447
G01 X19.6455 Y53.0774
G01 X19.6633 Y53.0632
G01 X19.7479 Y53.0032
G01 X19.7649 Y52.9927
G01 X19.8532 Y52.9439
G01 X19.8737 Y52.9340
G01 X19.9670 Y52.8954
G01 X19.9885 Y52.8878
G01 X20.0855 Y52.8599
G01 X20.1077 Y52.8548
G01 X20.2072 Y52.8379
G01 X20.2298 Y52.8354
G01 X20.3420 Y52.8294
G01 X20.4542 Y52.8354
G01 X20.4768 Y52.8379
G01 X20.5808 Y52.8556
G01 X20.5985 Y52.8599
G01 X20.6955 Y52.8878
G01 X20.7170 Y52.8954
G01 X20.8113 Y52.9344
G01 X20.8308 Y52.9439
G01 X20.9191 Y52.9927
G01 X20.9384 Y53.0048
G01 X21.0207 Y53.0632
G01 X21.0385 Y53.0774
G01 X21.1138 Y53.1447
G01 X21.1299 Y53.1608
G01 X21.1972 Y53.2360
G01 X21.2114 Y53.2539
G01 X21.2714 Y53.3385
G01 X21.2819 Y53.3555
G01 X21.3307 Y53.4438
G01 X21.3406 Y53.4643
G01 X21.3792 Y53.5576
G01 X21.3868 Y53.5791
G01 X21.4147 Y53.6761
G01 X21.4198 Y53.6983
G01 X21.4367 Y53.7978
G01 X21.4392 Y53.8204
G01 X21.4452 Y53.9326
G01 X21.4452 Y54.3322
G01 X21.4392 Y54.4444
G01 X21.4367 Y54.4670
G01 X21.4189 Y54.5710
G01 X21.4147 Y54.5887
G01 X21.3868 Y54.6857
G01 X21.3792 Y54.7072
G01 X21.3401 Y54.8016
G01 X21.3307 Y54.8210
G01 X21.2819 Y54.9093
G01 X21.2698 Y54.9286
G01 X21.2114 Y55.0109
G01 X21.1972 Y55.0288
G01 X21.1299 Y55.1040
G01 X21.1138 Y55.1201
G01 X21.0385 Y55.1874
G01 X21.0207 Y55.2016
G01 X20.9361 Y55.2616
G01 X20.9191 Y55.2721
G01 X20.8308 Y55.3209
G01 X20.8103 Y55.3308
G01 X20.7170 Y55.3694
G01 X20.6955 Y55.3770
G01 X20.5985 Y55.4049
G01 X20.5763 Y55.4100
G01 X20.4768 Y55.4269
G01 X20.4542 Y55.4294
G01 X20.3420 Y55.4354
G01 X20.2391 Y55.4300
G01 X18.9394 Y56.7296
G01 X18.8893 Y56.7748
G01 X18.8715 Y56.7891
G01 X18.8234 Y56.8231
G01 X18.8064 Y56.8336
G01 X18.7573 Y56.8608
G01 X18.7368 Y56.8707
G01 X18.6850 Y56.8921
G01 X18.6635 Y56.8997
G01 X18.6096 Y56.9152
G01 X18.5874 Y56.9203
G01 X18.5320 Y56.9297
G01 X18.5094 Y56.9322
G01 X18.4420 Y56.9357
G01 X17.1078 Y56.9357
G01 X17.0404 Y56.9322
G01 X17.0178 Y56.9297
G01 X16.9580 Y56.9194
G01 X16.9403 Y56.9152
G01 X16.8863 Y56.8997
G01 X16.8648 Y56.8921
G01 X16.8119 Y56.8702
G01 X16.7925 Y56.8608
G01 X16.7434 Y56.8336
G01 X16.7241 Y56.8215
G01 X16.6783 Y56.7891
G01 X16.6605 Y56.7748
G01 X16.6104 Y56.7296
G01 X15.7046 Y55.8238
G01 X15.6594 Y55.7737
G01 X15.6452 Y55.7559
G01 X15.6111 Y55.7078
G01 X15.6006 Y55.6908
G01 X15.5734 Y55.6417
G01 X15.5635 Y55.6212
G01 X15.5421 Y55.5694
G01 X15.5346 Y55.5479
G01 X15.5190 Y55.4940
G01 X15.5140 Y55.4717
G01 X15.5046 Y55.4164
G01 X15.5020 Y55.3938
G01 X15.4985 Y55.3264
G01 X15.4985 Y44.7198
G01 X13.3550 Y42.5762
G01 X13.3842 Y42.6776
G01 X13.3893 Y42.6998
G01 X13.4080 Y42.8104
G01 X13.4106 Y42.8330
G01 X13.4172 Y42.9564
G01 X13.4106 Y43.0798
G01 X13.4080 Y43.1024
G01 X13.3893 Y43.2130
G01 X13.3842 Y43.2352
G01 X13.3531 Y43.3429
G01 X13.3456 Y43.3644
G01 X13.3022 Y43.4691
G01 X13.2928 Y43.4886
G01 X13.2386 Y43.5867
G01 X13.2264 Y43.6060
G01 X13.1616 Y43.6975
G01 X13.1473 Y43.7153
G01 X13.0726 Y43.7989
G01 X13.0565 Y43.8150
G01 X12.9729 Y43.8897
G01 X12.9551 Y43.9040
G01 X12.8613 Y43.9705
G01 X12.8443 Y43.9810
G01 X12.7462 Y44.0352
G01 X12.7256 Y44.0451
G01 X12.6220 Y44.0880
G01 X12.6005 Y44.0955
G01 X12.4928 Y44.1266
G01 X12.4706 Y44.1317
G01 X12.3600 Y44.1504
G01 X12.3374 Y44.1530
G01 X12.2140 Y44.1596
G01 X12.0906 Y44.1530
G01 X12.0680 Y44.1504
G01 X11.9574 Y44.1317
G01 X11.9352 Y44.1266
G01 X11.8275 Y44.0955
G01 X11.8060 Y44.0880
G01 X11.7024 Y44.0451
G01 X11.6818 Y44.0352
G01 X11.5837 Y43.9810
G01 X11.5644 Y43.9688
G01 X11.4729 Y43.9040
G01 X11.4551 Y43.8897
G01 X11.3715 Y43.8150
G01 X11.3554 Y43.7989
G01 X11.2807 Y43.7153
G01 X11.2664 Y43.6975
G01 X11.1999 Y43.6037
G01 X11.1894 Y43.5867
G01 X11.1352 Y43.4886
G01 X11.1253 Y43.4680
G01 X11.0824 Y43.3644
G01 X11.0749 Y43.3429
G01 X11.0438 Y43.2352
G01 X11.0387 Y43.2130
G01 X11.0200 Y43.1024
G01 X11.0174 Y43.0798
G01 X11.0111 Y42.9678
G01 X11.0111 Y42.9450
G01 X11.0174 Y42.8330
G01 X11.0200 Y42.8104
G01 X11.0396 Y42.6953
G01 X11.0438 Y42.6776
G01 X11.0749 Y42.5699
G01 X11.0824 Y42.5484
G01 X11.1258 Y42.4437
G01 X11.1352 Y42.4242
G01 X11.1894 Y42.3261
G01 X11.2016 Y42.3068
G01 X11.2664 Y42.2153
G01 X11.2807 Y42.1975
G01 X11.3554 Y42.1139
G01 X11.3715 Y42.0978
G01 X11.4551 Y42.0231
G01 X11.4729 Y42.0088
G01 X11.5667 Y41.9423
G01 X11.5837 Y41.9318
G01 X11.6818 Y41.8776
G01 X11.7024 Y41.8677
G01 X11.8060 Y41.8248
G01 X11.8275 Y41.8173
G01 X11.9352 Y41.7862
G01 X11.9574 Y41.7811
G01 X12.0680 Y41.7624
G01 X12.0906 Y41.7598
G01 X12.2140 Y41.7532
G01 X12.3374 Y41.7598
G01 X12.3600 Y41.7624
G01 X12.4751 Y41.7820
G01 X12.4928 Y41.7862
G01 X12.5942 Y41.8154
G01 X11.2382 Y40.4595
G01 X8.4008 Y40.4591
G01 X8.3448 Y40.4560
G01 X8.3221 Y40.4534
G01 X8.2623 Y40.4432
G01 X8.2446 Y40.4390
G01 X8.1907 Y40.4234
G01 X8.1692 Y40.4159
G01 X8.1163 Y40.3940
G01 X8.0968 Y40.3846
G01 X8.0477 Y40.3574
G01 X8.0285 Y40.3453
G01 X7.9827 Y40.3128
G01 X7.9649 Y40.2986
G01 X7.9148 Y40.2534
G01 X5.0618 Y37.4004
G01 X5.0166 Y37.3503
G01 X5.0024 Y37.3325
G01 X4.9683 Y37.2844
G01 X4.9578 Y37.2675
G01 X4.9306 Y37.2184
G01 X4.9208 Y37.1978
G01 X4.8993 Y37.1460
G01 X4.8918 Y37.1245
G01 X4.8762 Y37.0706
G01 X4.8712 Y37.0484
G01 X4.8618 Y36.9931
G01 X4.8592 Y36.9704
G01 X4.8557 Y36.9030
G01 X4.8557 Y36.4631
G01 X4.8181 Y36.4364
G01 X4.8003 Y36.4221
G01 X4.7167 Y36.3474
G01 X4.7006 Y36.3313
G01 X4.6259 Y36.2477
G01 X4.6116 Y36.2299
G01 X4.5451 Y36.1361
G01 X4.5346 Y36.1191
G01 X4.4804 Y36.0210
G01 X4.4705 Y36.0004
G01 X4.4276 Y35.8968
G01 X4.4201 Y35.8753
G01 X4.3890 Y35.7676
G01 X4.3839 Y35.7454
G01 X4.3652 Y35.6348
G01 X4.3626 Y35.6122
G01 X4.3560 Y35.4888
G01 X4.3630 Y35.3655
G00 Z2.5400
G00 X5.4723 Y44.2069
G01 F76.20
G01 Z-0.2000
G01 F76.20
G01 X5.4519 Y44.1958
G01 X5.4329 Y44.1824
G01 X5.4155 Y44.1669
G01 X5.4000 Y44.1495
G01 X5.3866 Y44.1305
G01 X5.3755 Y44.1101
G01 X5.3671 Y44.0893
G01 X5.3609 Y44.0677
G01 X5.3572 Y44.0456
G01 X5.3560 Y44.0232
G01 X5.3560 Y42.2960
G01 X5.3572 Y42.2736
G01 X5.3609 Y42.2515
G01 X5.3671 Y42.2299
G01 X5.3755 Y42.2091
G01 X5.3866 Y42.1887
G01 X5.4000 Y42.1697
G01 X5.4155 Y42.1523
G01 X5.4329 Y42.1368
G01 X5.4519 Y42.1234
G01 X5.4723 Y42.1123
G01 X5.4931 Y42.1039
G01 X5.5147 Y42.0977
G01 X5.5368 Y42.0940
G01 X5.5592 Y42.0928
G01 X7.5912 Y42.0928
G01 X7.6136 Y42.0940
G01 X7.6357 Y42.0977
G01 X7.6573 Y42.1039
G01 X7.6781 Y42.1123
G01 X7.6985 Y42.1234
G01 X7.7175 Y42.1368
G01 X7.7349 Y42.1523
G01 X7.7504 Y42.1697
G01 X7.7638 Y42.1887
G01 X7.7749 Y42.2091
G01 X7.7833 Y42.2299
G01 X7.7895 Y42.2515
G01 X7.7932 Y42.2736
G01 X7.7944 Y42.2960
G01 X7.7944 Y44.0232
G01 X7.7932 Y44.0456
G01 X7.7895 Y44.0677
G01 X7.7833 Y44.0893
G01 X7.7749 Y44.1101
G01 X7.7638 Y44.1305
G01 X7.7504 Y44.1495
G01 X7.7349 Y44.1669
G01 X7.7175 Y44.1824
G01 X7.6985 Y44.1958
G01 X7.6781 Y44.2069
G01 X7.6573 Y44.2153
G01 X7.6357 Y44.2215
G01 X7.6136 Y44.2252
G01 X7.5912 Y44.2264
G01 X5.5592 Y44.2264
G01 X5.5368 Y44.2252
G01 X5.5147 Y44.2215
G01 X5.4931 Y44.2153
G01 X5.4723 Y44.2069
G00 Z2.5400
G00 X5.3621 Y45.5915
G01 F76.20
G01 Z-0.2000
G01 F76.20
G01 X5.3643 Y45.5689
G01 X5.3813 Y45.4689
G01 X5.3856 Y45.4512
G01 X5.4124 Y45.3581
G01 X5.4199 Y45.3366
G01 X5.4574 Y45.2460
G01 X5.4669 Y45.2266
G01 X5.5137 Y45.1418
G01 X5.5258 Y45.1226
G01 X5.5819 Y45.0436
G01 X5.5961 Y45.0258
G01 X5.6606 Y44.9535
G01 X5.6767 Y44.9374
G01 X5.7490 Y44.8729
G01 X5.7668 Y44.8587
G01 X5.8481 Y44.8010
G01 X5.8650 Y44.7905
G01 X5.9498 Y44.7437
G01 X5.9703 Y44.7338
G01 X6.0598 Y44.6967
G01 X6.0813 Y44.6892
G01 X6.1744 Y44.6624
G01 X6.1966 Y44.6573
G01 X6.2921 Y44.6411
G01 X6.3147 Y44.6385
G01 X6.4228 Y44.6328
G01 X6.7276 Y44.6328
G01 X6.8357 Y44.6385
G01 X6.8583 Y44.6411
G01 X6.9538 Y44.6573
G01 X6.9760 Y44.6624
G01 X7.0691 Y44.6892
G01 X7.0906 Y44.6967
G01 X7.1812 Y44.7342
G01 X7.2006 Y44.7437
G01 X7.2854 Y44.7905
G01 X7.3046 Y44.8026
G01 X7.3836 Y44.8587
G01 X7.4014 Y44.8729
G01 X7.4737 Y44.9374
G01 X7.4898 Y44.9535
G01 X7.5543 Y45.0258
G01 X7.5685 Y45.0436
G01 X7.6262 Y45.1249
G01 X7.6367 Y45.1418
G01 X7.6835 Y45.2266
G01 X7.6934 Y45.2471
G01 X7.7305 Y45.3366
G01 X7.7380 Y45.3581
G01 X7.7648 Y45.4512
G01 X7.7699 Y45.4734
G01 X7.7861 Y45.5689
G01 X7.7887 Y45.5915
G01 X7.7944 Y45.6996
G01 X7.7887 Y45.8077
G01 X7.7861 Y45.8303
G01 X7.7691 Y45.9303
G01 X7.7648 Y45.9480
G01 X7.7380 Y46.0411
G01 X7.7305 Y46.0626
G01 X7.6930 Y46.1532
G01 X7.6835 Y46.1726
G01 X7.6367 Y46.2574
G01 X7.6246 Y46.2766
G01 X7.5685 Y46.3556
G01 X7.5543 Y46.3734
G01 X7.4898 Y46.4457
G01 X7.4737 Y46.4618
G01 X7.4014 Y46.5263
G01 X7.3836 Y46.5405
G01 X7.3023 Y46.5982
G01 X7.2854 Y46.6087
G01 X7.2006 Y46.6555
G01 X7.1801 Y46.6654
G01 X7.0906 Y46.7025
G01 X7.0691 Y46.7100
G01 X6.9760 Y46.7368
G01 X6.9538 Y46.7419
G01 X6.8583 Y46.7581
G01 X6.8357 Y46.7607
G01 X6.7276 Y46.7664
G01 X6.4228 Y46.7664
G01 X6.3147 Y46.7607
G01 X6.2921 Y46.7581
G01 X6.1966 Y46.7419
G01 X6.1744 Y46.7368
G01 X6.0813 Y46.7100
G01 X6.0598 Y46.7025
G01 X5.9692 Y46.6650
G01 X5.9498 Y46.6555
G01 X5.8650 Y46.6087
G01 X5.8458 Y46.5966
G01 X5.7668 Y46.5405
G01 X5.7490 Y46.5263
G01 X5.6767 Y46.4618
G01 X5.6606 Y46.4457
G01 X5.5961 Y46.3734
G01 X5.5819 Y46.3556
G01 X5.5242 Y46.2743
G01 X5.5137 Y46.2574
G01 X5.4669 Y46.1726
G01 X5.4570 Y46.1521
G01 X5.4199 Y46.0626
G01 X5.4124 Y46.0411
G01 X5.3856 Y45.9480
G01 X5.3805 Y45.9258
G01 X5.3643 Y45.8303
G01 X5.3617 Y45.8077
G01 X5.3560 Y45.6996
G01 X5.3621 Y45.5915
G00 Z2.5400
G00 X5.3621 Y48.1315
G01 F76.20
G01 Z-0.2000
G01 F76.20
G01 X5.3643 Y48.1089
G01 X5.3813 Y48.0089
G01 X5.3856 Y47.9912
G01 X5.4124 Y47.8981
G01 X5.4199 Y47.8766
G01 X5.4574 Y47.7860
G01 X5.4669 Y47.7666
G01 X5.5137 Y47.6818
G01 X5.5258 Y47.6626
G01 X5.5819 Y47.5836
G01 X5.5961 Y47.5658
G01 X5.6606 Y47.4935
G01 X5.6767 Y47.4774
G01 X5.7490 Y47.4129
G01 X5.7668 Y47.3987
G01 X5.8481 Y47.3410
G01 X5.8650 Y47.3305
G01 X5.9498 Y47.2837
G01 X5.9703 Y47.2738
G01 X6.0598 Y47.2367
G01 X6.0813 Y47.2292
G01 X6.1744 Y47.2024
G01 X6.1966 Y47.1973
G01 X6.2921 Y47.1811
G01 X6.3147 Y47.1785
G01 X6.4228 Y47.1728
G01 X6.7276 Y47.1728
G01 X6.8357 Y47.1785
G01 X6.8583 Y47.1811
G01 X6.9538 Y47.1973
G01 X6.9760 Y47.2024
G01 X7.0691 Y47.2292
G01 X7.0906 Y47.2367
G01 X7.1812 Y47.2742
G01 X7.2006 Y47.2837
G01 X7.2854 Y47.3305
G01 X7.3046 Y47.3426
G01 X7.3836 Y47.3987
G01 X7.4014 Y47.4129
G01 X7.4737 Y47.4774
G01 X7.4898 Y47.4935
G01 X7.5543 Y47.5658
G01 X7.5685 Y47.5836
G01 X7.6262 Y47.6649
G01 X7.6367 Y47.6818
G01 X7.6835 Y47.7666
G01 X7.6934 Y47.7871
G01 X7.7305 Y47.8766
G01 X7.7380 Y47.8981
G01 X7.7648 Y47.9912
G01 X7.7699 Y48.0134
G01 X7.7861 Y48.1089
G01 X7.7887 Y48.1315
G01 X7.7944 Y48.2396
G01 X7.7887 Y48.3477
G01 X7.7861 Y48.3703
G01 X7.7691 Y48.4703
G01 X7.7648 Y48.4880
G01 X7.7380 Y48.5811
G01 X7.7305 Y48.6026
G01 X7.6930 Y48.6932
G01 X7.6835 Y48.7126
G01 X7.6367 Y48.7974
G01 X7.6246 Y48.8166
G01 X7.5685 Y48.8956
G01 X7.5543 Y48.9134
G01 X7.4898 Y48.9857
G01 X7.4737 Y49.0018
G01 X7.4014 Y49.0663
G01 X7.3836 Y49.0805
G01 X7.3023 Y49.1382
G01 X7.2854 Y49.1487
G01 X7.2006 Y49.1955
G01 X7.1801 Y49.2054
G01 X7.0906 Y49.2425
G01 X7.0691 Y49.2500
G01 X6.9760 Y49.2768
G01 X6.9538 Y49.2819
G01 X6.8583 Y49.2981
G01 X6.8357 Y49.3007
G01 X6.7276 Y49.3064
G01 X6.4228 Y49.3064
G01 X6.3147 Y49.3007
G01 X6.2921 Y49.2981
G01 X6.1966 Y49.2819
G01 X6.1744 Y49.2768
G01 X6.0813 Y49.2500
G01 X6.0598 Y49.2425
G01 X5.9692 Y49.2050
G01 X5.9498 Y49.1955
G01 X5.8650 Y49.1487
G01 X5.8458 Y49.1366
G01 X5.7668 Y49.0805
G01 X5.7490 Y49.0663
G01 X5.6767 Y49.0018
G01 X5.6606 Y48.9857
G01 X5.5961 Y48.9134
G01 X5.5819 Y48.8956
G01 X5.5242 Y48.8143
G01 X5.5137 Y48.7974
G01 X5.4669 Y48.7126
G01 X5.4570 Y48.6921
G01 X5.4199 Y48.6026
G01 X5.4124 Y48.5811
G01 X5.3856 Y48.4880
G01 X5.3805 Y48.4658
G01 X5.3643 Y48.3703
G01 X5.3617 Y48.3477
G01 X5.3560 Y48.2396
G01 X5.3621 Y48.1315
G00 Z2.5400
G00 X5.3621 Y50.6715
G01 F76.20
G01 Z-0.2000
G01 F76.20
G01 X5.3643 Y50.6489
G01 X5.3813 Y50.5489
G01 X5.3856 Y50.5312
G01 X5.4124 Y50.4381
G01 X5.4199 Y50.4166
G01 X5.4574 Y50.3260
G01 X5.4669 Y50.3066
G01 X5.5137 Y50.2218
G01 X5.5258 Y50.2026
G01 X5.5819 Y50.1236
G01 X5.5961 Y50.1058
G01 X5.6606 Y50.0335
G01 X5.6767 Y50.0174
G01 X5.7490 Y49.9529
G01 X5.7668 Y49.9387
G01 X5.8481 Y49.8810
G01 X5.8650 Y49.8705
G01 X5.9498 Y49.8237
G01 X5.9703 Y49.8138
G01 X6.0598 Y49.7767
G01 X6.0813 Y49.7692
G01 X6.1744 Y49.7424
G01 X6.1966 Y49.7373
G01 X6.2921 Y49.7211
G01 X6.3147 Y49.7185
G01 X6.4228 Y49.7128
G01 X6.7276 Y49.7128
G01 X6.8357 Y49.7185
G01 X6.8583 Y49.7211
G01 X6.9538 Y49.7373
G01 X6.9760 Y49.7424
G01 X7.0691 Y49.7692
G01 X7.0906 Y49.7767
G01 X7.1812 Y49.8142
G01 X7.2006 Y49.8237
G01 X7.2854 Y49.8705
G01 X7.3046 Y49.8826
G01 X7.3836 Y49.9387
G01 X7.4014 Y49.9529
G01 X7.4737 Y50.0174
G01 X7.4898 Y50.0335
G01 X7.5543 Y50.1058
G01 X7.5685 Y50.1236
G01 X7.6262 Y50.2049
G01 X7.6367 Y50.2218
G01 X7.6835 Y50.3066
G01 X7.6934 Y50.3271
G01 X7.7305 Y50.4166
G01 X7.7380 Y50.4381
G01 X7.7648 Y50.5312
G01 X7.7699 Y50.5534
G01 X7.7861 Y50.6489
G01 X7.7887 Y50.6715
G01 X7.7944 Y50.7796
G01 X7.7887 Y50.8877
G01 X7.7861 Y50.9103
G01 X7.7691 Y51.0103
G01 X7.7648 Y51.0280
G01 X7.7380 Y51.1211
G01 X7.7305 Y51.1426
G01 X7.6930 Y51.2332
G01 X7.6835 Y51.2526
G01 X7.6367 Y51.3374
G01 X7.6246 Y51.3566
G01 X7.5685 Y51.4356
G01 X7.5543 Y51.4534
G01 X7.4898 Y51.5257
G01 X7.4737 Y51.5418
G01 X7.4014 Y51.6063
G01 X7.3836 Y51.6205
G01 X7.3023 Y51.6782
G01 X7.2854 Y51.6887
G01 X7.2006 Y51.7355
G01 X7.1801 Y51.7454
G01 X7.0906 Y51.7825
G01 X7.0691 Y51.7900
G01 X6.9760 Y51.8168
G01 X6.9538 Y51.8219
G01 X6.8583 Y51.8381
G01 X6.8357 Y51.8407
G01 X6.7276 Y51.8464
G01 X6.4228 Y51.8464
G01 X6.3147 Y51.8407
G01 X6.2921 Y51.8381
G01 X6.1966 Y51.8219
G01 X6.1744 Y51.8168
G01 X6.0813 Y51.7900
G01 X6.0598 Y51.7825
G01 X5.9692 Y51.7450
G01 X5.9498 Y51.7355
G01 X5.8650 Y51.6887
G01 X5.8458 Y51.6766
G01 X5.7668 Y51.6205
G01 X5.7490 Y51.6063
G01 X5.6767 Y51.5418
G01 X5.6606 Y51.5257
G01 X5.5961 Y51.4534
G01 X5.5819 Y51.4356
G01 X5.5242 Y51.3543
G01 X5.5137 Y51.3374
G01 X5.4669 Y51.2526
G01 X5.4570 Y51.2321
G01 X5.4199 Y51.1426
G01 X5.4124 Y51.1211
G01 X5.3856 Y51.0280
G01 X5.3805 Y51.0058
G01 X5.3643 Y50.9103
G01 X5.3617 Y50.8877
G01 X5.3560 Y50.7796
G01 X5.3621 Y50.6715
G00 Z2.5400
G00 X11.0178 Y45.3731
G01 F76.20
G01 Z-0.2000
G01 F76.20
G01 X11.0200 Y45.3504
G01 X11.0387 Y45.2398
G01 X11.0438 Y45.2176
G01 X11.0749 Y45.1099
G01 X11.0824 Y45.0884
G01 X11.1258 Y44.9837
G01 X11.1352 Y44.9642
G01 X11.1894 Y44.8661
G01 X11.2016 Y44.8468
G01 X11.2664 Y44.7553
G01 X11.2807 Y44.7375
G01 X11.3554 Y44.6539
G01 X11.3715 Y44.6378
G01 X11.4551 Y44.5631
G01 X11.4729 Y44.5488
G01 X11.5667 Y44.4823
G01 X11.5837 Y44.4718
G01 X11.6818 Y44.4176
G01 X11.7024 Y44.4077
G01 X11.8060 Y44.3648
G01 X11.8275 Y44.3573
G01 X11.9352 Y44.3262
G01 X11.9574 Y44.3211
G01 X12.0680 Y44.3024
G01 X12.0906 Y44.2998
G01 X12.2140 Y44.2932
G01 X12.3374 Y44.2998
G01 X12.3600 Y44.3024
G01 X12.4706 Y44.3211
G01 X12.4928 Y44.3262
G01 X12.6005 Y44.3573
G01 X12.6220 Y44.3648
G01 X12.7267 Y44.4082
G01 X12.7462 Y44.4176
G01 X12.8443 Y44.4718
G01 X12.8636 Y44.4840
G01 X12.9551 Y44.5488
G01 X12.9729 Y44.5631
G01 X13.0565 Y44.6378
G01 X13.0726 Y44.6539
G01 X13.1473 Y44.7375
G01 X13.1616 Y44.7553
G01 X13.2281 Y44.8491
G01 X13.2386 Y44.8661
G01 X13.2928 Y44.9642
G01 X13.3027 Y44.9848
G01 X13.3456 Y45.0884
G01 X13.3531 Y45.1099
G01 X13.3842 Y45.2176
G01 X13.3893 Y45.2398
G01 X13.4080 Y45.3504
G01 X13.4106 Y45.3730
G01 X13.4172 Y45.4964
G01 X13.4106 Y45.6198
G01 X13.4080 Y45.6424
G01 X13.3893 Y45.7530
G01 X13.3842 Y45.7752
G01 X13.3531 Y45.8829
G01 X13.3456 Y45.9044
G01 X13.3022 Y46.0091
G01 X13.2928 Y46.0286
G01 X13.2386 Y46.1267
G01 X13.2264 Y46.1460
G01 X13.1616 Y46.2375
G01 X13.1473 Y46.2553
G01 X13.0726 Y46.3389
G01 X13.0565 Y46.3550
G01 X12.9729 Y46.4297
G01 X12.9551 Y46.4440
G01 X12.8613 Y46.5105
G01 X12.8443 Y46.5210
G01 X12.7462 Y46.5752
G01 X12.7256 Y46.5851
G01 X12.6220 Y46.6280
G01 X12.6005 Y46.6355
G01 X12.4928 Y46.6666
G01 X12.4706 Y46.6717
G01 X12.3600 Y46.6904
G01 X12.3374 Y46.6930
G01 X12.2140 Y46.6996
G01 X12.0906 Y46.6930
G01 X12.0680 Y46.6904
G01 X11.9574 Y46.6717
G01 X11.9352 Y46.6666
G01 X11.8275 Y46.6355
G01 X11.8060 Y46.6280
G01 X11.7013 Y46.5846
G01 X11.6818 Y46.5752
G01 X11.5837 Y46.5210
G01 X11.5644 Y46.5088
G01 X11.4729 Y46.4440
G01 X11.4551 Y46.4297
G01 X11.3715 Y46.3550
G01 X11.3554 Y46.3389
G01 X11.2807 Y46.2553
G01 X11.2664 Y46.2375
G01 X11.1999 Y46.1437
G01 X11.1894 Y46.1267
G01 X11.1352 Y46.0286
G01 X11.1253 Y46.0080
G01 X11.0824 Y45.9044
G01 X11.0749 Y45.8829
G01 X11.0438 Y45.7752
G01 X11.0387 Y45.7530
G01 X11.0200 Y45.6424
G01 X11.0174 Y45.6198
G01 X11.0108 Y45.4964
G01 X11.0178 Y45.3731
G00 Z2.5400
G00 X16.7052 Y38.5804
G01 F76.20
G01 Z-0.2000
G01 F76.20
G01 X16.7073 Y38.5578
G01 X16.7251 Y38.4538
G01 X16.7293 Y38.4361
G01 X16.7572 Y38.3391
G01 X16.7648 Y38.3176
G01 X16.8039 Y38.2232
G01 X16.8133 Y38.2038
G01 X16.8621 Y38.1155
G01 X16.8742 Y38.0962
G01 X16.9326 Y38.0139
G01 X16.9468 Y37.9960
G01 X17.0141 Y37.9208
G01 X17.0302 Y37.9047
G01 X17.1055 Y37.8374
G01 X17.1233 Y37.8232
G01 X17.2079 Y37.7632
G01 X17.2249 Y37.7527
G01 X17.3132 Y37.7039
G01 X17.3337 Y37.6940
G01 X17.4270 Y37.6554
G01 X17.4485 Y37.6478
G01 X17.5455 Y37.6199
G01 X17.5677 Y37.6148
G01 X17.6672 Y37.5979
G01 X17.6898 Y37.5954
G01 X17.7906 Y37.5897
G01 X17.8134 Y37.5897
G01 X17.9142 Y37.5954
G01 X17.9368 Y37.5979
G01 X18.0408 Y37.6156
G01 X18.0585 Y37.6199
G01 X18.1555 Y37.6478
G01 X18.1770 Y37.6554
G01 X18.2713 Y37.6944
G01 X18.2908 Y37.7039
G01 X18.3791 Y37.7527
G01 X18.3984 Y37.7648
G01 X18.4807 Y37.8232
G01 X18.4985 Y37.8374
G01 X18.5738 Y37.9047
G01 X18.5899 Y37.9208
G01 X18.6572 Y37.9960
G01 X18.6714 Y38.0139
G01 X18.7314 Y38.0985
G01 X18.7419 Y38.1155
G01 X18.7907 Y38.2038
G01 X18.8006 Y38.2243
G01 X18.8392 Y38.3176
G01 X18.8468 Y38.3391
G01 X18.8747 Y38.4361
G01 X18.8798 Y38.4583
G01 X18.8967 Y38.5578
G01 X18.8992 Y38.5804
G01 X18.9049 Y38.6812
G01 X18.9052 Y39.0922
G01 X18.8992 Y39.2044
G01 X18.8967 Y39.2270
G01 X18.8798 Y39.3265
G01 X18.8747 Y39.3487
G01 X18.8468 Y39.4457
G01 X18.8392 Y39.4672
G01 X18.8001 Y39.5616
G01 X18.7907 Y39.5810
G01 X18.7419 Y39.6693
G01 X18.7298 Y39.6886
G01 X18.6714 Y39.7709
G01 X18.6572 Y39.7888
G01 X18.5899 Y39.8640
G01 X18.5738 Y39.8801
G01 X18.4985 Y39.9474
G01 X18.4807 Y39.9616
G01 X18.3961 Y40.0216
G01 X18.3791 Y40.0321
G01 X18.2908 Y40.0809
G01 X18.2703 Y40.0908
G01 X18.1770 Y40.1294
G01 X18.1555 Y40.1370
G01 X18.0585 Y40.1649
G01 X18.0363 Y40.1700
G01 X17.9368 Y40.1869
G01 X17.9142 Y40.1894
G01 X17.8134 Y40.1951
G01 X17.7906 Y40.1951
G01 X17.6898 Y40.1894
G01 X17.6672 Y40.1869
G01 X17.5632 Y40.1692
G01 X17.5455 Y40.1649
G01 X17.4485 Y40.1370
G01 X17.4270 Y40.1294
G01 X17.3327 Y40.0904
G01 X17.3132 Y40.0809
G01 X17.2249 Y40.0321
G01 X17.2056 Y40.0200
G01 X17.1233 Y39.9616
G01 X17.1055 Y39.9474
G01 X17.0302 Y39.8801
G01 X17.0141 Y39.8640
G01 X16.9468 Y39.7888
G01 X16.9326 Y39.7709
G01 X16.8726 Y39.6863
G01 X16.8621 Y39.6693
G01 X16.8133 Y39.5810
G01 X16.8034 Y39.5605
G01 X16.7648 Y39.4672
G01 X16.7572 Y39.4457
G01 X16.7293 Y39.3487
G01 X16.7242 Y39.3265
G01 X16.7073 Y39.2270
G01 X16.7048 Y39.2044
G01 X16.6988 Y39.0922
G01 X16.6988 Y38.6926
G01 X16.7052 Y38.5804
G00 Z2.5400
G00 X24.3252 Y38.5804
G01 F76.20
G01 Z-0.2000
G01 F76.20
G01 X24.3273 Y38.5578
G01 X24.3451 Y38.4538
G01 X24.3493 Y38.4361
G01 X24.3772 Y38.3391
G01 X24.3848 Y38.3176
G01 X24.4239 Y38.2232
G01 X24.4333 Y38.2038
G01 X24.4821 Y38.1155
G01 X24.4942 Y38.0962
G01 X24.5526 Y38.0139
G01 X24.5668 Y37.9960
G01 X24.6341 Y37.9208
G01 X24.6502 Y37.9047
G01 X24.7255 Y37.8374
G01 X24.7433 Y37.8232
G01 X24.8279 Y37.7632
G01 X24.8449 Y37.7527
G01 X24.9332 Y37.7039
G01 X24.9537 Y37.6940
G01 X25.0470 Y37.6554
G01 X25.0685 Y37.6478
G01 X25.1655 Y37.6199
G01 X25.1877 Y37.6148
G01 X25.2872 Y37.5979
G01 X25.3098 Y37.5954
G01 X25.4106 Y37.5897
G01 X25.4334 Y37.5897
G01 X25.5342 Y37.5954
G01 X25.5568 Y37.5979
G01 X25.6608 Y37.6156
G01 X25.6785 Y37.6199
G01 X25.7755 Y37.6478
G01 X25.7970 Y37.6554
G01 X25.8913 Y37.6944
G01 X25.9108 Y37.7039
G01 X25.9991 Y37.7527
G01 X26.0184 Y37.7648
G01 X26.1007 Y37.8232
G01 X26.1185 Y37.8374
G01 X26.1938 Y37.9047
G01 X26.2099 Y37.9208
G01 X26.2772 Y37.9960
G01 X26.2914 Y38.0139
G01 X26.3514 Y38.0985
G01 X26.3619 Y38.1155
G01 X26.4107 Y38.2038
G01 X26.4206 Y38.2243
G01 X26.4592 Y38.3176
G01 X26.4668 Y38.3391
G01 X26.4947 Y38.4361
G01 X26.4998 Y38.4583
G01 X26.5167 Y38.5578
G01 X26.5192 Y38.5804
G01 X26.5249 Y38.6812
G01 X26.5252 Y39.0922
G01 X26.5192 Y39.2044
G01 X26.5167 Y39.2270
G01 X26.4998 Y39.3265
G01 X26.4947 Y39.3487
G01 X26.4668 Y39.4457
G01 X26.4592 Y39.4672
G01 X26.4201 Y39.5616
G01 X26.4107 Y39.5810
G01 X26.3619 Y39.6693
G01 X26.3498 Y39.6886
G01 X26.2914 Y39.7709
G01 X26.2772 Y39.7888
G01 X26.2099 Y39.8640
G01 X26.1938 Y39.8801
G01 X26.1185 Y39.9474
G01 X26.1007 Y39.9616
G01 X26.0161 Y40.0216
G01 X25.9991 Y40.0321
G01 X25.9108 Y40.0809
G01 X25.8903 Y40.0908
G01 X25.7970 Y40.1294
G01 X25.7755 Y40.1370
G01 X25.6785 Y40.1649
G01 X25.6563 Y40.1700
G01 X25.5568 Y40.1869
G01 X25.5342 Y40.1894
G01 X25.4334 Y40.1951
G01 X25.4106 Y40.1951
G01 X25.3098 Y40.1894
G01 X25.2872 Y40.1869
G01 X25.1832 Y40.1692
G01 X25.1655 Y40.1649
G01 X25.0685 Y40.1370
G01 X25.0470 Y40.1294
G01 X24.9527 Y40.0904
G01 X24.9332 Y40.0809
G01 X24.8449 Y40.0321
G01 X24.8256 Y40.0200
G01 X24.7433 Y39.9616
G01 X24.7255 Y39.9474
G01 X24.6502 Y39.8801
G01 X24.6341 Y39.8640
G01 X24.5668 Y39.7888
G01 X24.5526 Y39.7709
G01 X24.4926 Y39.6863
G01 X24.4821 Y39.6693
G01 X24.4333 Y39.5810
G01 X24.4234 Y39.5605
G01 X24.3848 Y39.4672
G01 X24.3772 Y39.4457
G01 X24.3493 Y39.3487
G01 X24.3442 Y39.3265
G01 X24.3273 Y39.2270
G01 X24.3248 Y39.2044
G01 X24.3188 Y39.0922
G01 X24.3188 Y38.6926
G01 X24.3252 Y38.5804
G00 Z2.5400
G00 X26.8652 Y38.5804
G01 F76.20
G01 Z-0.2000
G01 F76.20
G01 X26.8673 Y38.5578
G01 X26.8851 Y38.4538
G01 X26.8893 Y38.4361
G01 X26.9172 Y38.3391
G01 X26.9248 Y38.3176
G01 X26.9639 Y38.2232
G01 X26.9733 Y38.2038
G01 X27.0221 Y38.1155
G01 X27.0342 Y38.0962
G01 X27.0926 Y38.0139
G01 X27.1068 Y37.9960
G01 X27.1741 Y37.9208
G01 X27.1902 Y37.9047
G01 X27.2655 Y37.8374
G01 X27.2833 Y37.8232
G01 X27.3679 Y37.7632
G01 X27.3849 Y37.7527
G01 X27.4732 Y37.7039
G01 X27.4937 Y37.6940
G01 X27.5870 Y37.6554
G01 X27.6085 Y37.6478
G01 X27.7055 Y37.6199
G01 X27.7277 Y37.6148
G01 X27.8272 Y37.5979
G01 X27.8498 Y37.5954
G01 X27.9506 Y37.5897
G01 X27.9734 Y37.5897
G01 X28.0742 Y37.5954
G01 X28.0968 Y37.5979
G01 X28.2008 Y37.6156
G01 X28.2185 Y37.6199
G01 X28.3155 Y37.6478
G01 X28.3370 Y37.6554
G01 X28.4313 Y37.6944
G01 X28.4508 Y37.7039
G01 X28.5391 Y37.7527
G01 X28.5584 Y37.7648
G01 X28.6407 Y37.8232
G01 X28.6585 Y37.8374
G01 X28.7338 Y37.9047
G01 X28.7499 Y37.9208
G01 X28.8172 Y37.9960
G01 X28.8314 Y38.0139
G01 X28.8914 Y38.0985
G01 X28.9019 Y38.1155
G01 X28.9507 Y38.2038
G01 X28.9606 Y38.2243
G01 X28.9992 Y38.3176
G01 X29.0068 Y38.3391
G01 X29.0347 Y38.4361
G01 X29.0398 Y38.4583
G01 X29.0567 Y38.5578
G01 X29.0592 Y38.5804
G01 X29.0649 Y38.6812
G01 X29.0652 Y39.0922
G01 X29.0592 Y39.2044
G01 X29.0567 Y39.2270
G01 X29.0398 Y39.3265
G01 X29.0347 Y39.3487
G01 X29.0068 Y39.4457
G01 X28.9992 Y39.4672
G01 X28.9601 Y39.5616
G01 X28.9507 Y39.5810
G01 X28.9019 Y39.6693
G01 X28.8898 Y39.6886
G01 X28.8314 Y39.7709
G01 X28.8172 Y39.7888
G01 X28.7499 Y39.8640
G01 X28.7338 Y39.8801
G01 X28.6585 Y39.9474
G01 X28.6407 Y39.9616
G01 X28.5561 Y40.0216
G01 X28.5391 Y40.0321
G01 X28.4508 Y40.0809
G01 X28.4303 Y40.0908
G01 X28.3370 Y40.1294
G01 X28.3155 Y40.1370
G01 X28.2185 Y40.1649
G01 X28.1963 Y40.1700
G01 X28.0968 Y40.1869
G01 X28.0742 Y40.1894
G01 X27.9734 Y40.1951
G01 X27.9506 Y40.1951
G01 X27.8498 Y40.1894
G01 X27.8272 Y40.1869
G01 X27.7232 Y40.1692
G01 X27.7055 Y40.1649
G01 X27.6085 Y40.1370
G01 X27.5870 Y40.1294
G01 X27.4927 Y40.0904
G01 X27.4732 Y40.0809
G01 X27.3849 Y40.0321
G01 X27.3656 Y40.0200
G01 X27.2833 Y39.9616
G01 X27.2655 Y39.9474
G01 X27.1902 Y39.8801
G01 X27.1741 Y39.8640
G01 X27.1068 Y39.7888
G01 X27.0926 Y39.7709
G01 X27.0326 Y39.6863
G01 X27.0221 Y39.6693
G01 X26.9733 Y39.5810
G01 X26.9634 Y39.5605
G01 X26.9248 Y39.4672
G01 X26.9172 Y39.4457
G01 X26.8893 Y39.3487
G01 X26.8842 Y39.3265
G01 X26.8673 Y39.2270
G01 X26.8648 Y39.2044
G01 X26.8588 Y39.0922
G01 X26.8588 Y38.6926
G01 X26.8652 Y38.5804
G00 Z2.5400
G00 X29.4052 Y38.5804
G01 F76.20
G01 Z-0.2000
G01 F76.20
G01 X29.4073 Y38.5578
G01 X29.4251 Y38.4538
G01 X29.4293 Y38.4361
G01 X29.4572 Y38.3391
G01 X29.4648 Y38.3176
G01 X29.5039 Y38.2232
G01 X29.5133 Y38.2038
G01 X29.5621 Y38.1155
G01 X29.5742 Y38.0962
G01 X29.6326 Y38.0139
G01 X29.6468 Y37.9960
G01 X29.7141 Y37.9208
G01 X29.7302 Y37.9047
G01 X29.8055 Y37.8374
G01 X29.8233 Y37.8232
G01 X29.9079 Y37.7632
G01 X29.9249 Y37.7527
G01 X30.0132 Y37.7039
G01 X30.0337 Y37.6940
G01 X30.1270 Y37.6554
G01 X30.1485 Y37.6478
G01 X30.2455 Y37.6199
G01 X30.2677 Y37.6148
G01 X30.3672 Y37.5979
G01 X30.3898 Y37.5954
G01 X30.4906 Y37.5897
G01 X30.5134 Y37.5897
G01 X30.6142 Y37.5954
G01 X30.6368 Y37.5979
G01 X30.7408 Y37.6156
G01 X30.7585 Y37.6199
G01 X30.8555 Y37.6478
G01 X30.8770 Y37.6554
G01 X30.9713 Y37.6944
G01 X30.9908 Y37.7039
G01 X31.0791 Y37.7527
G01 X31.0984 Y37.7648
G01 X31.1807 Y37.8232
G01 X31.1985 Y37.8374
G01 X31.2738 Y37.9047
G01 X31.2899 Y37.9208
G01 X31.3572 Y37.9960
G01 X31.3714 Y38.0139
G01 X31.4314 Y38.0985
G01 X31.4419 Y38.1155
G01 X31.4907 Y38.2038
G01 X31.5006 Y38.2243
G01 X31.5392 Y38.3176
G01 X31.5468 Y38.3391
G01 X31.5747 Y38.4361
G01 X31.5798 Y38.4583
G01 X31.5967 Y38.5578
G01 X31.5992 Y38.5804
G01 X31.6049 Y38.6812
G01 X31.6052 Y39.0922
G01 X31.5992 Y39.2044
G01 X31.5967 Y39.2270
G01 X31.5798 Y39.3265
G01 X31.5747 Y39.3487
G01 X31.5468 Y39.4457
G01 X31.5392 Y39.4672
G01 X31.5001 Y39.5616
G01 X31.4907 Y39.5810
G01 X31.4419 Y39.6693
G01 X31.4298 Y39.6886
G01 X31.3714 Y39.7709
G01 X31.3572 Y39.7888
G01 X31.2899 Y39.8640
G01 X31.2738 Y39.8801
G01 X31.1985 Y39.9474
G01 X31.1807 Y39.9616
G01 X31.0961 Y40.0216
G01 X31.0791 Y40.0321
G01 X30.9908 Y40.0809
G01 X30.9703 Y40.0908
G01 X30.8770 Y40.1294
G01 X30.8555 Y40.1370
G01 X30.7585 Y40.1649
G01 X30.7363 Y40.1700
G01 X30.6368 Y40.1869
G01 X30.6142 Y40.1894
G01 X30.5134 Y40.1951
G01 X30.4906 Y40.1951
G01 X30.3898 Y40.1894
G01 X30.3672 Y40.1869
G01 X30.2632 Y40.1692
G01 X30.2455 Y40.1649
G01 X30.1485 Y40.1370
G01 X30.1270 Y40.1294
G01 X30.0327 Y40.0904
G01 X30.0132 Y40.0809
G01 X29.9249 Y40.0321
G01 X29.9056 Y40.0200
G01 X29.8233 Y39.9616
G01 X29.8055 Y39.9474
G01 X29.7302 Y39.8801
G01 X29.7141 Y39.8640
G01 X29.6468 Y39.7888
G01 X29.6326 Y39.7709
G01 X29.5726 Y39.6863
G01 X29.5621 Y39.6693
G01 X29.5133 Y39.5810
G01 X29.5034 Y39.5605
G01 X29.4648 Y39.4672
G01 X29.4572 Y39.4457
G01 X29.4293 Y39.3487
G01 X29.4242 Y39.3265
G01 X29.4073 Y39.2270
G01 X29.4048 Y39.2044
G01 X29.3988 Y39.0922
G01 X29.3988 Y38.6926
G01 X29.4052 Y38.5804
G00 Z2.5400
G00 X31.9452 Y38.5804
G01 F76.20
G01 Z-0.2000
G01 F76.20
G01 X31.9473 Y38.5578
G01 X31.9651 Y38.4538
G01 X31.9693 Y38.4361
G01 X31.9972 Y38.3391
G01 X32.0048 Y38.3176
G01 X32.0439 Y38.2232
G01 X32.0533 Y38.2038
G01 X32.1021 Y38.1155
G01 X32.1142 Y38.0962
G01 X32.1726 Y38.0139
G01 X32.1868 Y37.9960
G01 X32.2541 Y37.9208
G01 X32.2702 Y37.9047
G01 X32.3455 Y37.8374
G01 X32.3633 Y37.8232
G01 X32.4479 Y37.7632
G01 X32.4649 Y37.7527
G01 X32.5532 Y37.7039
G01 X32.5737 Y37.6940
G01 X32.6670 Y37.6554
G01 X32.6885 Y37.6478
G01 X32.7855 Y37.6199
G01 X32.8077 Y37.6148
G01 X32.9072 Y37.5979
G01 X32.9298 Y37.5954
G01 X33.0306 Y37.5897
G01 X33.0534 Y37.5897
G01 X33.1542 Y37.5954
G01 X33.1768 Y37.5979
G01 X33.2808 Y37.6156
G01 X33.2985 Y37.6199
G01 X33.3955 Y37.6478
G01 X33.4170 Y37.6554
G01 X33.5113 Y37.6944
G01 X33.5308 Y37.7039
G01 X33.6191 Y37.7527
G01 X33.6384 Y37.7648
G01 X33.7207 Y37.8232
G01 X33.7385 Y37.8374
G01 X33.8138 Y37.9047
G01 X33.8299 Y37.9208
G01 X33.8972 Y37.9960
G01 X33.9114 Y38.0139
G01 X33.9714 Y38.0985
G01 X33.9819 Y38.1155
G01 X34.0307 Y38.2038
G01 X34.0406 Y38.2243
G01 X34.0792 Y38.3176
G01 X34.0868 Y38.3391
G01 X34.1147 Y38.4361
G01 X34.1198 Y38.4583
G01 X34.1367 Y38.5578
G01 X34.1392 Y38.5804
G01 X34.1449 Y38.6812
G01 X34.1452 Y39.0922
G01 X34.1392 Y39.2044
G01 X34.1367 Y39.2270
G01 X34.1198 Y39.3265
G01 X34.1147 Y39.3487
G01 X34.0868 Y39.4457
G01 X34.0792 Y39.4672
G01 X34.0401 Y39.5616
G01 X34.0307 Y39.5810
G01 X33.9819 Y39.6693
G01 X33.9698 Y39.6886
G01 X33.9114 Y39.7709
G01 X33.8972 Y39.7888
G01 X33.8299 Y39.8640
G01 X33.8138 Y39.8801
G01 X33.7385 Y39.9474
G01 X33.7207 Y39.9616
G01 X33.6361 Y40.0216
G01 X33.6191 Y40.0321
G01 X33.5308 Y40.0809
G01 X33.5103 Y40.0908
G01 X33.4170 Y40.1294
G01 X33.3955 Y40.1370
G01 X33.2985 Y40.1649
G01 X33.2763 Y40.1700
G01 X33.1768 Y40.1869
G01 X33.1542 Y40.1894
G01 X33.0534 Y40.1951
G01 X33.0306 Y40.1951
G01 X32.9298 Y40.1894
G01 X32.9072 Y40.1869
G01 X32.8032 Y40.1692
G01 X32.7855 Y40.1649
G01 X32.6885 Y40.1370
G01 X32.6670 Y40.1294
G01 X32.5727 Y40.0904
G01 X32.5532 Y40.0809
G01 X32.4649 Y40.0321
G01 X32.4456 Y40.0200
G01 X32.3633 Y39.9616
G01 X32.3455 Y39.9474
G01 X32.2702 Y39.8801
G01 X32.2541 Y39.8640
G01 X32.1868 Y39.7888
G01 X32.1726 Y39.7709
G01 X32.1126 Y39.6863
G01 X32.1021 Y39.6693
G01 X32.0533 Y39.5810
G01 X32.0434 Y39.5605
G01 X32.0048 Y39.4672
G01 X31.9972 Y39.4457
G01 X31.9693 Y39.3487
G01 X31.9642 Y39.3265
G01 X31.9473 Y39.2270
G01 X31.9448 Y39.2044
G01 X31.9388 Y39.0922
G01 X31.9388 Y38.6926
G01 X31.9452 Y38.5804
G00 Z2.5400
G00 X34.4852 Y38.5804
G01 F76.20
G01 Z-0.2000
G01 F76.20
G01 X34.4873 Y38.5578
G01 X34.5051 Y38.4538
G01 X34.5093 Y38.4361
G01 X34.5372 Y38.3391
G01 X34.5448 Y38.3176
G01 X34.5839 Y38.2232
G01 X34.5933 Y38.2038
G01 X34.6421 Y38.1155
G01 X34.6542 Y38.0962
G01 X34.7126 Y38.0139
G01 X34.7268 Y37.9960
G01 X34.7941 Y37.9208
G01 X34.8102 Y37.9047
G01 X34.8855 Y37.8374
G01 X34.9033 Y37.8232
G01 X34.9879 Y37.7632
G01 X35.0049 Y37.7527
G01 X35.0932 Y37.7039
G01 X35.1137 Y37.6940
G01 X35.2070 Y37.6554
G01 X35.2285 Y37.6478
G01 X35.3255 Y37.6199
G01 X35.3477 Y37.6148
G01 X35.4472 Y37.5979
G01 X35.4698 Y37.5954
G01 X35.5706 Y37.5897
G01 X35.5934 Y37.5897
G01 X35.6942 Y37.5954
G01 X35.7168 Y37.5979
G01 X35.8208 Y37.6156
G01 X35.8385 Y37.6199
G01 X35.9355 Y37.6478
G01 X35.9570 Y37.6554
G01 X36.0513 Y37.6944
G01 X36.0708 Y37.7039
G01 X36.1591 Y37.7527
G01 X36.1784 Y37.7648
G01 X36.2607 Y37.8232
G01 X36.2785 Y37.8374
G01 X36.3538 Y37.9047
G01 X36.3699 Y37.9208
G01 X36.4372 Y37.9960
G01 X36.4514 Y38.0139
G01 X36.5114 Y38.0985
G01 X36.5219 Y38.1155
G01 X36.5707 Y38.2038
G01 X36.5806 Y38.2243
G01 X36.6192 Y38.3176
G01 X36.6268 Y38.3391
G01 X36.6547 Y38.4361
G01 X36.6598 Y38.4583
G01 X36.6767 Y38.5578
G01 X36.6792 Y38.5804
G01 X36.6849 Y38.6812
G01 X36.6852 Y39.0922
G01 X36.6792 Y39.2044
G01 X36.6767 Y39.2270
G01 X36.6598 Y39.3265
G01 X36.6547 Y39.3487
G01 X36.6268 Y39.4457
G01 X36.6192 Y39.4672
G01 X36.5801 Y39.5616
G01 X36.5707 Y39.5810
G01 X36.5219 Y39.6693
G01 X36.5098 Y39.6886
G01 X36.4514 Y39.7709
G01 X36.4372 Y39.7888
G01 X36.3699 Y39.8640
G01 X36.3538 Y39.8801
G01 X36.2785 Y39.9474
G01 X36.2607 Y39.9616
G01 X36.1761 Y40.0216
G01 X36.1591 Y40.0321
G01 X36.0708 Y40.0809
G01 X36.0503 Y40.0908
G01 X35.9570 Y40.1294
G01 X35.9355 Y40.1370
G01 X35.8385 Y40.1649
G01 X35.8163 Y40.1700
G01 X35.7168 Y40.1869
G01 X35.6942 Y40.1894
G01 X35.5934 Y40.1951
G01 X35.5706 Y40.1951
G01 X35.4698 Y40.1894
G01 X35.4472 Y40.1869
G01 X35.3432 Y40.1692
G01 X35.3255 Y40.1649
G01 X35.2285 Y40.1370
G01 X35.2070 Y40.1294
G01 X35.1127 Y40.0904
G01 X35.0932 Y40.0809
G01 X35.0049 Y40.0321
G01 X34.9856 Y40.0200
G01 X34.9033 Y39.9616
G01 X34.8855 Y39.9474
G01 X34.8102 Y39.8801
G01 X34.7941 Y39.8640
G01 X34.7268 Y39.7888
G01 X34.7126 Y39.7709
G01 X34.6526 Y39.6863
G01 X34.6421 Y39.6693
G01 X34.5933 Y39.5810
G01 X34.5834 Y39.5605
G01 X34.5448 Y39.4672
G01 X34.5372 Y39.4457
G01 X34.5093 Y39.3487
G01 X34.5042 Y39.3265
G01 X34.4873 Y39.2270
G01 X34.4848 Y39.2044
G01 X34.4788 Y39.0922
G01 X34.4788 Y38.6926
G01 X34.4852 Y38.5804
G00 Z2.5400
G00 X37.0252 Y38.5804
G01 F76.20
G01 Z-0.2000
G01 F76.20
G01 X37.0273 Y38.5578
G01 X37.0451 Y38.4538
G01 X37.0493 Y38.4361
G01 X37.0772 Y38.3391
G01 X37.0848 Y38.3176
G01 X37.1239 Y38.2232
G01 X37.1333 Y38.2038
G01 X37.1821 Y38.1155
G01 X37.1942 Y38.0962
G01 X37.2526 Y38.0139
G01 X37.2668 Y37.9960
G01 X37.3341 Y37.9208
G01 X37.3502 Y37.9047
G01 X37.4255 Y37.8374
G01 X37.4433 Y37.8232
G01 X37.5279 Y37.7632
G01 X37.5449 Y37.7527
G01 X37.6332 Y37.7039
G01 X37.6537 Y37.6940
G01 X37.7470 Y37.6554
G01 X37.7685 Y37.6478
G01 X37.8655 Y37.6199
G01 X37.8877 Y37.6148
G01 X37.9872 Y37.5979
G01 X38.0098 Y37.5954
G01 X38.1106 Y37.5897
G01 X38.1334 Y37.5897
G01 X38.2342 Y37.5954
G01 X38.2568 Y37.5979
G01 X38.3608 Y37.6156
G01 X38.3785 Y37.6199
G01 X38.4755 Y37.6478
G01 X38.4970 Y37.6554
G01 X38.5913 Y37.6944
G01 X38.6108 Y37.7039
G01 X38.6991 Y37.7527
G01 X38.7184 Y37.7648
G01 X38.8007 Y37.8232
G01 X38.8185 Y37.8374
G01 X38.8938 Y37.9047
G01 X38.9099 Y37.9208
G01 X38.9772 Y37.9960
G01 X38.9914 Y38.0139
G01 X39.0514 Y38.0985
G01 X39.0619 Y38.1155
G01 X39.1107 Y38.2038
G01 X39.1206 Y38.2243
G01 X39.1592 Y38.3176
G01 X39.1668 Y38.3391
G01 X39.1947 Y38.4361
G01 X39.1998 Y38.4583
G01 X39.2167 Y38.5578
G01 X39.2192 Y38.5804
G01 X39.2249 Y38.6812
G01 X39.2252 Y39.0922
G01 X39.2192 Y39.2044
G01 X39.2167 Y39.2270
G01 X39.1998 Y39.3265
G01 X39.1947 Y39.3487
G01 X39.1668 Y39.4457
G01 X39.1592 Y39.4672
G01 X39.1201 Y39.5616
G01 X39.1107 Y39.5810
G01 X39.0619 Y39.6693
G01 X39.0498 Y39.6886
G01 X38.9914 Y39.7709
G01 X38.9772 Y39.7888
G01 X38.9099 Y39.8640
G01 X38.8938 Y39.8801
G01 X38.8185 Y39.9474
G01 X38.8007 Y39.9616
G01 X38.7161 Y40.0216
G01 X38.6991 Y40.0321
G01 X38.6108 Y40.0809
G01 X38.5903 Y40.0908
G01 X38.4970 Y40.1294
G01 X38.4755 Y40.1370
G01 X38.3785 Y40.1649
G01 X38.3563 Y40.1700
G01 X38.2568 Y40.1869
G01 X38.2342 Y40.1894
G01 X38.1334 Y40.1951
G01 X38.1106 Y40.1951
G01 X38.0098 Y40.1894
G01 X37.9872 Y40.1869
G01 X37.8832 Y40.1692
G01 X37.8655 Y40.1649
G01 X37.7685 Y40.1370
G01 X37.7470 Y40.1294
G01 X37.6527 Y40.0904
G01 X37.6332 Y40.0809
G01 X37.5449 Y40.0321
G01 X37.5256 Y40.0200
G01 X37.4433 Y39.9616
G01 X37.4255 Y39.9474
G01 X37.3502 Y39.8801
G01 X37.3341 Y39.8640
G01 X37.2668 Y39.7888
G01 X37.2526 Y39.7709
G01 X37.1926 Y39.6863
G01 X37.1821 Y39.6693
G01 X37.1333 Y39.5810
G01 X37.1234 Y39.5605
G01 X37.0848 Y39.4672
G01 X37.0772 Y39.4457
G01 X37.0493 Y39.3487
G01 X37.0442 Y39.3265
G01 X37.0273 Y39.2270
G01 X37.0248 Y39.2044
G01 X37.0188 Y39.0922
G01 X37.0188 Y38.6926
G01 X37.0252 Y38.5804
G00 Z2.5400
G00 X39.5652 Y38.5804
G01 F76.20
G01 Z-0.2000
G01 F76.20
G01 X39.5673 Y38.5578
G01 X39.5851 Y38.4538
G01 X39.5893 Y38.4361
G01 X39.6172 Y38.3391
G01 X39.6248 Y38.3176
G01 X39.6639 Y38.2232
G01 X39.6733 Y38.2038
G01 X39.7221 Y38.1155
G01 X39.7342 Y38.0962
G01 X39.7926 Y38.0139
G01 X39.8068 Y37.9960
G01 X39.8741 Y37.9208
G01 X39.8902 Y37.9047
G01 X39.9655 Y37.8374
G01 X39.9833 Y37.8232
G01 X40.0679 Y37.7632
G01 X40.0849 Y37.7527
G01 X40.1732 Y37.7039
G01 X40.1937 Y37.6940
G01 X40.2870 Y37.6554
G01 X40.3085 Y37.6478
G01 X40.4055 Y37.6199
G01 X40.4277 Y37.6148
G01 X40.5272 Y37.5979
G01 X40.5498 Y37.5954
G01 X40.6506 Y37.5897
G01 X40.6734 Y37.5897
G01 X40.7742 Y37.5954
G01 X40.7968 Y37.5979
G01 X40.9008 Y37.6156
G01 X40.9185 Y37.6199
G01 X41.0155 Y37.6478
G01 X41.0370 Y37.6554
G01 X41.1313 Y37.6944
G01 X41.1508 Y37.7039
G01 X41.2391 Y37.7527
G01 X41.2584 Y37.7648
G01 X41.3407 Y37.8232
G01 X41.3585 Y37.8374
G01 X41.4338 Y37.9047
G01 X41.4499 Y37.9208
G01 X41.5172 Y37.9960
G01 X41.5314 Y38.0139
G01 X41.5914 Y38.0985
G01 X41.6019 Y38.1155
G01 X41.6507 Y38.2038
G01 X41.6606 Y38.2243
G01 X41.6992 Y38.3176
G01 X41.7068 Y38.3391
G01 X41.7347 Y38.4361
G01 X41.7398 Y38.4583
G01 X41.7567 Y38.5578
G01 X41.7592 Y38.5804
G01 X41.7649 Y38.6812
G01 X41.7652 Y39.0922
G01 X41.7592 Y39.2044
G01 X41.7567 Y39.2270
G01 X41.7398 Y39.3265
G01 X41.7347 Y39.3487
G01 X41.7068 Y39.4457
G01 X41.6992 Y39.4672
G01 X41.6601 Y39.5616
G01 X41.6507 Y39.5810
G01 X41.6019 Y39.6693
G01 X41.5898 Y39.6886
G01 X41.5314 Y39.7709
G01 X41.5172 Y39.7888
G01 X41.4499 Y39.8640
G01 X41.4338 Y39.8801
G01 X41.3585 Y39.9474
G01 X41.3407 Y39.9616
G01 X41.2561 Y40.0216
G01 X41.2391 Y40.0321
G01 X41.1508 Y40.0809
G01 X41.1303 Y40.0908
G01 X41.0370 Y40.1294
G01 X41.0155 Y40.1370
G01 X40.9185 Y40.1649
G01 X40.8963 Y40.1700
G01 X40.7968 Y40.1869
G01 X40.7742 Y40.1894
G01 X40.6734 Y40.1951
G01 X40.6506 Y40.1951
G01 X40.5498 Y40.1894
G01 X40.5272 Y40.1869
G01 X40.4232 Y40.1692
G01 X40.4055 Y40.1649
G01 X40.3085 Y40.1370
G01 X40.2870 Y40.1294
G01 X40.1927 Y40.0904
G01 X40.1732 Y40.0809
G01 X40.0849 Y40.0321
G01 X40.0656 Y40.0200
G01 X39.9833 Y39.9616
G01 X39.9655 Y39.9474
G01 X39.8902 Y39.8801
G01 X39.8741 Y39.8640
G01 X39.8068 Y39.7888
G01 X39.7926 Y39.7709
G01 X39.7326 Y39.6863
G01 X39.7221 Y39.6693
G01 X39.6733 Y39.5810
G01 X39.6634 Y39.5605
G01 X39.6248 Y39.4672
G01 X39.6172 Y39.4457
G01 X39.5893 Y39.3487
G01 X39.5842 Y39.3265
G01 X39.5673 Y39.2270
G01 X39.5648 Y39.2044
G01 X39.5588 Y39.0922
G01 X39.5588 Y38.6926
G01 X39.5652 Y38.5804
G00 Z2.5400
G00 X42.1052 Y38.5804
G01 F76.20
G01 Z-0.2000
G01 F76.20
G01 X42.1073 Y38.5578
G01 X42.1251 Y38.4538
G01 X42.1293 Y38.4361
G01 X42.1572 Y38.3391
G01 X42.1648 Y38.3176
G01 X42.2039 Y38.2232
G01 X42.2133 Y38.2038
G01 X42.2621 Y38.1155
G01 X42.2742 Y38.0962
G01 X42.3326 Y38.0139
G01 X42.3468 Y37.9960
G01 X42.4141 Y37.9208
G01 X42.4302 Y37.9047
G01 X42.5055 Y37.8374
G01 X42.5233 Y37.8232
G01 X42.6079 Y37.7632
G01 X42.6249 Y37.7527
G01 X42.7132 Y37.7039
G01 X42.7337 Y37.6940
G01 X42.8270 Y37.6554
G01 X42.8485 Y37.6478
G01 X42.9455 Y37.6199
G01 X42.9677 Y37.6148
G01 X43.0672 Y37.5979
G01 X43.0898 Y37.5954
G01 X43.1906 Y37.5897
G01 X43.2134 Y37.5897
G01 X43.3142 Y37.5954
G01 X43.3368 Y37.5979
G01 X43.4408 Y37.6156
G01 X43.4585 Y37.6199
G01 X43.5555 Y37.6478
G01 X43.5770 Y37.6554
G01 X43.6713 Y37.6944
G01 X43.6908 Y37.7039
G01 X43.7791 Y37.7527
G01 X43.7984 Y37.7648
G01 X43.8807 Y37.8232
G01 X43.8985 Y37.8374
G01 X43.9738 Y37.9047
G01 X43.9899 Y37.9208
G01 X44.0572 Y37.9960
G01 X44.0714 Y38.0139
G01 X44.1314 Y38.0985
G01 X44.1419 Y38.1155
G01 X44.1907 Y38.2038
G01 X44.2006 Y38.2243
G01 X44.2392 Y38.3176
G01 X44.2468 Y38.3391
G01 X44.2747 Y38.4361
G01 X44.2798 Y38.4583
G01 X44.2967 Y38.5578
G01 X44.2992 Y38.5804
G01 X44.3049 Y38.6812
G01 X44.3052 Y39.0922
G01 X44.2992 Y39.2044
G01 X44.2967 Y39.2270
G01 X44.2798 Y39.3265
G01 X44.2747 Y39.3487
G01 X44.2468 Y39.4457
G01 X44.2392 Y39.4672
G01 X44.2001 Y39.5616
G01 X44.1907 Y39.5810
G01 X44.1419 Y39.6693
G01 X44.1298 Y39.6886
G01 X44.0714 Y39.7709
G01 X44.0572 Y39.7888
G01 X43.9899 Y39.8640
G01 X43.9738 Y39.8801
G01 X43.8985 Y39.9474
G01 X43.8807 Y39.9616
G01 X43.7961 Y40.0216
G01 X43.7791 Y40.0321
G01 X43.6908 Y40.0809
G01 X43.6703 Y40.0908
G01 X43.5770 Y40.1294
G01 X43.5555 Y40.1370
G01 X43.4585 Y40.1649
G01 X43.4363 Y40.1700
G01 X43.3368 Y40.1869
G01 X43.3142 Y40.1894
G01 X43.2134 Y40.1951
G01 X43.1906 Y40.1951
G01 X43.0898 Y40.1894
G01 X43.0672 Y40.1869
G01 X42.9632 Y40.1692
G01 X42.9455 Y40.1649
G01 X42.8485 Y40.1370
G01 X42.8270 Y40.1294
G01 X42.7327 Y40.0904
G01 X42.7132 Y40.0809
G01 X42.6249 Y40.0321
G01 X42.6056 Y40.0200
G01 X42.5233 Y39.9616
G01 X42.5055 Y39.9474
G01 X42.4302 Y39.8801
G01 X42.4141 Y39.8640
G01 X42.3468 Y39.7888
G01 X42.3326 Y39.7709
G01 X42.2726 Y39.6863
G01 X42.2621 Y39.6693
G01 X42.2133 Y39.5810
G01 X42.2034 Y39.5605
G01 X42.1648 Y39.4672
G01 X42.1572 Y39.4457
G01 X42.1293 Y39.3487
G01 X42.1242 Y39.3265
G01 X42.1073 Y39.2270
G01 X42.1048 Y39.2044
G01 X42.0988 Y39.0922
G01 X42.0988 Y38.6926
G01 X42.1052 Y38.5804
G00 Z2.5400
G00 X44.6452 Y38.5804
G01 F76.20
G01 Z-0.2000
G01 F76.20
G01 X44.6473 Y38.5578
G01 X44.6651 Y38.4538
G01 X44.6693 Y38.4361
G01 X44.6972 Y38.3391
G01 X44.7048 Y38.3176
G01 X44.7439 Y38.2232
G01 X44.7533 Y38.2038
G01 X44.8021 Y38.1155
G01 X44.8142 Y38.0962
G01 X44.8726 Y38.0139
G01 X44.8868 Y37.9960
G01 X44.9541 Y37.9208
G01 X44.9702 Y37.9047
G01 X45.0455 Y37.8374
G01 X45.0633 Y37.8232
G01 X45.1479 Y37.7632
G01 X45.1649 Y37.7527
G01 X45.2532 Y37.7039
G01 X45.2737 Y37.6940
G01 X45.3670 Y37.6554
G01 X45.3885 Y37.6478
G01 X45.4855 Y37.6199
G01 X45.5077 Y37.6148
G01 X45.6072 Y37.5979
G01 X45.6298 Y37.5954
G01 X45.7306 Y37.5897
G01 X45.7534 Y37.5897
G01 X45.8542 Y37.5954
G01 X45.8768 Y37.5979
G01 X45.9808 Y37.6156
G01 X45.9985 Y37.6199
G01 X46.0955 Y37.6478
G01 X46.1170 Y37.6554
G01 X46.2113 Y37.6944
G01 X46.2308 Y37.7039
G01 X46.3191 Y37.7527
G01 X46.3384 Y37.7648
G01 X46.4207 Y37.8232
G01 X46.4385 Y37.8374
G01 X46.5138 Y37.9047
G01 X46.5299 Y37.9208
G01 X46.5972 Y37.9960
G01 X46.6114 Y38.0139
G01 X46.6714 Y38.0985
G01 X46.6819 Y38.1155
G01 X46.7307 Y38.2038
G01 X46.7406 Y38.2243
G01 X46.7792 Y38.3176
G01 X46.7868 Y38.3391
G01 X46.8147 Y38.4361
G01 X46.8198 Y38.4583
G01 X46.8367 Y38.5578
G01 X46.8392 Y38.5804
G01 X46.8449 Y38.6812
G01 X46.8452 Y39.0922
G01 X46.8392 Y39.2044
G01 X46.8367 Y39.2270
G01 X46.8198 Y39.3265
G01 X46.8147 Y39.3487
G01 X46.7868 Y39.4457
G01 X46.7792 Y39.4672
G01 X46.7401 Y39.5616
G01 X46.7307 Y39.5810
G01 X46.6819 Y39.6693
G01 X46.6698 Y39.6886
G01 X46.6114 Y39.7709
G01 X46.5972 Y39.7888
G01 X46.5299 Y39.8640
G01 X46.5138 Y39.8801
G01 X46.4385 Y39.9474
G01 X46.4207 Y39.9616
G01 X46.3361 Y40.0216
G01 X46.3191 Y40.0321
G01 X46.2308 Y40.0809
G01 X46.2103 Y40.0908
G01 X46.1170 Y40.1294
G01 X46.0955 Y40.1370
G01 X45.9985 Y40.1649
G01 X45.9763 Y40.1700
G01 X45.8768 Y40.1869
G01 X45.8542 Y40.1894
G01 X45.7534 Y40.1951
G01 X45.7306 Y40.1951
G01 X45.6298 Y40.1894
G01 X45.6072 Y40.1869
G01 X45.5032 Y40.1692
G01 X45.4855 Y40.1649
G01 X45.3885 Y40.1370
G01 X45.3670 Y40.1294
G01 X45.2727 Y40.0904
G01 X45.2532 Y40.0809
G01 X45.1649 Y40.0321
G01 X45.1456 Y40.0200
G01 X45.0633 Y39.9616
G01 X45.0455 Y39.9474
G01 X44.9702 Y39.8801
G01 X44.9541 Y39.8640
G01 X44.8868 Y39.7888
G01 X44.8726 Y39.7709
G01 X44.8126 Y39.6863
G01 X44.8021 Y39.6693
G01 X44.7533 Y39.5810
G01 X44.7434 Y39.5605
G01 X44.7048 Y39.4672
G01 X44.6972 Y39.4457
G01 X44.6693 Y39.3487
G01 X44.6642 Y39.3265
G01 X44.6473 Y39.2270
G01 X44.6448 Y39.2044
G01 X44.6388 Y39.0922
G01 X44.6388 Y38.6926
G01 X44.6452 Y38.5804
G00 Z2.5400
G00 X44.3925 Y24.1271
G01 F76.20
G01 Z-0.2000
G01 F76.20
G01 X44.3947 Y24.1044
G01 X44.4105 Y24.0114
G01 X44.4148 Y23.9937
G01 X44.4396 Y23.9075
G01 X44.4472 Y23.8860
G01 X44.4819 Y23.8020
G01 X44.4914 Y23.7826
G01 X44.5348 Y23.7041
G01 X44.5469 Y23.6848
G01 X44.5988 Y23.6116
G01 X44.6130 Y23.5938
G01 X44.6728 Y23.5269
G01 X44.6889 Y23.5108
G01 X44.7558 Y23.4510
G01 X44.7736 Y23.4368
G01 X44.8491 Y23.3833
G01 X44.8661 Y23.3728
G01 X44.9446 Y23.3294
G01 X44.9651 Y23.3195
G01 X45.0480 Y23.2852
G01 X45.0695 Y23.2776
G01 X45.1557 Y23.2528
G01 X45.1779 Y23.2477
G01 X45.2664 Y23.2327
G01 X45.2890 Y23.2301
G01 X45.3900 Y23.2248
G01 X45.4910 Y23.2301
G01 X45.5136 Y23.2327
G01 X45.6066 Y23.2485
G01 X45.6243 Y23.2528
G01 X45.7105 Y23.2776
G01 X45.7320 Y23.2852
G01 X45.8160 Y23.3199
G01 X45.8354 Y23.3294
G01 X45.9139 Y23.3728
G01 X45.9332 Y23.3849
G01 X46.0064 Y23.4368
G01 X46.0242 Y23.4510
G01 X46.0911 Y23.5108
G01 X46.1072 Y23.5269
G01 X46.1670 Y23.5938
G01 X46.1812 Y23.6116
G01 X46.2347 Y23.6871
G01 X46.2452 Y23.7041
G01 X46.2886 Y23.7826
G01 X46.2985 Y23.8031
G01 X46.3328 Y23.8860
G01 X46.3404 Y23.9075
G01 X46.3652 Y23.9937
G01 X46.3703 Y24.0159
G01 X46.3853 Y24.1044
G01 X46.3879 Y24.1270
G01 X46.3932 Y24.2280
G01 X46.3879 Y24.3290
G01 X46.3853 Y24.3516
G01 X46.3695 Y24.4446
G01 X46.3652 Y24.4623
G01 X46.3404 Y24.5485
G01 X46.3328 Y24.5700
G01 X46.2981 Y24.6540
G01 X46.2886 Y24.6734
G01 X46.2452 Y24.7519
G01 X46.2331 Y24.7712
G01 X46.1812 Y24.8444
G01 X46.1670 Y24.8622
G01 X46.1072 Y24.9291
G01 X46.0911 Y24.9452
G01 X46.0242 Y25.0050
G01 X46.0064 Y25.0192
G01 X45.9309 Y25.0727
G01 X45.9139 Y25.0832
G01 X45.8354 Y25.1266
G01 X45.8149 Y25.1365
G01 X45.7320 Y25.1708
G01 X45.7105 Y25.1784
G01 X45.6243 Y25.2032
G01 X45.6021 Y25.2083
G01 X45.5136 Y25.2233
G01 X45.4910 Y25.2259
G01 X45.3900 Y25.2312
G01 X45.2890 Y25.2259
G01 X45.2664 Y25.2233
G01 X45.1734 Y25.2075
G01 X45.1557 Y25.2032
G01 X45.0695 Y25.1784
G01 X45.0480 Y25.1708
G01 X44.9640 Y25.1361
G01 X44.9446 Y25.1266
G01 X44.8661 Y25.0832
G01 X44.8468 Y25.0711
G01 X44.7736 Y25.0192
G01 X44.7558 Y25.0050
G01 X44.6889 Y24.9452
G01 X44.6728 Y24.9291
G01 X44.6130 Y24.8622
G01 X44.5988 Y24.8444
G01 X44.5453 Y24.7689
G01 X44.5348 Y24.7519
G01 X44.4914 Y24.6734
G01 X44.4815 Y24.6529
G01 X44.4472 Y24.5700
G01 X44.4396 Y24.5485
G01 X44.4148 Y24.4623
G01 X44.4097 Y24.4401
G01 X44.3947 Y24.3516
G01 X44.3921 Y24.3290
G01 X44.3868 Y24.2280
G01 X44.3925 Y24.1271
G00 Z2.5400
G00 X44.3925 Y6.1271
G01 F76.20
G01 Z-0.2000
G01 F76.20
G01 X44.3947 Y6.1044
G01 X44.4105 Y6.0114
G01 X44.4148 Y5.9937
G01 X44.4396 Y5.9075
G01 X44.4472 Y5.8860
G01 X44.4819 Y5.8020
G01 X44.4914 Y5.7826
G01 X44.5348 Y5.7041
G01 X44.5469 Y5.6848
G01 X44.5988 Y5.6116
G01 X44.6130 Y5.5938
G01 X44.6728 Y5.5269
G01 X44.6889 Y5.5108
G01 X44.7558 Y5.4510
G01 X44.7736 Y5.4368
G01 X44.8491 Y5.3833
G01 X44.8661 Y5.3728
G01 X44.9446 Y5.3294
G01 X44.9651 Y5.3195
G01 X45.0480 Y5.2852
G01 X45.0695 Y5.2776
G01 X45.1557 Y5.2528
G01 X45.1779 Y5.2477
G01 X45.2664 Y5.2327
G01 X45.2890 Y5.2301
G01 X45.3900 Y5.2248
G01 X45.4910 Y5.2301
