(G-CODE GENERATED BY FLATCAM v8.912 - www.flatcam.org - Version Date: 2019/03/17)

(Name: CAPA ARRIBA_cnc)
(Type: G-code from Geometry)
(Units: MM)

(Created on Friday, 12 April 2019 at 10:52)

(TOOL DIAMETER: 0.41 mm)
(Feedrate: 76.2 mm/min)
(Feedrate_Z: 76.2 mm/min)
(Feedrate rapids 76.2 mm/min)

(Z_Cut: -0.2 mm)
(Z_Move: 2.54 mm)
(Z Toolchange: 25.4 mm)
(X,Y Toolchange: 0.0000, 0.0000 mm)
(Z Start: None mm)
(Z End: 50.8 mm)
(Steps per circle: 64)
(Postprocessor Geometry: default)

(X range:    0.1904 ...   48.8450  mm)
(Y range:    0.8781 ...   55.4354  mm)

(Spindle Speed: None RPM)

G21
G90
G94

G01 F76.20
G00 Z2.5400

M03
G00 X8.0875 Y18.1331
G01 F76.20
G01 Z-0.2000
G01 F76.20
G01 X8.0420 Y18.1408
G01 X8.0194 Y18.1434
G01 X7.9074 Y18.1497
G01 X7.8846 Y18.1497
G01 X7.7613 Y18.1424
G01 X7.6283 Y18.1198
G01 X7.4986 Y18.0825
G01 X7.3740 Y18.0308
G01 X7.2559 Y17.9656
G01 X7.1549 Y17.8944
G01 X7.1371 Y17.8801
G01 X7.0452 Y17.7976
G01 X6.9627 Y17.7057
G01 X6.9484 Y17.6879
G01 X6.8836 Y17.5964
G01 X6.8714 Y17.5771
G01 X6.8120 Y17.4688
G01 X6.7603 Y17.3442
G01 X6.7230 Y17.2145
G01 X6.7020 Y17.0928
G01 X6.6994 Y17.0702
G01 X6.6928 Y16.9468
G01 X6.6994 Y16.8234
G01 X6.7020 Y16.8008
G01 X6.7207 Y16.6902
G01 X6.7258 Y16.6680
G01 X6.7603 Y16.5494
G01 X6.8120 Y16.4248
G01 X6.8772 Y16.3067
G01 X6.9553 Y16.1966
G01 X7.0452 Y16.0960
G01 X7.1371 Y16.0135
G01 X7.1549 Y15.9992
G01 X7.2464 Y15.9344
G01 X7.2657 Y15.9222
G01 X7.3740 Y15.8628
G01 X7.4986 Y15.8111
G01 X7.6283 Y15.7738
G01 X7.7500 Y15.7528
G01 X7.7726 Y15.7502
G01 X7.8960 Y15.7436
G01 X8.0307 Y15.7512
G01 X8.1637 Y15.7738
G01 X8.2934 Y15.8111
G01 X8.4180 Y15.8628
G01 X8.5361 Y15.9280
G01 X8.6462 Y16.0061
G01 X8.7468 Y16.0960
G01 X8.8367 Y16.1966
G01 X8.9148 Y16.3067
G01 X8.9800 Y16.4248
G01 X9.0317 Y16.5494
G01 X9.0690 Y16.6791
G01 X9.0916 Y16.8121
G01 X9.0989 Y16.9354
G01 X9.0989 Y16.9582
G01 X9.0916 Y17.0815
G01 X9.0823 Y17.1383
G01 X9.3083 Y17.3643
G01 X9.3003 Y17.3442
G01 X9.2969 Y17.3333
G01 X9.2630 Y17.2145
G01 X9.2420 Y17.0928
G01 X9.2394 Y17.0702
G01 X9.2328 Y16.9468
G01 X9.2394 Y16.8234
G01 X9.2420 Y16.8008
G01 X9.2607 Y16.6902
G01 X9.2658 Y16.6680
G01 X9.3003 Y16.5494
G01 X9.3473 Y16.4352
G01 X9.3572 Y16.4146
G01 X9.4172 Y16.3067
G01 X9.4884 Y16.2057
G01 X9.5027 Y16.1879
G01 X9.5852 Y16.0960
G01 X9.6858 Y16.0061
G01 X9.7864 Y15.9344
G01 X9.8057 Y15.9222
G01 X9.9140 Y15.8628
G01 X10.0280 Y15.8152
G01 X10.0495 Y15.8077
G01 X10.1683 Y15.7738
G01 X10.2900 Y15.7528
G01 X10.3126 Y15.7502
G01 X10.4360 Y15.7436
G01 X10.5594 Y15.7502
G01 X10.5820 Y15.7528
G01 X10.7037 Y15.7738
G01 X10.8225 Y15.8077
G01 X10.8440 Y15.8152
G01 X10.9580 Y15.8628
G01 X11.0761 Y15.9280
G01 X11.1862 Y16.0061
G01 X11.2868 Y16.0960
G01 X11.3767 Y16.1966
G01 X11.4484 Y16.2972
G01 X11.4606 Y16.3165
G01 X11.5148 Y16.4146
G01 X11.5247 Y16.4352
G01 X11.5717 Y16.5494
G01 X11.6062 Y16.6680
G01 X11.6113 Y16.6902
G01 X11.6316 Y16.8121
G01 X11.6392 Y16.9468
G01 X11.6316 Y17.0815
G01 X11.6090 Y17.2145
G01 X11.5717 Y17.3442
G01 X11.5247 Y17.4584
G01 X11.5148 Y17.4790
G01 X11.4548 Y17.5869
G01 X11.3836 Y17.6879
G01 X11.3693 Y17.7057
G01 X11.2946 Y17.7893
G01 X11.2785 Y17.8054
G01 X11.1862 Y17.8875
G01 X11.1080 Y17.9434
G01 X13.1026 Y17.9434
G01 X13.7553 Y17.2907
G01 X13.7476 Y17.2452
G01 X13.7450 Y17.2226
G01 X13.7387 Y17.1106
G01 X13.7387 Y17.0878
G01 X13.7460 Y16.9645
G01 X13.7663 Y16.8426
G01 X13.7714 Y16.8204
G01 X13.8059 Y16.7018
G01 X13.8576 Y16.5772
G01 X13.9228 Y16.4591
G01 X14.0009 Y16.3490
G01 X14.0908 Y16.2484
G01 X14.1827 Y16.1659
G01 X14.2005 Y16.1516
G01 X14.3015 Y16.0804
G01 X14.4196 Y16.0152
G01 X14.5336 Y15.9676
G01 X14.5551 Y15.9601
G01 X14.6628 Y15.9290
G01 X14.6850 Y15.9239
G01 X14.8069 Y15.9036
G01 X14.9416 Y15.8960
G01 X15.0763 Y15.9036
G01 X15.2093 Y15.9262
G01 X15.3390 Y15.9635
G01 X15.4636 Y16.0152
G01 X15.5817 Y16.0804
G01 X15.6827 Y16.1516
G01 X15.7005 Y16.1659
G01 X15.7924 Y16.2484
G01 X15.8749 Y16.3403
G01 X15.8892 Y16.3581
G01 X15.9540 Y16.4496
G01 X15.9662 Y16.4689
G01 X16.0256 Y16.5772
G01 X16.0773 Y16.7018
G01 X16.1146 Y16.8315
G01 X16.1356 Y16.9532
G01 X16.1382 Y16.9758
G01 X16.1448 Y17.0992
G01 X16.1372 Y17.2339
G01 X16.1146 Y17.3669
G01 X16.0773 Y17.4966
G01 X16.0256 Y17.6212
G01 X15.9604 Y17.7393
G01 X15.8823 Y17.8494
G01 X15.8002 Y17.9417
G01 X15.7841 Y17.9578
G01 X15.6918 Y18.0399
G01 X15.5817 Y18.1180
G01 X15.4636 Y18.1832
G01 X15.3496 Y18.2308
G01 X15.3281 Y18.2383
G01 X15.2093 Y18.2722
G01 X15.0876 Y18.2932
G01 X15.0650 Y18.2958
G01 X14.9530 Y18.3021
G01 X14.9302 Y18.3021
G01 X14.8069 Y18.2948
G01 X14.7501 Y18.2855
G01 X13.8914 Y19.1442
G01 X13.8326 Y19.1968
G01 X13.7683 Y19.2424
G01 X13.7093 Y19.2754
G01 X13.6888 Y19.2852
G01 X13.6263 Y19.3108
G01 X13.5616 Y19.3298
G01 X13.5394 Y19.3348
G01 X13.4840 Y19.3442
G01 X13.4614 Y19.3468
G01 X13.3940 Y19.3503
G01 X9.5960 Y19.3503
G01 X9.5172 Y19.3458
G01 X9.4395 Y19.3326
G01 X9.3637 Y19.3108
G01 X9.2908 Y19.2806
G01 X9.2217 Y19.2424
G01 X9.1665 Y19.2036
G01 X9.1487 Y19.1894
G01 X9.0986 Y19.1442
G01 X8.0875 Y18.1331
G00 Z2.5400
G00 X9.3021 Y26.1302
G01 F76.20
G01 Z-0.2000
G01 F76.20
G01 X9.3021 Y26.1530
G01 X9.2948 Y26.2763
G01 X9.2745 Y26.3982
G01 X9.2694 Y26.4204
G01 X9.2383 Y26.5281
G01 X9.2308 Y26.5496
G01 X9.1832 Y26.6636
G01 X9.1180 Y26.7817
G01 X9.0399 Y26.8918
G01 X8.9500 Y26.9924
G01 X8.8494 Y27.0823
G01 X8.7488 Y27.1540
G01 X8.7295 Y27.1662
G01 X8.6314 Y27.2204
G01 X8.6108 Y27.2303
G01 X8.4966 Y27.2773
G01 X8.3669 Y27.3146
G01 X8.2339 Y27.3372
G01 X8.0992 Y27.3448
G01 X7.9645 Y27.3372
G01 X7.8426 Y27.3169
G01 X7.8204 Y27.3118
G01 X7.7127 Y27.2807
G01 X7.6912 Y27.2732
G01 X7.5772 Y27.2256
G01 X7.4591 Y27.1604
G01 X7.3490 Y27.0823
G01 X7.2484 Y26.9924
G01 X7.1585 Y26.8918
G01 X7.0868 Y26.7912
G01 X7.0746 Y26.7719
G01 X7.0204 Y26.6738
G01 X7.0105 Y26.6532
G01 X6.9635 Y26.5390
G01 X6.9262 Y26.4093
G01 X6.9036 Y26.2763
G01 X6.8960 Y26.1416
G01 X6.9036 Y26.0069
G01 X6.9239 Y25.8850
G01 X6.9290 Y25.8628
G01 X6.9601 Y25.7551
G01 X6.9676 Y25.7336
G01 X7.0152 Y25.6196
G01 X7.0804 Y25.5015
G01 X7.1585 Y25.3914
G01 X7.2484 Y25.2908
G01 X7.3490 Y25.2009
G01 X7.4496 Y25.1292
G01 X7.4689 Y25.1170
G01 X7.5670 Y25.0628
G01 X7.5876 Y25.0529
G01 X7.7018 Y25.0059
G01 X7.8315 Y24.9686
G01 X7.9645 Y24.9460
G01 X8.0992 Y24.9384
G01 X8.2339 Y24.9460
G01 X8.3558 Y24.9663
G01 X8.3780 Y24.9714
G01 X8.4857 Y25.0025
G01 X8.5072 Y25.0100
G01 X8.6212 Y25.0576
G01 X8.7393 Y25.1228
G01 X8.8494 Y25.2009
G01 X8.9500 Y25.2908
G01 X9.0399 Y25.3914
G01 X9.1116 Y25.4920
G01 X9.1238 Y25.5113
G01 X9.1780 Y25.6094
G01 X9.1879 Y25.6300
G01 X9.2349 Y25.7442
G01 X9.2722 Y25.8739
G01 X9.2948 Y26.0069
G01 X9.3021 Y26.1302
G00 Z2.5400
G00 X9.3021 Y35.4774
G01 F76.20
G01 Z-0.2000
G01 F76.20
G01 X9.3021 Y35.5002
G01 X9.2948 Y35.6235
G01 X9.2745 Y35.7454
G01 X9.2694 Y35.7676
G01 X9.2383 Y35.8753
G01 X9.2308 Y35.8968
G01 X9.1832 Y36.0108
G01 X9.1180 Y36.1289
G01 X9.0399 Y36.2390
G01 X8.9500 Y36.3396
G01 X8.8494 Y36.4295
G01 X8.7488 Y36.5012
G01 X8.7295 Y36.5134
G01 X8.6314 Y36.5676
G01 X8.6108 Y36.5775
G01 X8.4966 Y36.6245
G01 X8.3669 Y36.6618
G01 X8.2339 Y36.6844
G01 X8.0992 Y36.6920
G01 X7.9645 Y36.6844
G01 X7.8426 Y36.6641
G01 X7.8204 Y36.6590
G01 X7.7127 Y36.6279
G01 X7.6912 Y36.6204
G01 X7.5772 Y36.5728
G01 X7.4591 Y36.5076
G01 X7.3490 Y36.4295
G01 X7.2484 Y36.3396
G01 X7.1585 Y36.2390
G01 X7.0868 Y36.1384
G01 X7.0746 Y36.1191
G01 X7.0204 Y36.0210
G01 X7.0105 Y36.0004
G01 X6.9635 Y35.8862
G01 X6.9262 Y35.7565
G01 X6.9036 Y35.6235
G01 X6.8960 Y35.4888
G01 X6.9036 Y35.3541
G01 X6.9239 Y35.2322
G01 X6.9290 Y35.2100
G01 X6.9601 Y35.1023
G01 X6.9676 Y35.0808
G01 X7.0152 Y34.9668
G01 X7.0804 Y34.8487
G01 X7.1585 Y34.7386
G01 X7.2484 Y34.6380
G01 X7.3490 Y34.5481
G01 X7.4496 Y34.4764
G01 X7.4689 Y34.4642
G01 X7.5670 Y34.4100
G01 X7.5876 Y34.4001
G01 X7.7018 Y34.3531
G01 X7.8315 Y34.3158
G01 X7.9645 Y34.2932
G01 X8.0992 Y34.2856
G01 X8.2339 Y34.2932
G01 X8.3558 Y34.3135
G01 X8.3780 Y34.3186
G01 X8.4857 Y34.3497
G01 X8.5072 Y34.3572
G01 X8.6212 Y34.4048
G01 X8.7393 Y34.4700
G01 X8.8494 Y34.5481
G01 X8.9500 Y34.6380
G01 X9.0399 Y34.7386
G01 X9.1116 Y34.8392
G01 X9.1238 Y34.8585
G01 X9.1780 Y34.9566
G01 X9.1879 Y34.9772
G01 X9.2349 Y35.0914
G01 X9.2722 Y35.2211
G01 X9.2948 Y35.3541
G01 X9.3021 Y35.4774
G00 Z2.5400
G00 X11.8421 Y35.4774
G01 F76.20
G01 Z-0.2000
G01 F76.20
G01 X11.8421 Y35.5002
G01 X11.8348 Y35.6235
G01 X11.8145 Y35.7454
G01 X11.8094 Y35.7676
G01 X11.7783 Y35.8753
G01 X11.7708 Y35.8968
G01 X11.7232 Y36.0108
G01 X11.6580 Y36.1289
G01 X11.5799 Y36.2390
G01 X11.4900 Y36.3396
G01 X11.3894 Y36.4295
G01 X11.2888 Y36.5012
G01 X11.2695 Y36.5134
G01 X11.1714 Y36.5676
G01 X11.1508 Y36.5775
G01 X11.0366 Y36.6245
G01 X10.9069 Y36.6618
G01 X10.7739 Y36.6844
G01 X10.6392 Y36.6920
G01 X10.5045 Y36.6844
G01 X10.3826 Y36.6641
G01 X10.3604 Y36.6590
G01 X10.2527 Y36.6279
G01 X10.2312 Y36.6204
G01 X10.1172 Y36.5728
G01 X9.9991 Y36.5076
G01 X9.8890 Y36.4295
G01 X9.7884 Y36.3396
G01 X9.6985 Y36.2390
G01 X9.6268 Y36.1384
G01 X9.6146 Y36.1191
G01 X9.5604 Y36.0210
G01 X9.5505 Y36.0004
G01 X9.5035 Y35.8862
G01 X9.4662 Y35.7565
G01 X9.4436 Y35.6235
G01 X9.4360 Y35.4888
G01 X9.4436 Y35.3541
G01 X9.4639 Y35.2322
G01 X9.4690 Y35.2100
G01 X9.5001 Y35.1023
G01 X9.5076 Y35.0808
G01 X9.5552 Y34.9668
G01 X9.6204 Y34.8487
G01 X9.6985 Y34.7386
G01 X9.7884 Y34.6380
G01 X9.8890 Y34.5481
G01 X9.9896 Y34.4764
G01 X10.0089 Y34.4642
G01 X10.1070 Y34.4100
G01 X10.1276 Y34.4001
G01 X10.2418 Y34.3531
G01 X10.3715 Y34.3158
G01 X10.5045 Y34.2932
G01 X10.6392 Y34.2856
G01 X10.7739 Y34.2932
G01 X10.8958 Y34.3135
G01 X10.9180 Y34.3186
G01 X11.0257 Y34.3497
G01 X11.0472 Y34.3572
G01 X11.1612 Y34.4048
G01 X11.2793 Y34.4700
G01 X11.3894 Y34.5481
G01 X11.4900 Y34.6380
G01 X11.5799 Y34.7386
G01 X11.6516 Y34.8392
G01 X11.6638 Y34.8585
G01 X11.7180 Y34.9566
G01 X11.7279 Y34.9772
G01 X11.7749 Y35.0914
G01 X11.8122 Y35.2211
G01 X11.8348 Y35.3541
G01 X11.8421 Y35.4774
G00 Z2.5400
G00 X16.6794 Y36.3313
G01 F76.20
G01 Z-0.2000
G01 F76.20
G01 X16.6633 Y36.3474
G01 X16.5710 Y36.4295
G01 X16.4704 Y36.5012
G01 X16.4511 Y36.5134
G01 X16.3530 Y36.5676
G01 X16.3324 Y36.5775
G01 X16.2182 Y36.6245
G01 X16.0885 Y36.6618
G01 X15.9555 Y36.6844
G01 X15.8208 Y36.6920
G01 X15.6861 Y36.6844
G01 X15.5642 Y36.6641
G01 X15.5420 Y36.6590
G01 X15.4343 Y36.6279
G01 X15.4128 Y36.6204
G01 X15.2988 Y36.5728
G01 X15.1807 Y36.5076
G01 X15.0706 Y36.4295
G01 X14.9700 Y36.3396
G01 X14.8801 Y36.2390
G01 X14.8084 Y36.1384
G01 X14.7962 Y36.1191
G01 X14.7420 Y36.0210
G01 X14.7321 Y36.0004
G01 X14.6851 Y35.8862
G01 X14.6478 Y35.7565
G01 X14.6252 Y35.6235
G01 X14.6176 Y35.4888
G01 X14.6252 Y35.3541
G01 X14.6455 Y35.2322
G01 X14.6506 Y35.2100
G01 X14.6817 Y35.1023
G01 X14.6892 Y35.0808
G01 X14.7368 Y34.9668
G01 X14.8020 Y34.8487
G01 X14.8801 Y34.7386
G01 X14.9700 Y34.6380
G01 X15.0706 Y34.5481
G01 X15.1712 Y34.4764
G01 X15.1905 Y34.4642
G01 X15.2886 Y34.4100
G01 X15.3092 Y34.4001
G01 X15.4234 Y34.3531
G01 X15.5531 Y34.3158
G01 X15.6861 Y34.2932
G01 X15.8208 Y34.2856
G01 X15.9555 Y34.2932
G01 X16.0774 Y34.3135
G01 X16.0996 Y34.3186
G01 X16.2073 Y34.3497
G01 X16.2288 Y34.3572
G01 X16.3428 Y34.4048
G01 X16.4609 Y34.4700
G01 X16.5710 Y34.5481
G01 X16.6716 Y34.6380
G01 X16.7615 Y34.7386
G01 X16.8332 Y34.8392
G01 X16.8454 Y34.8585
G01 X16.8996 Y34.9566
G01 X16.9095 Y34.9772
G01 X16.9565 Y35.0914
G01 X16.9938 Y35.2211
G01 X17.0164 Y35.3541
G01 X17.0240 Y35.4888
G01 X17.0164 Y35.6235
G01 X16.9961 Y35.7454
G01 X16.9910 Y35.7676
G01 X16.9599 Y35.8753
G01 X16.9524 Y35.8968
G01 X16.9048 Y36.0108
G01 X16.8396 Y36.1289
G01 X16.7615 Y36.2390
G01 X16.6794 Y36.3313
G00 Z2.5400
G00 X17.4275 Y36.2477
G01 F76.20
G01 Z-0.2000
G01 F76.20
G01 X17.4132 Y36.2299
G01 X17.3484 Y36.1384
G01 X17.3362 Y36.1191
G01 X17.2768 Y36.0108
G01 X17.2292 Y35.8968
G01 X17.2217 Y35.8753
G01 X17.1878 Y35.7565
G01 X17.1652 Y35.6235
G01 X17.1576 Y35.4888
G01 X17.1652 Y35.3541
G01 X17.1878 Y35.2211
G01 X17.2217 Y35.1023
G01 X17.2292 Y35.0808
G01 X17.2721 Y34.9772
G01 X17.2820 Y34.9566
G01 X17.3420 Y34.8487
G01 X17.4201 Y34.7386
G01 X17.5100 Y34.6380
G01 X17.6106 Y34.5481
G01 X17.7207 Y34.4700
G01 X17.8388 Y34.4048
G01 X17.9634 Y34.3531
G01 X18.0820 Y34.3186
G01 X18.1042 Y34.3135
G01 X18.2148 Y34.2948
G01 X18.2374 Y34.2922
G01 X18.3608 Y34.2856
G01 X18.4955 Y34.2932
G01 X18.6285 Y34.3158
G01 X18.7473 Y34.3497
G01 X18.7688 Y34.3572
G01 X18.8724 Y34.4001
G01 X18.8930 Y34.4100
G01 X19.0009 Y34.4700
G01 X19.1110 Y34.5481
G01 X19.2116 Y34.6380
G01 X19.3015 Y34.7386
G01 X19.3796 Y34.8487
G01 X19.4396 Y34.9566
G01 X19.4495 Y34.9772
G01 X19.4924 Y35.0808
G01 X19.4999 Y35.1023
G01 X19.5338 Y35.2211
G01 X19.5564 Y35.3541
G01 X19.5640 Y35.4888
G01 X19.5564 Y35.6235
G01 X19.5338 Y35.7565
G01 X19.4999 Y35.8753
G01 X19.4924 Y35.8968
G01 X19.4495 Y36.0004
G01 X19.4396 Y36.0210
G01 X19.3796 Y36.1289
G01 X19.3015 Y36.2390
G01 X19.2116 Y36.3396
G01 X19.1110 Y36.4295
G01 X19.0009 Y36.5076
G01 X18.8828 Y36.5728
G01 X18.7582 Y36.6245
G01 X18.6396 Y36.6590
G01 X18.6174 Y36.6641
G01 X18.5068 Y36.6828
G01 X18.4842 Y36.6854
G01 X18.3608 Y36.6920
G01 X18.2261 Y36.6844
G01 X18.0931 Y36.6618
G01 X17.9743 Y36.6279
G01 X17.9528 Y36.6204
G01 X17.8492 Y36.5775
G01 X17.8286 Y36.5676
G01 X17.7207 Y36.5076
G01 X17.6106 Y36.4295
G01 X17.5100 Y36.3396
G01 X17.4275 Y36.2477
G00 Z2.5400
G00 X16.9468 Y39.7888
G01 F76.20
G01 Z-0.2000
G01 F76.20
G01 X16.9326 Y39.7709
G01 X16.8742 Y39.6886
G01 X16.8621 Y39.6693
G01 X16.8080 Y39.5709
G01 X16.7607 Y39.4566
G01 X16.7293 Y39.3487
G01 X16.7242 Y39.3265
G01 X16.7057 Y39.2157
G01 X16.6988 Y39.0922
G01 X16.6991 Y38.6812
G01 X16.7057 Y38.5691
G01 X16.7265 Y38.4471
G01 X16.7607 Y38.3282
G01 X16.8080 Y38.2139
G01 X16.8679 Y38.1056
G01 X16.9395 Y38.0047
G01 X17.0219 Y37.9125
G01 X17.1055 Y37.8374
G01 X17.1233 Y37.8232
G01 X17.2056 Y37.7648
G01 X17.2249 Y37.7527
G01 X17.3233 Y37.6986
G01 X17.4376 Y37.6513
G01 X17.5565 Y37.6170
G01 X17.6785 Y37.5963
G01 X17.8020 Y37.5894
G01 X17.9142 Y37.5954
G01 X17.9368 Y37.5979
G01 X18.0363 Y37.6148
G01 X18.0585 Y37.6199
G01 X18.1664 Y37.6513
G01 X18.2807 Y37.6986
G01 X18.3889 Y37.7585
G01 X18.4898 Y37.8301
G01 X18.5821 Y37.9125
G01 X18.6645 Y38.0047
G01 X18.7361 Y38.1056
G01 X18.7907 Y38.2038
G01 X18.8006 Y38.2243
G01 X18.8392 Y38.3176
G01 X18.8468 Y38.3391
G01 X18.8775 Y38.4471
G01 X18.8983 Y38.5691
G01 X18.9052 Y38.6926
G01 X18.9051 Y39.0979
G01 X18.8983 Y39.2157
G01 X18.8798 Y39.3265
G01 X18.8747 Y39.3487
G01 X18.8433 Y39.4566
G01 X18.7960 Y39.5709
G01 X18.7361 Y39.6792
G01 X18.6645 Y39.7801
G01 X18.5821 Y39.8723
G01 X18.4898 Y39.9547
G01 X18.3889 Y40.0263
G01 X18.2807 Y40.0862
G01 X18.1664 Y40.1335
G01 X18.0475 Y40.1678
G01 X17.9255 Y40.1885
G01 X17.8020 Y40.1954
G01 X17.6785 Y40.1885
G01 X17.5565 Y40.1678
G01 X17.4376 Y40.1335
G01 X17.3233 Y40.0862
G01 X17.2151 Y40.0263
G01 X17.1142 Y39.9547
G01 X17.0219 Y39.8723
G01 X16.9468 Y39.7888
G00 Z2.5400
G00 X19.4868 Y39.7888
G01 F76.20
G01 Z-0.2000
G01 F76.20
G01 X19.4726 Y39.7709
G01 X19.4142 Y39.6886
G01 X19.4021 Y39.6693
G01 X19.3480 Y39.5709
G01 X19.3007 Y39.4566
G01 X19.2693 Y39.3487
G01 X19.2642 Y39.3265
G01 X19.2457 Y39.2157
G01 X19.2388 Y39.0922
G01 X19.2391 Y38.6812
G01 X19.2457 Y38.5691
G01 X19.2665 Y38.4471
G01 X19.3007 Y38.3282
G01 X19.3480 Y38.2139
G01 X19.4079 Y38.1056
G01 X19.4795 Y38.0047
G01 X19.5619 Y37.9125
G01 X19.6455 Y37.8374
G01 X19.6633 Y37.8232
G01 X19.7456 Y37.7648
G01 X19.7649 Y37.7527
G01 X19.8633 Y37.6986
G01 X19.9776 Y37.6513
G01 X20.0965 Y37.6170
G01 X20.2185 Y37.5963
G01 X20.3420 Y37.5894
G01 X20.4542 Y37.5954
G01 X20.4768 Y37.5979
G01 X20.5763 Y37.6148
G01 X20.5985 Y37.6199
G01 X20.7064 Y37.6513
G01 X20.8207 Y37.6986
G01 X20.9289 Y37.7585
G01 X21.0298 Y37.8301
G01 X21.1221 Y37.9125
G01 X21.2045 Y38.0047
G01 X21.2761 Y38.1056
G01 X21.3307 Y38.2038
G01 X21.3406 Y38.2243
G01 X21.3792 Y38.3176
G01 X21.3868 Y38.3391
G01 X21.4175 Y38.4471
G01 X21.4383 Y38.5691
G01 X21.4452 Y38.6926
G01 X21.4451 Y39.0979
G01 X21.4383 Y39.2157
G01 X21.4198 Y39.3265
G01 X21.4147 Y39.3487
G01 X21.3833 Y39.4566
G01 X21.3360 Y39.5709
G01 X21.2761 Y39.6792
G01 X21.2045 Y39.7801
G01 X21.1221 Y39.8723
G01 X21.0298 Y39.9547
G01 X20.9289 Y40.0263
G01 X20.8207 Y40.0862
G01 X20.7064 Y40.1335
G01 X20.5875 Y40.1678
G01 X20.4655 Y40.1885
G01 X20.3420 Y40.1954
G01 X20.2185 Y40.1885
G01 X20.0965 Y40.1678
G01 X19.9776 Y40.1335
G01 X19.8633 Y40.0862
G01 X19.7551 Y40.0263
G01 X19.6542 Y39.9547
G01 X19.5619 Y39.8723
G01 X19.4868 Y39.7888
G00 Z2.5400
G00 X25.8368 Y42.3288
G01 F76.20
G01 Z-0.2000
G01 F76.20
G01 X25.8226 Y42.3109
G01 X25.7642 Y42.2286
G01 X25.7521 Y42.2093
G01 X25.6980 Y42.1109
G01 X25.6507 Y41.9966
G01 X25.6193 Y41.8887
G01 X25.6142 Y41.8665
G01 X25.5957 Y41.7557
G01 X25.5888 Y41.6322
G01 X25.5891 Y41.2212
G01 X25.5957 Y41.1091
G01 X25.6165 Y40.9871
G01 X25.6507 Y40.8682
G01 X25.6980 Y40.7539
G01 X25.7579 Y40.6456
G01 X25.8295 Y40.5447
G01 X25.9119 Y40.4525
G01 X25.9955 Y40.3774
G01 X26.0133 Y40.3632
G01 X26.0956 Y40.3048
G01 X26.1149 Y40.2927
G01 X26.2133 Y40.2386
G01 X26.3276 Y40.1913
G01 X26.4465 Y40.1570
G01 X26.5685 Y40.1363
G01 X26.6920 Y40.1294
G01 X26.8042 Y40.1354
G01 X26.8268 Y40.1379
G01 X26.9263 Y40.1548
G01 X26.9485 Y40.1599
G01 X27.0564 Y40.1913
G01 X27.1707 Y40.2386
G01 X27.2789 Y40.2985
G01 X27.3798 Y40.3701
G01 X27.4721 Y40.4525
G01 X27.5545 Y40.5447
G01 X27.6261 Y40.6456
G01 X27.6807 Y40.7438
G01 X27.6906 Y40.7643
G01 X27.7292 Y40.8576
G01 X27.7368 Y40.8791
G01 X27.7675 Y40.9871
G01 X27.7883 Y41.1091
G01 X27.7952 Y41.2326
G01 X27.7951 Y41.6379
G01 X27.7883 Y41.7557
G01 X27.7698 Y41.8665
G01 X27.7647 Y41.8887
G01 X27.7333 Y41.9966
G01 X27.6860 Y42.1109
G01 X27.6261 Y42.2192
G01 X27.5545 Y42.3201
G01 X27.4721 Y42.4123
G01 X27.3798 Y42.4947
G01 X27.2789 Y42.5663
G01 X27.1707 Y42.6262
G01 X27.0564 Y42.6735
G01 X26.9375 Y42.7078
G01 X26.8155 Y42.7285
G01 X26.6920 Y42.7354
G01 X26.5685 Y42.7285
G01 X26.4465 Y42.7078
G01 X26.3276 Y42.6735
G01 X26.2133 Y42.6262
G01 X26.1051 Y42.5663
G01 X26.0042 Y42.4947
G01 X25.9119 Y42.4123
G01 X25.8368 Y42.3288
G00 Z2.5400
G00 X28.3768 Y42.3288
G01 F76.20
G01 Z-0.2000
G01 F76.20
G01 X28.3626 Y42.3109
G01 X28.3042 Y42.2286
G01 X28.2921 Y42.2093
G01 X28.2380 Y42.1109
G01 X28.1907 Y41.9966
G01 X28.1593 Y41.8887
G01 X28.1542 Y41.8665
G01 X28.1357 Y41.7557
G01 X28.1288 Y41.6322
G01 X28.1291 Y41.2212
G01 X28.1357 Y41.1091
G01 X28.1565 Y40.9871
G01 X28.1907 Y40.8682
G01 X28.2380 Y40.7539
G01 X28.2979 Y40.6456
G01 X28.3695 Y40.5447
G01 X28.4519 Y40.4525
G01 X28.5355 Y40.3774
G01 X28.5533 Y40.3632
G01 X28.6356 Y40.3048
G01 X28.6549 Y40.2927
G01 X28.7533 Y40.2386
G01 X28.8676 Y40.1913
G01 X28.9865 Y40.1570
G01 X29.1085 Y40.1363
G01 X29.2320 Y40.1294
G01 X29.3442 Y40.1354
G01 X29.3668 Y40.1379
G01 X29.4663 Y40.1548
G01 X29.4885 Y40.1599
G01 X29.5964 Y40.1913
G01 X29.7107 Y40.2386
G01 X29.8189 Y40.2985
G01 X29.9198 Y40.3701
G01 X30.0121 Y40.4525
G01 X30.0945 Y40.5447
G01 X30.1661 Y40.6456
G01 X30.2207 Y40.7438
G01 X30.2306 Y40.7643
G01 X30.2692 Y40.8576
G01 X30.2768 Y40.8791
G01 X30.3075 Y40.9871
G01 X30.3283 Y41.1091
G01 X30.3352 Y41.2326
G01 X30.3351 Y41.6379
G01 X30.3283 Y41.7557
G01 X30.3098 Y41.8665
G01 X30.3047 Y41.8887
G01 X30.2733 Y41.9966
G01 X30.2260 Y42.1109
G01 X30.1661 Y42.2192
G01 X30.0945 Y42.3201
G01 X30.0121 Y42.4123
G01 X29.9198 Y42.4947
G01 X29.8189 Y42.5663
G01 X29.7107 Y42.6262
G01 X29.5964 Y42.6735
G01 X29.4775 Y42.7078
G01 X29.3555 Y42.7285
G01 X29.2320 Y42.7354
G01 X29.1085 Y42.7285
G01 X28.9865 Y42.7078
G01 X28.8676 Y42.6735
G01 X28.7533 Y42.6262
G01 X28.6451 Y42.5663
G01 X28.5442 Y42.4947
G01 X28.4519 Y42.4123
G01 X28.3768 Y42.3288
G00 Z2.5400
G00 X29.6468 Y39.7888
G01 F76.20
G01 Z-0.2000
G01 F76.20
G01 X29.6326 Y39.7709
G01 X29.5742 Y39.6886
G01 X29.5621 Y39.6693
G01 X29.5080 Y39.5709
G01 X29.4607 Y39.4566
G01 X29.4293 Y39.3487
G01 X29.4242 Y39.3265
G01 X29.4057 Y39.2157
G01 X29.3988 Y39.0922
G01 X29.3991 Y38.6812
G01 X29.4057 Y38.5691
G01 X29.4265 Y38.4471
G01 X29.4607 Y38.3282
G01 X29.5080 Y38.2139
G01 X29.5679 Y38.1056
G01 X29.6395 Y38.0047
G01 X29.7219 Y37.9125
G01 X29.8055 Y37.8374
G01 X29.8233 Y37.8232
G01 X29.9056 Y37.7648
G01 X29.9249 Y37.7527
G01 X30.0233 Y37.6986
G01 X30.1376 Y37.6513
G01 X30.2565 Y37.6170
G01 X30.3785 Y37.5963
G01 X30.5020 Y37.5894
G01 X30.6142 Y37.5954
G01 X30.6368 Y37.5979
G01 X30.7363 Y37.6148
G01 X30.7585 Y37.6199
G01 X30.8664 Y37.6513
G01 X30.9807 Y37.6986
G01 X31.0889 Y37.7585
G01 X31.1898 Y37.8301
G01 X31.2821 Y37.9125
G01 X31.3645 Y38.0047
G01 X31.4361 Y38.1056
G01 X31.4907 Y38.2038
G01 X31.5006 Y38.2243
G01 X31.5392 Y38.3176
G01 X31.5468 Y38.3391
G01 X31.5775 Y38.4471
G01 X31.5983 Y38.5691
G01 X31.6052 Y38.6926
G01 X31.6051 Y39.0979
G01 X31.5983 Y39.2157
G01 X31.5798 Y39.3265
G01 X31.5747 Y39.3487
G01 X31.5433 Y39.4566
G01 X31.4960 Y39.5709
G01 X31.4361 Y39.6792
G01 X31.3645 Y39.7801
G01 X31.2821 Y39.8723
G01 X31.1898 Y39.9547
G01 X31.0889 Y40.0263
G01 X30.9807 Y40.0862
G01 X30.8664 Y40.1335
G01 X30.7475 Y40.1678
G01 X30.6255 Y40.1885
G01 X30.5020 Y40.1954
G01 X30.3785 Y40.1885
G01 X30.2565 Y40.1678
G01 X30.1376 Y40.1335
G01 X30.0233 Y40.0862
G01 X29.9151 Y40.0263
G01 X29.8142 Y39.9547
G01 X29.7219 Y39.8723
G01 X29.6468 Y39.7888
G00 Z2.5400
G00 X27.1068 Y39.7888
G01 F76.20
G01 Z-0.2000
G01 F76.20
G01 X27.0926 Y39.7709
G01 X27.0342 Y39.6886
G01 X27.0221 Y39.6693
G01 X26.9680 Y39.5709
G01 X26.9207 Y39.4566
G01 X26.8893 Y39.3487
G01 X26.8842 Y39.3265
G01 X26.8657 Y39.2157
G01 X26.8588 Y39.0922
G01 X26.8591 Y38.6812
G01 X26.8657 Y38.5691
G01 X26.8865 Y38.4471
G01 X26.9207 Y38.3282
G01 X26.9680 Y38.2139
G01 X27.0279 Y38.1056
G01 X27.0995 Y38.0047
G01 X27.1819 Y37.9125
G01 X27.2655 Y37.8374
G01 X27.2833 Y37.8232
G01 X27.3656 Y37.7648
G01 X27.3849 Y37.7527
G01 X27.4833 Y37.6986
G01 X27.5976 Y37.6513
G01 X27.7165 Y37.6170
G01 X27.8385 Y37.5963
G01 X27.9620 Y37.5894
G01 X28.0742 Y37.5954
G01 X28.0968 Y37.5979
G01 X28.1963 Y37.6148
G01 X28.2185 Y37.6199
G01 X28.3264 Y37.6513
G01 X28.4407 Y37.6986
G01 X28.5489 Y37.7585
G01 X28.6498 Y37.8301
G01 X28.7421 Y37.9125
G01 X28.8245 Y38.0047
G01 X28.8961 Y38.1056
G01 X28.9507 Y38.2038
G01 X28.9606 Y38.2243
G01 X28.9992 Y38.3176
G01 X29.0068 Y38.3391
G01 X29.0375 Y38.4471
G01 X29.0583 Y38.5691
G01 X29.0652 Y38.6926
G01 X29.0651 Y39.0979
G01 X29.0583 Y39.2157
G01 X29.0398 Y39.3265
G01 X29.0347 Y39.3487
G01 X29.0033 Y39.4566
G01 X28.9560 Y39.5709
G01 X28.8961 Y39.6792
G01 X28.8245 Y39.7801
G01 X28.7421 Y39.8723
G01 X28.6498 Y39.9547
G01 X28.5489 Y40.0263
G01 X28.4407 Y40.0862
G01 X28.3264 Y40.1335
G01 X28.2075 Y40.1678
G01 X28.0855 Y40.1885
G01 X27.9620 Y40.1954
G01 X27.8385 Y40.1885
G01 X27.7165 Y40.1678
G01 X27.5976 Y40.1335
G01 X27.4833 Y40.0862
G01 X27.3751 Y40.0263
G01 X27.2742 Y39.9547
G01 X27.1819 Y39.8723
G01 X27.1068 Y39.7888
G00 Z2.5400
G00 X32.1868 Y39.7888
G01 F76.20
G01 Z-0.2000
G01 F76.20
G01 X32.1726 Y39.7709
G01 X32.1142 Y39.6886
G01 X32.1021 Y39.6693
G01 X32.0480 Y39.5709
G01 X32.0007 Y39.4566
G01 X31.9693 Y39.3487
G01 X31.9642 Y39.3265
G01 X31.9457 Y39.2157
G01 X31.9388 Y39.0922
G01 X31.9391 Y38.6812
G01 X31.9457 Y38.5691
G01 X31.9665 Y38.4471
G01 X32.0007 Y38.3282
G01 X32.0480 Y38.2139
G01 X32.1079 Y38.1056
G01 X32.1795 Y38.0047
G01 X32.2619 Y37.9125
G01 X32.3455 Y37.8374
G01 X32.3633 Y37.8232
G01 X32.4456 Y37.7648
G01 X32.4649 Y37.7527
G01 X32.5633 Y37.6986
G01 X32.6776 Y37.6513
G01 X32.7965 Y37.6170
G01 X32.9185 Y37.5963
G01 X33.0420 Y37.5894
G01 X33.1542 Y37.5954
G01 X33.1768 Y37.5979
G01 X33.2763 Y37.6148
G01 X33.2985 Y37.6199
G01 X33.4064 Y37.6513
G01 X33.5207 Y37.6986
G01 X33.6289 Y37.7585
G01 X33.7298 Y37.8301
G01 X33.8221 Y37.9125
G01 X33.9045 Y38.0047
G01 X33.9761 Y38.1056
G01 X34.0307 Y38.2038
G01 X34.0406 Y38.2243
G01 X34.0792 Y38.3176
G01 X34.0868 Y38.3391
G01 X34.1175 Y38.4471
G01 X34.1383 Y38.5691
G01 X34.1452 Y38.6926
G01 X34.1451 Y39.0979
G01 X34.1383 Y39.2157
G01 X34.1198 Y39.3265
G01 X34.1147 Y39.3487
G01 X34.0833 Y39.4566
G01 X34.0360 Y39.5709
G01 X33.9761 Y39.6792
G01 X33.9045 Y39.7801
G01 X33.8221 Y39.8723
G01 X33.7298 Y39.9547
G01 X33.6289 Y40.0263
G01 X33.5207 Y40.0862
G01 X33.4064 Y40.1335
G01 X33.2875 Y40.1678
G01 X33.1655 Y40.1885
G01 X33.0420 Y40.1954
G01 X32.9185 Y40.1885
G01 X32.7965 Y40.1678
G01 X32.6776 Y40.1335
G01 X32.5633 Y40.0862
G01 X32.4551 Y40.0263
G01 X32.3542 Y39.9547
G01 X32.2619 Y39.8723
G01 X32.1868 Y39.7888
G00 Z2.5400
G00 X34.7268 Y39.7888
G01 F76.20
G01 Z-0.2000
G01 F76.20
G01 X34.7126 Y39.7709
G01 X34.6542 Y39.6886
G01 X34.6421 Y39.6693
G01 X34.5880 Y39.5709
G01 X34.5407 Y39.4566
G01 X34.5093 Y39.3487
G01 X34.5042 Y39.3265
G01 X34.4857 Y39.2157
G01 X34.4788 Y39.0922
G01 X34.4791 Y38.6812
G01 X34.4857 Y38.5691
G01 X34.5065 Y38.4471
G01 X34.5407 Y38.3282
G01 X34.5880 Y38.2139
G01 X34.6479 Y38.1056
G01 X34.7195 Y38.0047
G01 X34.8019 Y37.9125
G01 X34.8855 Y37.8374
G01 X34.9033 Y37.8232
G01 X34.9856 Y37.7648
G01 X35.0049 Y37.7527
G01 X35.1033 Y37.6986
G01 X35.2176 Y37.6513
G01 X35.3365 Y37.6170
G01 X35.4585 Y37.5963
G01 X35.5820 Y37.5894
G01 X35.6942 Y37.5954
G01 X35.7168 Y37.5979
G01 X35.8163 Y37.6148
G01 X35.8385 Y37.6199
G01 X35.9464 Y37.6513
G01 X36.0607 Y37.6986
G01 X36.1689 Y37.7585
G01 X36.2698 Y37.8301
G01 X36.3621 Y37.9125
G01 X36.4445 Y38.0047
G01 X36.5161 Y38.1056
G01 X36.5707 Y38.2038
G01 X36.5806 Y38.2243
G01 X36.6192 Y38.3176
G01 X36.6268 Y38.3391
G01 X36.6575 Y38.4471
G01 X36.6783 Y38.5691
G01 X36.6852 Y38.6926
G01 X36.6851 Y39.0979
G01 X36.6783 Y39.2157
G01 X36.6598 Y39.3265
G01 X36.6547 Y39.3487
G01 X36.6233 Y39.4566
G01 X36.5760 Y39.5709
G01 X36.5161 Y39.6792
G01 X36.4445 Y39.7801
G01 X36.3621 Y39.8723
G01 X36.2698 Y39.9547
G01 X36.1689 Y40.0263
G01 X36.0607 Y40.0862
G01 X35.9464 Y40.1335
G01 X35.8275 Y40.1678
G01 X35.7055 Y40.1885
G01 X35.5820 Y40.1954
G01 X35.4585 Y40.1885
G01 X35.3365 Y40.1678
G01 X35.2176 Y40.1335
G01 X35.1033 Y40.0862
G01 X34.9951 Y40.0263
G01 X34.8942 Y39.9547
G01 X34.8019 Y39.8723
G01 X34.7268 Y39.7888
G00 Z2.5400
G00 X37.2668 Y39.7888
G01 F76.20
G01 Z-0.2000
G01 F76.20
G01 X37.2526 Y39.7709
G01 X37.1942 Y39.6886
G01 X37.1821 Y39.6693
G01 X37.1280 Y39.5709
G01 X37.0807 Y39.4566
G01 X37.0493 Y39.3487
G01 X37.0442 Y39.3265
G01 X37.0257 Y39.2157
G01 X37.0188 Y39.0922
G01 X37.0191 Y38.6812
G01 X37.0257 Y38.5691
G01 X37.0465 Y38.4471
G01 X37.0807 Y38.3282
G01 X37.1280 Y38.2139
G01 X37.1879 Y38.1056
G01 X37.2595 Y38.0047
G01 X37.3419 Y37.9125
G01 X37.4255 Y37.8374
G01 X37.4433 Y37.8232
G01 X37.5256 Y37.7648
G01 X37.5449 Y37.7527
G01 X37.6433 Y37.6986
G01 X37.7576 Y37.6513
G01 X37.8765 Y37.6170
G01 X37.9985 Y37.5963
G01 X38.1220 Y37.5894
G01 X38.2342 Y37.5954
G01 X38.2568 Y37.5979
G01 X38.3563 Y37.6148
G01 X38.3785 Y37.6199
G01 X38.4864 Y37.6513
G01 X38.6007 Y37.6986
G01 X38.7089 Y37.7585
G01 X38.8098 Y37.8301
G01 X38.9021 Y37.9125
G01 X38.9845 Y38.0047
G01 X39.0561 Y38.1056
G01 X39.1107 Y38.2038
G01 X39.1206 Y38.2243
G01 X39.1592 Y38.3176
G01 X39.1668 Y38.3391
G01 X39.1975 Y38.4471
G01 X39.2183 Y38.5691
G01 X39.2252 Y38.6926
G01 X39.2251 Y39.0979
G01 X39.2183 Y39.2157
G01 X39.1998 Y39.3265
G01 X39.1947 Y39.3487
G01 X39.1633 Y39.4566
G01 X39.1160 Y39.5709
G01 X39.0561 Y39.6792
G01 X38.9845 Y39.7801
G01 X38.9021 Y39.8723
G01 X38.8098 Y39.9547
G01 X38.7089 Y40.0263
G01 X38.6007 Y40.0862
G01 X38.4864 Y40.1335
G01 X38.3675 Y40.1678
G01 X38.2455 Y40.1885
G01 X38.1220 Y40.1954
G01 X37.9985 Y40.1885
G01 X37.8765 Y40.1678
G01 X37.7576 Y40.1335
G01 X37.6433 Y40.0862
G01 X37.5351 Y40.0263
G01 X37.4342 Y39.9547
G01 X37.3419 Y39.8723
G01 X37.2668 Y39.7888
G00 Z2.5400
G00 X39.8068 Y39.7888
G01 F76.20
G01 Z-0.2000
G01 F76.20
G01 X39.7926 Y39.7709
G01 X39.7342 Y39.6886
G01 X39.7221 Y39.6693
G01 X39.6680 Y39.5709
G01 X39.6207 Y39.4566
G01 X39.5893 Y39.3487
G01 X39.5842 Y39.3265
G01 X39.5657 Y39.2157
G01 X39.5588 Y39.0922
G01 X39.5591 Y38.6812
G01 X39.5657 Y38.5691
G01 X39.5865 Y38.4471
G01 X39.6207 Y38.3282
G01 X39.6680 Y38.2139
G01 X39.7279 Y38.1056
G01 X39.7995 Y38.0047
G01 X39.8819 Y37.9125
G01 X39.9655 Y37.8374
G01 X39.9833 Y37.8232
G01 X40.0656 Y37.7648
G01 X40.0849 Y37.7527
G01 X40.1833 Y37.6986
G01 X40.2976 Y37.6513
G01 X40.4165 Y37.6170
G01 X40.5385 Y37.5963
G01 X40.6620 Y37.5894
G01 X40.7742 Y37.5954
G01 X40.7968 Y37.5979
G01 X40.8963 Y37.6148
G01 X40.9185 Y37.6199
G01 X41.0264 Y37.6513
G01 X41.1407 Y37.6986
G01 X41.2489 Y37.7585
G01 X41.3498 Y37.8301
G01 X41.4421 Y37.9125
G01 X41.5245 Y38.0047
G01 X41.5961 Y38.1056
G01 X41.6507 Y38.2038
G01 X41.6606 Y38.2243
G01 X41.6992 Y38.3176
G01 X41.7068 Y38.3391
G01 X41.7375 Y38.4471
G01 X41.7583 Y38.5691
G01 X41.7652 Y38.6926
G01 X41.7651 Y39.0979
G01 X41.7583 Y39.2157
G01 X41.7398 Y39.3265
G01 X41.7347 Y39.3487
G01 X41.7033 Y39.4566
G01 X41.6560 Y39.5709
G01 X41.5961 Y39.6792
G01 X41.5245 Y39.7801
G01 X41.4421 Y39.8723
G01 X41.3498 Y39.9547
G01 X41.2489 Y40.0263
G01 X41.1407 Y40.0862
G01 X41.0264 Y40.1335
G01 X40.9075 Y40.1678
G01 X40.7855 Y40.1885
G01 X40.6620 Y40.1954
G01 X40.5385 Y40.1885
G01 X40.4165 Y40.1678
G01 X40.2976 Y40.1335
G01 X40.1833 Y40.0862
G01 X40.0751 Y40.0263
G01 X39.9742 Y39.9547
G01 X39.8819 Y39.8723
G01 X39.8068 Y39.7888
G00 Z2.5400
G00 X42.3468 Y39.7888
G01 F76.20
G01 Z-0.2000
G01 F76.20
G01 X42.3326 Y39.7709
G01 X42.2742 Y39.6886
G01 X42.2621 Y39.6693
G01 X42.2080 Y39.5709
G01 X42.1607 Y39.4566
G01 X42.1293 Y39.3487
G01 X42.1242 Y39.3265
G01 X42.1057 Y39.2157
G01 X42.0988 Y39.0922
G01 X42.0991 Y38.6812
G01 X42.1057 Y38.5691
G01 X42.1265 Y38.4471
G01 X42.1607 Y38.3282
G01 X42.2080 Y38.2139
G01 X42.2679 Y38.1056
G01 X42.3395 Y38.0047
G01 X42.4219 Y37.9125
G01 X42.5055 Y37.8374
G01 X42.5233 Y37.8232
G01 X42.6056 Y37.7648
G01 X42.6249 Y37.7527
G01 X42.7233 Y37.6986
G01 X42.8376 Y37.6513
G01 X42.9565 Y37.6170
G01 X43.0785 Y37.5963
G01 X43.2020 Y37.5894
G01 X43.3142 Y37.5954
G01 X43.3368 Y37.5979
G01 X43.4363 Y37.6148
G01 X43.4585 Y37.6199
G01 X43.5664 Y37.6513
G01 X43.6807 Y37.6986
G01 X43.7889 Y37.7585
G01 X43.8898 Y37.8301
G01 X43.9821 Y37.9125
G01 X44.0645 Y38.0047
G01 X44.1361 Y38.1056
G01 X44.1907 Y38.2038
G01 X44.2006 Y38.2243
G01 X44.2392 Y38.3176
G01 X44.2468 Y38.3391
G01 X44.2775 Y38.4471
G01 X44.2983 Y38.5691
G01 X44.3052 Y38.6926
G01 X44.3051 Y39.0979
G01 X44.2983 Y39.2157
G01 X44.2798 Y39.3265
G01 X44.2747 Y39.3487
G01 X44.2433 Y39.4566
G01 X44.1960 Y39.5709
G01 X44.1361 Y39.6792
G01 X44.0645 Y39.7801
G01 X43.9821 Y39.8723
G01 X43.8898 Y39.9547
G01 X43.7889 Y40.0263
G01 X43.6807 Y40.0862
G01 X43.5664 Y40.1335
G01 X43.4475 Y40.1678
G01 X43.3255 Y40.1885
G01 X43.2020 Y40.1954
G01 X43.0785 Y40.1885
G01 X42.9565 Y40.1678
G01 X42.8376 Y40.1335
G01 X42.7233 Y40.0862
G01 X42.6151 Y40.0263
G01 X42.5142 Y39.9547
G01 X42.4219 Y39.8723
G01 X42.3468 Y39.7888
G00 Z2.5400
G00 X44.6130 Y24.8622
G01 F76.20
G01 Z-0.2000
G01 F76.20
G01 X44.5988 Y24.8444
G01 X44.5469 Y24.7712
G01 X44.5348 Y24.7519
G01 X44.4861 Y24.6633
G01 X44.4472 Y24.5700
G01 X44.4396 Y24.5485
G01 X44.4120 Y24.4512
G01 X44.3931 Y24.3403
G01 X44.3868 Y24.2280
G01 X44.3931 Y24.1157
G01 X44.4120 Y24.0048
G01 X44.4396 Y23.9075
G01 X44.4472 Y23.8860
G01 X44.4815 Y23.8031
G01 X44.4914 Y23.7826
G01 X44.5406 Y23.6943
G01 X44.6057 Y23.6025
G01 X44.6806 Y23.5186
G01 X44.7645 Y23.4437
G01 X44.8563 Y23.3786
G01 X44.9446 Y23.3294
G01 X44.9651 Y23.3195
G01 X45.0480 Y23.2852
G01 X45.0695 Y23.2776
G01 X45.1668 Y23.2500
G01 X45.2777 Y23.2311
G01 X45.3900 Y23.2248
G01 X45.5023 Y23.2311
G01 X45.6132 Y23.2500
G01 X45.7213 Y23.2811
G01 X45.8253 Y23.3241
G01 X45.9139 Y23.3728
G01 X45.9332 Y23.3849
G01 X46.0064 Y23.4368
G01 X46.0242 Y23.4510
G01 X46.0994 Y23.5186
G01 X46.1743 Y23.6025
G01 X46.2394 Y23.6943
G01 X46.2886 Y23.7826
G01 X46.2985 Y23.8031
G01 X46.3328 Y23.8860
G01 X46.3404 Y23.9075
G01 X46.3680 Y24.0048
G01 X46.3869 Y24.1157
G01 X46.3932 Y24.2280
G01 X46.3869 Y24.3403
G01 X46.3680 Y24.4512
G01 X46.3404 Y24.5485
G01 X46.3328 Y24.5700
G01 X46.2985 Y24.6529
G01 X46.2886 Y24.6734
G01 X46.2394 Y24.7617
G01 X46.1743 Y24.8535
G01 X46.0994 Y24.9374
G01 X46.0155 Y25.0123
G01 X45.9237 Y25.0774
G01 X45.8253 Y25.1319
G01 X45.7213 Y25.1749
G01 X45.6243 Y25.2032
G01 X45.6021 Y25.2083
G01 X45.5136 Y25.2233
G01 X45.4910 Y25.2259
G01 X45.3900 Y25.2312
G01 X45.2777 Y25.2249
G01 X45.1668 Y25.2060
G01 X45.0695 Y25.1784
G01 X45.0480 Y25.1708
G01 X44.9651 Y25.1365
G01 X44.9446 Y25.1266
G01 X44.8563 Y25.0774
G01 X44.7645 Y25.0123
G01 X44.6806 Y24.9374
G01 X44.6130 Y24.8622
G00 Z2.5400
G00 X46.3929 Y20.2166
G01 F76.20
G01 Z-0.2000
G01 F76.20
G01 X46.3929 Y20.2394
G01 X46.3879 Y20.3290
G01 X46.3853 Y20.3516
G01 X46.3680 Y20.4512
G01 X46.3404 Y20.5485
G01 X46.3328 Y20.5700
G01 X46.2939 Y20.6633
G01 X46.2394 Y20.7617
G01 X46.1743 Y20.8535
G01 X46.0994 Y20.9374
G01 X46.0155 Y21.0123
G01 X45.9332 Y21.0711
G01 X45.9139 Y21.0832
G01 X45.8354 Y21.1266
G01 X45.8149 Y21.1365
G01 X45.7213 Y21.1749
G01 X45.6132 Y21.2060
G01 X45.5023 Y21.2249
G01 X45.3900 Y21.2312
G01 X45.2777 Y21.2249
G01 X45.1779 Y21.2083
G01 X45.1557 Y21.2032
G01 X45.0695 Y21.1784
G01 X45.0480 Y21.1708
G01 X44.9547 Y21.1319
G01 X44.8563 Y21.0774
G01 X44.7645 Y21.0123
G01 X44.6806 Y20.9374
G01 X44.6057 Y20.8535
G01 X44.5469 Y20.7712
G01 X44.5348 Y20.7519
G01 X44.4914 Y20.6734
G01 X44.4815 Y20.6529
G01 X44.4431 Y20.5593
G01 X44.4120 Y20.4512
G01 X44.3931 Y20.3403
G01 X44.3868 Y20.2280
G01 X44.3931 Y20.1157
G01 X44.4097 Y20.0159
G01 X44.4148 Y19.9937
G01 X44.4396 Y19.9075
G01 X44.4472 Y19.8860
G01 X44.4861 Y19.7927
G01 X44.5406 Y19.6943
G01 X44.6057 Y19.6025
G01 X44.6806 Y19.5186
G01 X44.7645 Y19.4437
G01 X44.8468 Y19.3849
G01 X44.8661 Y19.3728
G01 X44.9446 Y19.3294
G01 X44.9651 Y19.3195
G01 X45.0587 Y19.2811
G01 X45.1668 Y19.2500
G01 X45.2777 Y19.2311
G01 X45.3900 Y19.2248
G01 X45.5023 Y19.2311
G01 X45.6021 Y19.2477
G01 X45.6243 Y19.2528
G01 X45.7105 Y19.2776
G01 X45.7320 Y19.2852
G01 X45.8253 Y19.3241
G01 X45.9237 Y19.3786
G01 X46.0155 Y19.4437
G01 X46.0994 Y19.5186
G01 X46.1743 Y19.6025
G01 X46.2331 Y19.6848
G01 X46.2452 Y19.7041
G01 X46.2886 Y19.7826
G01 X46.2985 Y19.8031
G01 X46.3369 Y19.8967
G01 X46.3680 Y20.0048
G01 X46.3869 Y20.1157
G01 X46.3929 Y20.2166
G00 Z2.5400
G00 X45.3273 Y7.2280
G01 F76.20
G01 Z-0.2000
G01 F76.20
G01 X45.2890 Y7.2259
G01 X45.2664 Y7.2233
G01 X45.1779 Y7.2083
G01 X45.1557 Y7.2032
G01 X45.0587 Y7.1749
G01 X44.9651 Y7.1365
G01 X44.9446 Y7.1266
G01 X44.8563 Y7.0774
G01 X44.7645 Y7.0123
G01 X44.6806 Y6.9374
G01 X44.6057 Y6.8535
G01 X44.5406 Y6.7617
G01 X44.4914 Y6.6734
G01 X44.4815 Y6.6529
G01 X44.4472 Y6.5700
G01 X44.4396 Y6.5485
G01 X44.4120 Y6.4512
G01 X44.3931 Y6.3403
G01 X44.3868 Y6.2280
G01 X44.3931 Y6.1157
G01 X44.4120 Y6.0048
G01 X44.4396 Y5.9075
G01 X44.4472 Y5.8860
G01 X44.4815 Y5.8031
G01 X44.4914 Y5.7826
G01 X44.5406 Y5.6943
G01 X44.6057 Y5.6025
G01 X44.6806 Y5.5186
G01 X44.7645 Y5.4437
G01 X44.8563 Y5.3786
G01 X44.9446 Y5.3294
G01 X44.9651 Y5.3195
G01 X45.0480 Y5.2852
G01 X45.0695 Y5.2776
G01 X45.1668 Y5.2500
G01 X45.2777 Y5.2311
G01 X45.3900 Y5.2248
G01 X45.5023 Y5.2311
G01 X45.6132 Y5.2500
G01 X45.7105 Y5.2776
G01 X45.7320 Y5.2852
G01 X45.8149 Y5.3195
G01 X45.8354 Y5.3294
G01 X45.9237 Y5.3786
G01 X46.0155 Y5.4437
G01 X46.0994 Y5.5186
G01 X46.1670 Y5.5938
G01 X46.1812 Y5.6116
G01 X46.2331 Y5.6848
G01 X46.2452 Y5.7041
G01 X46.2939 Y5.7927
G01 X46.3369 Y5.8967
G01 X46.3652 Y5.9937
G01 X46.3703 Y6.0159
G01 X46.3869 Y6.1157
G01 X46.3932 Y6.2280
G01 X46.3869 Y6.3403
G01 X46.3703 Y6.4401
G01 X46.3652 Y6.4623
G01 X46.3404 Y6.5485
G01 X46.3328 Y6.5700
G01 X46.2939 Y6.6633
G01 X46.2394 Y6.7617
G01 X46.1743 Y6.8535
G01 X46.1072 Y6.9291
G01 X46.0911 Y6.9452
G01 X46.0242 Y7.0050
G01 X46.0064 Y7.0192
G01 X45.9237 Y7.0774
G01 X45.8253 Y7.1319
G01 X45.7213 Y7.1749
G01 X45.6243 Y7.2032
G01 X45.6021 Y7.2083
G01 X45.5136 Y7.2233
G01 X45.4910 Y7.2259
G01 X45.4527 Y7.2280
G01 X45.4910 Y7.2301
G01 X45.5136 Y7.2327
G01 X45.6021 Y7.2477
G01 X45.6243 Y7.2528
G01 X45.7213 Y7.2811
G01 X45.8253 Y7.3241
G01 X45.9237 Y7.3786
G01 X46.0064 Y7.4368
G01 X46.0242 Y7.4510
G01 X46.0911 Y7.5108
G01 X46.1072 Y7.5269
G01 X46.1743 Y7.6025
G01 X46.2394 Y7.6943
G01 X46.2939 Y7.7927
G01 X46.3328 Y7.8860
G01 X46.3404 Y7.9075
G01 X46.3652 Y7.9937
G01 X46.3703 Y8.0159
G01 X46.3869 Y8.1157
G01 X46.3932 Y8.2280
G01 X46.3869 Y8.3403
G01 X46.3703 Y8.4401
G01 X46.3652 Y8.4623
G01 X46.3404 Y8.5485
G01 X46.3328 Y8.5700
G01 X46.2939 Y8.6633
G01 X46.2394 Y8.7617
G01 X46.1743 Y8.8535
G01 X46.1072 Y8.9291
G01 X46.0911 Y8.9452
G01 X46.0242 Y9.0050
G01 X46.0064 Y9.0192
G01 X45.9237 Y9.0774
G01 X45.8253 Y9.1319
G01 X45.7213 Y9.1749
G01 X45.6243 Y9.2032
G01 X45.6021 Y9.2083
G01 X45.5136 Y9.2233
G01 X45.4910 Y9.2259
G01 X45.4527 Y9.2280
G01 X45.4910 Y9.2301
G01 X45.5136 Y9.2327
G01 X45.6021 Y9.2477
G01 X45.6243 Y9.2528
G01 X45.7213 Y9.2811
G01 X45.8253 Y9.3241
G01 X45.9237 Y9.3786
G01 X46.0064 Y9.4368
G01 X46.0242 Y9.4510
G01 X46.0911 Y9.5108
G01 X46.1072 Y9.5269
G01 X46.1743 Y9.6025
G01 X46.2394 Y9.6943
G01 X46.2939 Y9.7927
G01 X46.3328 Y9.8860
G01 X46.3404 Y9.9075
G01 X46.3652 Y9.9937
G01 X46.3703 Y10.0159
G01 X46.3869 Y10.1157
G01 X46.3932 Y10.2280
G01 X46.3869 Y10.3403
G01 X46.3703 Y10.4401
G01 X46.3652 Y10.4623
G01 X46.3404 Y10.5485
G01 X46.3328 Y10.5700
G01 X46.2939 Y10.6633
G01 X46.2394 Y10.7617
G01 X46.1743 Y10.8535
G01 X46.0994 Y10.9374
G01 X46.0155 Y11.0123
G01 X45.9332 Y11.0711
G01 X45.9139 Y11.0832
G01 X45.8354 Y11.1266
G01 X45.8149 Y11.1365
G01 X45.7213 Y11.1749
G01 X45.6132 Y11.2060
G01 X45.5023 Y11.2249
G01 X45.3900 Y11.2312
G01 X45.2777 Y11.2249
G01 X45.1779 Y11.2083
G01 X45.1557 Y11.2032
G01 X45.0695 Y11.1784
G01 X45.0480 Y11.1708
G01 X44.9547 Y11.1319
G01 X44.8563 Y11.0774
G01 X44.7645 Y11.0123
G01 X44.6806 Y10.9374
G01 X44.6057 Y10.8535
G01 X44.5469 Y10.7712
G01 X44.5348 Y10.7519
G01 X44.4914 Y10.6734
G01 X44.4815 Y10.6529
G01 X44.4431 Y10.5593
G01 X44.4120 Y10.4512
G01 X44.3931 Y10.3403
G01 X44.3868 Y10.2280
G01 X44.3931 Y10.1157
G01 X44.4097 Y10.0159
G01 X44.4148 Y9.9937
G01 X44.4396 Y9.9075
G01 X44.4472 Y9.8860
G01 X44.4861 Y9.7927
G01 X44.5406 Y9.6943
G01 X44.6057 Y9.6025
G01 X44.6728 Y9.5269
G01 X44.6889 Y9.5108
G01 X44.7558 Y9.4510
G01 X44.7736 Y9.4368
G01 X44.8563 Y9.3786
G01 X44.9547 Y9.3241
G01 X45.0587 Y9.2811
G01 X45.1557 Y9.2528
G01 X45.1779 Y9.2477
G01 X45.2664 Y9.2327
G01 X45.2890 Y9.2301
G01 X45.3273 Y9.2280
G01 X45.2777 Y9.2249
G01 X45.1779 Y9.2083
G01 X45.1557 Y9.2032
G01 X45.0695 Y9.1784
G01 X45.0480 Y9.1708
G01 X44.9547 Y9.1319
G01 X44.8661 Y9.0832
G01 X44.8468 Y9.0711
G01 X44.7645 Y9.0123
G01 X44.6806 Y8.9374
G01 X44.6057 Y8.8535
G01 X44.5469 Y8.7712
G01 X44.5348 Y8.7519
G01 X44.4861 Y8.6633
G01 X44.4431 Y8.5593
G01 X44.4120 Y8.4512
G01 X44.3931 Y8.3403
G01 X44.3868 Y8.2280
G01 X44.3931 Y8.1157
G01 X44.4120 Y8.0048
G01 X44.4396 Y7.9075
G01 X44.4472 Y7.8860
G01 X44.4861 Y7.7927
G01 X44.5348 Y7.7041
G01 X44.5469 Y7.6848
G01 X44.6057 Y7.6025
G01 X44.6728 Y7.5269
G01 X44.6889 Y7.5108
G01 X44.7645 Y7.4437
G01 X44.8468 Y7.3849
G01 X44.8661 Y7.3728
G01 X44.9547 Y7.3241
G01 X45.0480 Y7.2852
G01 X45.0695 Y7.2776
G01 X45.1668 Y7.2500
G01 X45.2777 Y7.2311
G01 X45.3273 Y7.2280
G00 Z2.5400
G00 X22.6130 Y24.8622
G01 F76.20
G01 Z-0.2000
G01 F76.20
G01 X22.5988 Y24.8444
G01 X22.5469 Y24.7712
G01 X22.5348 Y24.7519
G01 X22.4861 Y24.6633
G01 X22.4472 Y24.5700
G01 X22.4396 Y24.5485
G01 X22.4120 Y24.4512
G01 X22.3931 Y24.3403
G01 X22.3868 Y24.2280
G01 X22.3931 Y24.1157
G01 X22.4120 Y24.0048
G01 X22.4396 Y23.9075
G01 X22.4472 Y23.8860
G01 X22.4815 Y23.8031
G01 X22.4914 Y23.7826
G01 X22.5406 Y23.6943
G01 X22.6057 Y23.6025
G01 X22.6806 Y23.5186
G01 X22.7645 Y23.4437
G01 X22.8563 Y23.3786
G01 X22.9446 Y23.3294
G01 X22.9651 Y23.3195
G01 X23.0480 Y23.2852
G01 X23.0695 Y23.2776
G01 X23.1668 Y23.2500
G01 X23.2777 Y23.2311
G01 X23.3900 Y23.2248
G01 X23.5023 Y23.2311
G01 X23.6132 Y23.2500
G01 X23.7213 Y23.2811
G01 X23.8253 Y23.3241
G01 X23.9139 Y23.3728
G01 X23.9332 Y23.3849
G01 X24.0064 Y23.4368
G01 X24.0242 Y23.4510
G01 X24.0994 Y23.5186
G01 X24.1743 Y23.6025
G01 X24.2394 Y23.6943
G01 X24.2886 Y23.7826
G01 X24.2985 Y23.8031
G01 X24.3328 Y23.8860
G01 X24.3404 Y23.9075
G01 X24.3680 Y24.0048
G01 X24.3869 Y24.1157
G01 X24.3932 Y24.2280
G01 X24.3869 Y24.3403
G01 X24.3680 Y24.4512
G01 X24.3404 Y24.5485
G01 X24.3328 Y24.5700
G01 X24.2985 Y24.6529
G01 X24.2886 Y24.6734
G01 X24.2394 Y24.7617
G01 X24.1743 Y24.8535
G01 X24.0994 Y24.9374
G01 X24.0155 Y25.0123
G01 X23.9237 Y25.0774
G01 X23.8253 Y25.1319
G01 X23.7213 Y25.1749
G01 X23.6243 Y25.2032
G01 X23.6021 Y25.2083
G01 X23.5136 Y25.2233
G01 X23.4910 Y25.2259
G01 X23.3900 Y25.2312
G01 X23.2777 Y25.2249
G01 X23.1668 Y25.2060
G01 X23.0695 Y25.1784
G01 X23.0480 Y25.1708
G01 X22.9651 Y25.1365
G01 X22.9446 Y25.1266
G01 X22.8563 Y25.0774
G01 X22.7645 Y25.0123
G01 X22.6806 Y24.9374
G01 X22.6130 Y24.8622
G00 Z2.5400
G00 X6.7621 Y35.4774
G01 F76.20
G01 Z-0.2000
G01 F76.20
G01 X6.7621 Y35.5002
G01 X6.7548 Y35.6235
G01 X6.7345 Y35.7454
G01 X6.7294 Y35.7676
G01 X6.6983 Y35.8753
G01 X6.6908 Y35.8968
G01 X6.6432 Y36.0108
G01 X6.5780 Y36.1289
G01 X6.4999 Y36.2390
G01 X6.4100 Y36.3396
G01 X6.3094 Y36.4295
G01 X6.2088 Y36.5012
G01 X6.1895 Y36.5134
G01 X6.0914 Y36.5676
G01 X6.0708 Y36.5775
G01 X5.9566 Y36.6245
G01 X5.8269 Y36.6618
G01 X5.6939 Y36.6844
G01 X5.5592 Y36.6920
G01 X5.4245 Y36.6844
G01 X5.3026 Y36.6641
G01 X5.2804 Y36.6590
G01 X5.1727 Y36.6279
G01 X5.1512 Y36.6204
G01 X5.0372 Y36.5728
G01 X4.9191 Y36.5076
G01 X4.8090 Y36.4295
G01 X4.7084 Y36.3396
G01 X4.6185 Y36.2390
G01 X4.5468 Y36.1384
G01 X4.5346 Y36.1191
G01 X4.4804 Y36.0210
G01 X4.4705 Y36.0004
G01 X4.4235 Y35.8862
G01 X4.3862 Y35.7565
G01 X4.3636 Y35.6235
G01 X4.3560 Y35.4888
G01 X4.3636 Y35.3541
G01 X4.3839 Y35.2322
G01 X4.3890 Y35.2100
G01 X4.4201 Y35.1023
G01 X4.4276 Y35.0808
G01 X4.4752 Y34.9668
G01 X4.5404 Y34.8487
G01 X4.6185 Y34.7386
G01 X4.7084 Y34.6380
G01 X4.8090 Y34.5481
G01 X4.9096 Y34.4764
G01 X4.9289 Y34.4642
G01 X5.0270 Y34.4100
G01 X5.0476 Y34.4001
G01 X5.1618 Y34.3531
G01 X5.2915 Y34.3158
G01 X5.4245 Y34.2932
G01 X5.5592 Y34.2856
G01 X5.6939 Y34.2932
G01 X5.8158 Y34.3135
G01 X5.8380 Y34.3186
G01 X5.9457 Y34.3497
G01 X5.9672 Y34.3572
G01 X6.0812 Y34.4048
G01 X6.1993 Y34.4700
G01 X6.3094 Y34.5481
G01 X6.4100 Y34.6380
G01 X6.4999 Y34.7386
G01 X6.5716 Y34.8392
G01 X6.5838 Y34.8585
G01 X6.6380 Y34.9566
G01 X6.6479 Y34.9772
G01 X6.6949 Y35.0914
G01 X6.7322 Y35.2211
G01 X6.7548 Y35.3541
G01 X6.7621 Y35.4774
G00 Z2.5400
G00 X0.5631 Y30.4342
G01 F76.20
G01 Z-0.2000
G01 F76.20
G01 X0.5676 Y30.3554
G01 X0.5786 Y30.2888
G01 X0.5836 Y30.2666
G01 X0.5992 Y30.2127
G01 X0.6067 Y30.1912
G01 X0.6328 Y30.1290
G01 X0.6710 Y30.0599
G01 X0.7166 Y29.9956
G01 X0.7652 Y29.9409
G01 X4.3729 Y26.3331
G01 X4.3636 Y26.2763
G01 X4.3560 Y26.1416
G01 X4.3636 Y26.0069
G01 X4.3729 Y25.9501
G01 X0.8922 Y22.4693
G01 X0.8510 Y22.4233
G01 X0.8368 Y22.4055
G01 X0.7980 Y22.3503
G01 X0.7650 Y22.2913
G01 X0.7552 Y22.2708
G01 X0.7296 Y22.2083
G01 X0.7106 Y22.1436
G01 X0.7056 Y22.1214
G01 X0.6946 Y22.0548
G01 X0.6901 Y21.9760
G01 X0.6901 Y4.2559
G01 X0.6525 Y4.2292
G01 X0.6347 Y4.2149
G01 X0.5511 Y4.1402
G01 X0.5350 Y4.1241
G01 X0.4529 Y4.0318
G01 X0.3748 Y3.9217
G01 X0.3096 Y3.8036
G01 X0.2620 Y3.6896
G01 X0.2545 Y3.6681
G01 X0.2206 Y3.5493
G01 X0.1980 Y3.4163
G01 X0.1907 Y3.2930
G01 X0.1907 Y3.2702
G01 X0.1970 Y3.1582
G01 X0.1996 Y3.1356
G01 X0.2206 Y3.0139
G01 X0.2579 Y2.8842
G01 X0.3096 Y2.7596
G01 X0.3690 Y2.6513
G01 X0.3812 Y2.6320
G01 X0.4529 Y2.5314
G01 X0.5350 Y2.4391
G01 X0.5511 Y2.4230
G01 X0.6434 Y2.3409
G01 X0.7440 Y2.2692
G01 X0.7633 Y2.2570
G01 X0.8716 Y2.1976
G01 X0.9856 Y2.1500
G01 X1.0071 Y2.1425
G01 X1.1259 Y2.1086
G01 X1.2476 Y2.0876
G01 X1.2702 Y2.0850
G01 X1.3936 Y2.0784
G01 X1.5283 Y2.0860
G01 X1.5851 Y2.0953
G01 X2.5962 Y1.0842
G01 X2.6463 Y1.0390
G01 X2.6641 Y1.0248
G01 X2.7193 Y0.9860
G01 X2.7783 Y0.9530
G01 X2.7988 Y0.9432
G01 X2.8613 Y0.9176
G01 X2.9260 Y0.8986
G01 X2.9482 Y0.8936
G01 X3.0148 Y0.8826
G01 X3.0936 Y0.8781
G01 X4.7793 Y0.8782
G01 X4.8524 Y0.8826
G01 X4.9190 Y0.8936
G01 X4.9412 Y0.8986
G01 X5.0059 Y0.9176
G01 X5.0788 Y0.9478
G01 X5.1479 Y0.9860
G01 X5.2122 Y1.0316
G01 X5.2669 Y1.0802
G01 X6.2821 Y2.0953
G01 X6.3389 Y2.0860
G01 X6.4736 Y2.0784
G01 X6.6083 Y2.0860
G01 X6.6651 Y2.0953
G01 X7.6762 Y1.0842
G01 X7.7263 Y1.0390
G01 X7.7441 Y1.0248
G01 X7.7993 Y0.9860
G01 X7.8583 Y0.9530
G01 X7.8788 Y0.9432
G01 X7.9413 Y0.9176
G01 X8.0060 Y0.8986
G01 X8.0282 Y0.8936
G01 X8.0948 Y0.8826
G01 X8.1736 Y0.8781
G01 X12.3936 Y0.8781
G01 X12.4724 Y0.8826
G01 X12.5501 Y0.8958
G01 X12.6259 Y0.9176
G01 X12.6988 Y0.9478
G01 X12.7679 Y0.9860
G01 X12.8231 Y1.0248
G01 X12.8409 Y1.0390
G01 X12.8910 Y1.0842
G01 X13.9021 Y2.0953
G01 X13.9589 Y2.0860
G01 X14.0936 Y2.0784
G01 X14.2283 Y2.0860
G01 X14.2851 Y2.0953
G01 X15.3003 Y1.0802
G01 X15.3550 Y1.0316
G01 X15.4193 Y0.9860
G01 X15.4884 Y0.9478
G01 X15.5613 Y0.9176
G01 X15.6260 Y0.8986
G01 X15.6482 Y0.8936
G01 X15.7148 Y0.8826
G01 X15.7936 Y0.8781
G01 X17.4736 Y0.8781
G01 X17.5524 Y0.8826
G01 X17.6190 Y0.8936
G01 X17.6412 Y0.8986
G01 X17.7059 Y0.9176
G01 X17.7788 Y0.9478
G01 X17.8479 Y0.9860
G01 X17.9031 Y1.0248
G01 X17.9209 Y1.0390
G01 X17.9710 Y1.0842
G01 X18.9821 Y2.0953
G01 X19.0389 Y2.0860
G01 X19.1622 Y2.0787
G01 X19.1850 Y2.0787
G01 X19.3083 Y2.0860
G01 X19.4413 Y2.1086
G01 X19.5710 Y2.1459
G01 X19.6956 Y2.1976
G01 X19.8137 Y2.2628
G01 X19.9238 Y2.3409
G01 X20.0244 Y2.4308
G01 X20.1143 Y2.5314
G01 X20.1924 Y2.6415
G01 X20.2576 Y2.7596
G01 X20.3093 Y2.8842
G01 X20.3466 Y3.0139
G01 X20.3692 Y3.1469
G01 X20.3765 Y3.2702
G01 X20.3765 Y3.2930
G01 X20.3692 Y3.4163
G01 X20.3599 Y3.4731
G01 X22.4114 Y5.5245
G01 X22.6750 Y5.5245
G01 X22.6889 Y5.5108
G01 X22.7645 Y5.4437
G01 X22.8468 Y5.3849
G01 X22.8661 Y5.3728
G01 X22.9446 Y5.3294
G01 X22.9651 Y5.3195
G01 X23.0587 Y5.2811
G01 X23.1668 Y5.2500
G01 X23.2777 Y5.2311
G01 X23.3900 Y5.2248
G01 X23.5023 Y5.2311
G01 X23.6132 Y5.2500
G01 X23.7213 Y5.2811
G01 X23.8149 Y5.3195
G01 X23.8354 Y5.3294
G01 X23.9237 Y5.3786
G01 X24.0064 Y5.4368
G01 X24.0242 Y5.4510
G01 X24.0911 Y5.5108
G01 X24.1072 Y5.5269
G01 X24.1670 Y5.5938
G01 X24.1812 Y5.6116
G01 X24.2394 Y5.6943
G01 X24.2886 Y5.7826
G01 X24.2985 Y5.8031
G01 X24.3369 Y5.8967
G01 X24.3680 Y6.0048
G01 X24.3853 Y6.1044
G01 X24.3879 Y6.1270
G01 X24.3932 Y6.2280
G01 X24.3879 Y6.3290
G01 X24.3853 Y6.3516
G01 X24.3680 Y6.4512
G01 X24.3404 Y6.5485
G01 X24.3328 Y6.5700
G01 X24.2985 Y6.6529
G01 X24.2886 Y6.6734
G01 X24.2394 Y6.7617
G01 X24.1812 Y6.8444
G01 X24.1670 Y6.8622
G01 X24.0994 Y6.9374
G01 X24.0242 Y7.0050
G01 X24.0064 Y7.0192
G01 X23.9237 Y7.0774
G01 X23.8354 Y7.1266
G01 X23.8149 Y7.1365
G01 X23.7213 Y7.1749
G01 X23.6243 Y7.2032
G01 X23.6021 Y7.2083
G01 X23.5023 Y7.2249
G01 X23.4527 Y7.2280
G01 X23.4910 Y7.2301
G01 X23.5136 Y7.2327
G01 X23.6021 Y7.2477
G01 X23.6243 Y7.2528
G01 X23.7213 Y7.2811
G01 X23.8149 Y7.3195
G01 X23.8354 Y7.3294
G01 X23.9237 Y7.3786
G01 X24.0155 Y7.4437
G01 X24.0994 Y7.5186
G01 X24.1743 Y7.6025
G01 X24.2394 Y7.6943
G01 X24.2939 Y7.7927
G01 X24.3369 Y7.8967
G01 X24.3680 Y8.0048
G01 X24.3869 Y8.1157
G01 X24.3932 Y8.2280
G01 X24.3869 Y8.3403
G01 X24.3703 Y8.4401
G01 X24.3652 Y8.4623
G01 X24.3404 Y8.5485
G01 X24.3328 Y8.5700
G01 X24.2939 Y8.6633
G01 X24.2394 Y8.7617
G01 X24.1812 Y8.8444
G01 X24.1670 Y8.8622
G01 X24.0994 Y8.9374
G01 X24.0242 Y9.0050
G01 X24.0064 Y9.0192
G01 X23.9332 Y9.0711
G01 X23.9139 Y9.0832
G01 X23.8253 Y9.1319
G01 X23.7320 Y9.1708
G01 X23.7105 Y9.1784
G01 X23.6132 Y9.2060
G01 X23.5023 Y9.2249
G01 X23.4527 Y9.2280
G01 X23.4910 Y9.2301
G01 X23.5136 Y9.2327
G01 X23.6021 Y9.2477
G01 X23.6243 Y9.2528
G01 X23.7213 Y9.2811
G01 X23.8253 Y9.3241
G01 X23.9237 Y9.3786
G01 X24.0064 Y9.4368
G01 X24.0242 Y9.4510
G01 X24.0994 Y9.5186
G01 X24.1743 Y9.6025
G01 X24.2394 Y9.6943
G01 X24.2939 Y9.7927
G01 X24.3328 Y9.8860
G01 X24.3404 Y9.9075
G01 X24.3652 Y9.9937
G01 X24.3703 Y10.0159
G01 X24.3869 Y10.1157
G01 X24.3929 Y10.2166
G01 X24.3930 Y10.2361
G01 X48.6390 Y34.4822
G01 X48.6916 Y34.5410
G01 X48.7309 Y34.5959
G01 X48.7430 Y34.6151
G01 X48.7754 Y34.6744
G01 X48.8056 Y34.7473
G01 X48.8246 Y34.8120
G01 X48.8296 Y34.8342
G01 X48.8406 Y34.9008
G01 X48.8450 Y34.9739
G01 X48.8450 Y38.9554
G01 X48.8406 Y39.0341
G01 X48.8296 Y39.1007
G01 X48.8246 Y39.1230
G01 X48.8056 Y39.1877
G01 X48.7800 Y39.2502
G01 X48.7701 Y39.2707
G01 X48.7372 Y39.3296
G01 X48.6984 Y39.3849
G01 X48.6842 Y39.4027
G01 X48.6390 Y39.4528
G01 X42.1234 Y45.9684
G01 X42.0646 Y46.0210
G01 X42.0097 Y46.0603
G01 X41.9904 Y46.0724
G01 X41.9312 Y46.1048
G01 X41.8690 Y46.1309
G01 X41.8475 Y46.1384
G01 X41.7825 Y46.1568
G01 X41.7047 Y46.1700
G01 X41.6260 Y46.1745
G01 X40.6252 Y46.1741
G01 X40.5578 Y46.1700
G01 X40.4801 Y46.1568
G01 X40.4043 Y46.1350
G01 X40.3314 Y46.1048
G01 X40.2623 Y46.0666
G01 X40.1980 Y46.0210
G01 X40.1392 Y45.9684
G01 X40.0940 Y45.9183
G01 X40.0798 Y45.9005
G01 X40.0473 Y45.8547
G01 X40.0352 Y45.8354
G01 X40.0028 Y45.7762
G01 X39.9726 Y45.7033
G01 X39.9508 Y45.6275
G01 X39.9392 Y45.5610
G01 X39.9366 Y45.5384
G01 X39.9335 Y45.4824
G01 X39.9335 Y45.4596
G01 X39.9376 Y45.3923
G01 X39.9508 Y45.3145
G01 X39.9726 Y45.2387
G01 X39.9982 Y45.1762
G01 X40.0080 Y45.1557
G01 X40.0352 Y45.1066
G01 X40.0473 Y45.0873
G01 X40.0866 Y45.0324
G01 X40.1392 Y44.9736
G01 X40.1893 Y44.9284
G01 X40.2071 Y44.9142
G01 X40.2623 Y44.8754
G01 X40.3213 Y44.8424
G01 X40.3418 Y44.8326
G01 X40.4043 Y44.8070
G01 X40.4690 Y44.7880
G01 X40.4912 Y44.7830
G01 X40.5578 Y44.7720
G01 X40.6309 Y44.7676
G01 X41.3346 Y44.7675
G01 X45.9231 Y40.1790
G01 X45.8655 Y40.1885
G01 X45.7420 Y40.1954
G01 X45.6298 Y40.1894
G01 X45.6072 Y40.1869
G01 X45.4965 Y40.1678
G01 X45.3885 Y40.1370
G01 X45.3670 Y40.1294
G01 X45.2737 Y40.0908
G01 X45.2532 Y40.0809
G01 X45.1551 Y40.0263
G01 X45.0633 Y39.9616
G01 X45.0455 Y39.9474
G01 X44.9619 Y39.8723
G01 X44.8795 Y39.7801
G01 X44.8142 Y39.6886
G01 X44.8021 Y39.6693
G01 X44.7533 Y39.5810
G01 X44.7434 Y39.5605
G01 X44.7007 Y39.4566
G01 X44.6693 Y39.3487
G01 X44.6642 Y39.3265
G01 X44.6457 Y39.2157
G01 X44.6388 Y39.0922
G01 X44.6388 Y38.6926
G01 X44.6457 Y38.5691
G01 X44.6642 Y38.4583
G01 X44.6693 Y38.4361
G01 X44.7007 Y38.3282
G01 X44.7480 Y38.2139
G01 X44.8079 Y38.1056
G01 X44.8726 Y38.0139
G01 X44.8868 Y37.9960
G01 X44.9619 Y37.9125
G01 X45.0542 Y37.8301
G01 X45.1456 Y37.7648
G01 X45.1649 Y37.7527
G01 X45.2633 Y37.6986
G01 X45.3776 Y37.6513
G01 X45.4855 Y37.6199
G01 X45.5077 Y37.6148
G01 X45.6072 Y37.5979
G01 X45.6298 Y37.5954
G01 X45.7420 Y37.5894
G01 X45.8655 Y37.5963
G01 X45.9875 Y37.6170
G01 X46.0955 Y37.6478
G01 X46.1170 Y37.6554
G01 X46.2103 Y37.6940
G01 X46.2308 Y37.7039
G01 X46.3289 Y37.7585
G01 X46.4207 Y37.8232
G01 X46.4385 Y37.8374
G01 X46.5138 Y37.9047
G01 X46.5299 Y37.9208
G01 X46.6045 Y38.0047
G01 X46.6761 Y38.1056
G01 X46.7307 Y38.2038
G01 X46.7406 Y38.2243
G01 X46.7833 Y38.3282
G01 X46.8147 Y38.4361
G01 X46.8198 Y38.4583
G01 X46.8383 Y38.5691
G01 X46.8451 Y38.6869
G01 X46.8451 Y39.0979
G01 X46.8383 Y39.2157
G01 X46.8288 Y39.2733
G01 X47.4381 Y38.6640
G01 X47.4381 Y35.2710
G01 X23.3981 Y11.2310
G01 X23.3786 Y11.2309
G01 X23.2777 Y11.2249
G01 X23.1668 Y11.2060
G01 X23.0587 Y11.1749
G01 X22.9651 Y11.1365
G01 X22.9446 Y11.1266
G01 X22.8563 Y11.0774
G01 X22.7736 Y11.0192
G01 X22.7558 Y11.0050
G01 X22.6889 Y10.9452
G01 X22.6728 Y10.9291
G01 X22.6130 Y10.8622
G01 X22.5988 Y10.8444
G01 X22.5406 Y10.7617
G01 X22.4914 Y10.6734
G01 X22.4815 Y10.6529
G01 X22.4431 Y10.5593
G01 X22.4120 Y10.4512
G01 X22.3947 Y10.3516
G01 X22.3921 Y10.3290
G01 X22.3868 Y10.2280
G01 X22.3921 Y10.1270
G01 X22.3947 Y10.1044
G01 X22.4120 Y10.0048
G01 X22.4396 Y9.9075
G01 X22.4472 Y9.8860
G01 X22.4815 Y9.8031
G01 X22.4914 Y9.7826
G01 X22.5406 Y9.6943
G01 X22.5988 Y9.6116
G01 X22.6130 Y9.5938
G01 X22.6806 Y9.5186
G01 X22.7558 Y9.4510
G01 X22.7736 Y9.4368
G01 X22.8563 Y9.3786
G01 X22.9446 Y9.3294
G01 X22.9651 Y9.3195
G01 X23.0587 Y9.2811
G01 X23.1557 Y9.2528
G01 X23.1779 Y9.2477
G01 X23.2777 Y9.2311
G01 X23.3273 Y9.2280
G01 X23.2890 Y9.2259
G01 X23.2664 Y9.2233
G01 X23.1779 Y9.2083
G01 X23.1557 Y9.2032
G01 X23.0587 Y9.1749
G01 X22.9547 Y9.1319
G01 X22.8563 Y9.0774
G01 X22.7736 Y9.0192
G01 X22.7558 Y9.0050
G01 X22.6889 Y8.9452
G01 X22.6750 Y8.9315
G01 X22.5500 Y8.9315
G01 X19.8851 Y11.5964
G01 X19.8850 Y17.9209
G01 X19.8806 Y17.9939
G01 X19.8696 Y18.0606
G01 X19.8646 Y18.0828
G01 X19.8490 Y18.1367
G01 X19.8415 Y18.1582
G01 X19.8154 Y18.2204
G01 X19.7830 Y18.2796
G01 X19.7709 Y18.2989
G01 X19.7316 Y18.3538
G01 X19.6790 Y18.4126
G01 X14.2391 Y23.8526
G01 X14.5018 Y23.8526
G01 X14.5245 Y23.8340
G01 X14.5703 Y23.8015
G01 X14.5896 Y23.7894
G01 X14.6488 Y23.7570
G01 X14.7217 Y23.7268
G01 X14.7864 Y23.7078
G01 X14.8086 Y23.7028
G01 X14.8752 Y23.6918
G01 X14.9483 Y23.6874
G01 X16.6214 Y23.6877
G01 X16.6888 Y23.6918
G01 X16.7554 Y23.7028
G01 X16.7776 Y23.7078
G01 X16.8423 Y23.7268
G01 X16.9048 Y23.7524
G01 X16.9253 Y23.7622
G01 X16.9744 Y23.7894
G01 X16.9937 Y23.8015
G01 X17.0486 Y23.8408
G01 X17.1074 Y23.8934
G01 X18.1185 Y24.9045
G01 X18.1753 Y24.8952
G01 X18.2986 Y24.8879
G01 X18.3214 Y24.8879
G01 X18.4447 Y24.8952
G01 X18.5777 Y24.9178
G01 X18.6965 Y24.9517
G01 X18.7180 Y24.9592
G01 X18.8320 Y25.0068
G01 X18.9403 Y25.0662
G01 X18.9596 Y25.0784
G01 X19.0511 Y25.1432
G01 X19.0689 Y25.1575
G01 X19.1608 Y25.2400
G01 X19.2507 Y25.3406
G01 X19.3224 Y25.4412
G01 X19.3346 Y25.4605
G01 X19.3940 Y25.5688
G01 X19.4457 Y25.6934
G01 X19.4802 Y25.8120
G01 X19.4853 Y25.8342
G01 X19.5056 Y25.9561
G01 X19.5129 Y26.0794
G01 X19.5129 Y26.1022
G01 X19.5056 Y26.2255
G01 X19.4853 Y26.3474
G01 X19.4802 Y26.3696
G01 X19.4457 Y26.4882
G01 X19.3987 Y26.6024
G01 X19.3888 Y26.6230
G01 X19.3346 Y26.7211
G01 X19.3224 Y26.7404
G01 X19.2507 Y26.8410
G01 X19.1686 Y26.9333
G01 X19.1525 Y26.9494
G01 X19.0602 Y27.0315
G01 X18.9501 Y27.1096
G01 X18.8422 Y27.1696
G01 X18.8216 Y27.1795
G01 X18.7180 Y27.2224
G01 X18.6965 Y27.2299
G01 X18.5777 Y27.2638
G01 X18.4560 Y27.2848
G01 X18.4334 Y27.2874
G01 X18.3214 Y27.2937
G01 X18.2986 Y27.2937
G01 X18.1753 Y27.2864
G01 X18.0423 Y27.2638
G01 X17.9126 Y27.2265
G01 X17.7984 Y27.1795
G01 X17.7778 Y27.1696
G01 X17.6699 Y27.1096
G01 X17.5689 Y27.0384
G01 X17.5511 Y27.0241
G01 X17.4592 Y26.9416
G01 X17.3767 Y26.8497
G01 X17.3624 Y26.8319
G01 X17.2912 Y26.7309
G01 X17.2260 Y26.6128
G01 X17.1784 Y26.4988
G01 X17.1709 Y26.4773
G01 X17.1370 Y26.3585
G01 X17.1144 Y26.2255
G01 X17.1071 Y26.1022
G01 X17.1071 Y26.0794
G01 X17.1134 Y25.9674
G01 X17.1160 Y25.9448
G01 X17.1237 Y25.8993
G01 X16.8977 Y25.6733
G01 X16.9057 Y25.6934
G01 X16.9091 Y25.7043
G01 X16.9430 Y25.8231
G01 X16.9656 Y25.9561
G01 X16.9732 Y26.0908
G01 X16.9666 Y26.2142
G01 X16.9640 Y26.2368
G01 X16.9430 Y26.3585
G01 X16.9091 Y26.4773
G01 X16.9016 Y26.4988
G01 X16.8587 Y26.6024
G01 X16.8488 Y26.6230
G01 X16.7888 Y26.7309
G01 X16.7176 Y26.8319
G01 X16.7033 Y26.8497
G01 X16.6286 Y26.9333
G01 X16.6125 Y26.9494
G01 X16.5202 Y27.0315
G01 X16.4196 Y27.1032
G01 X16.4003 Y27.1154
G01 X16.2920 Y27.1748
G01 X16.1674 Y27.2265
G01 X16.0377 Y27.2638
G01 X15.9160 Y27.2848
G01 X15.8934 Y27.2874
G01 X15.7700 Y27.2940
G01 X15.6466 Y27.2874
G01 X15.6240 Y27.2848
G01 X15.5134 Y27.2661
G01 X15.4912 Y27.2610
G01 X15.3726 Y27.2265
G01 X15.2480 Y27.1748
G01 X15.1299 Y27.1096
G01 X15.0289 Y27.0384
G01 X15.0111 Y27.0241
G01 X14.9192 Y26.9416
G01 X14.8367 Y26.8497
G01 X14.8224 Y26.8319
G01 X14.7576 Y26.7404
G01 X14.7454 Y26.7211
G01 X14.6860 Y26.6128
G01 X14.6384 Y26.4988
G01 X14.6309 Y26.4773
G01 X14.5970 Y26.3585
G01 X14.5760 Y26.2368
G01 X14.5734 Y26.2142
G01 X14.5671 Y26.1022
G01 X14.5671 Y26.0794
G01 X14.5744 Y25.9561
G01 X14.5970 Y25.8231
G01 X14.6343 Y25.6934
G01 X14.6813 Y25.5792
G01 X14.6912 Y25.5586
G01 X14.7512 Y25.4507
G01 X14.8224 Y25.3497
G01 X14.8367 Y25.3319
G01 X14.9118 Y25.2478
G01 X14.8676 Y25.2550
G01 X14.7888 Y25.2595
G01 X11.5510 Y25.2595
G01 X11.4836 Y25.2560
G01 X11.4722 Y25.2550
G01 X11.4458 Y25.2509
G01 X11.4900 Y25.2908
G01 X11.5725 Y25.3827
G01 X11.5868 Y25.4005
G01 X11.6516 Y25.4920
G01 X11.6638 Y25.5113
G01 X11.7232 Y25.6196
G01 X11.7708 Y25.7336
G01 X11.7783 Y25.7551
G01 X11.8122 Y25.8739
G01 X11.8348 Y26.0069
G01 X11.8421 Y26.1302
G01 X11.8421 Y26.1530
G01 X11.8348 Y26.2763
G01 X11.8255 Y26.3331
G01 X11.9306 Y26.4381
G01 X13.8710 Y26.4381
G01 X13.9384 Y26.4416
G01 X13.9611 Y26.4442
G01 X14.0164 Y26.4536
G01 X14.0386 Y26.4586
G01 X14.1034 Y26.4776
G01 X14.1658 Y26.5032
G01 X14.1864 Y26.5130
G01 X14.2453 Y26.5460
G01 X14.3005 Y26.5848
G01 X14.3183 Y26.5990
G01 X14.3684 Y26.6442
G01 X25.3191 Y37.5948
G01 X25.4220 Y37.5894
G01 X25.5455 Y37.5963
G01 X25.6675 Y37.6170
G01 X25.7864 Y37.6513
G01 X25.9007 Y37.6986
G01 X26.0089 Y37.7585
G01 X26.1098 Y37.8301
G01 X26.2021 Y37.9125
G01 X26.2845 Y38.0047
G01 X26.3498 Y38.0962
G01 X26.3619 Y38.1155
G01 X26.4107 Y38.2038
G01 X26.4206 Y38.2243
G01 X26.4633 Y38.3282
G01 X26.4975 Y38.4471
G01 X26.5183 Y38.5691
G01 X26.5249 Y38.6812
G01 X26.5251 Y39.0979
G01 X26.5183 Y39.2157
G01 X26.4975 Y39.3377
G01 X26.4633 Y39.4566
G01 X26.4160 Y39.5709
G01 X26.3561 Y39.6792
G01 X26.2845 Y39.7801
G01 X26.2021 Y39.8723
G01 X26.1185 Y39.9474
G01 X26.1007 Y39.9616
G01 X26.0184 Y40.0200
G01 X25.9991 Y40.0321
G01 X25.9007 Y40.0862
G01 X25.7864 Y40.1335
G01 X25.6675 Y40.1678
G01 X25.5568 Y40.1869
G01 X25.5342 Y40.1894
G01 X25.4334 Y40.1951
G01 X25.4106 Y40.1951
G01 X25.2985 Y40.1885
G01 X25.1765 Y40.1678
G01 X25.0576 Y40.1335
G01 X24.9537 Y40.0908
G01 X24.9332 Y40.0809
G01 X24.8449 Y40.0321
G01 X24.8256 Y40.0200
G01 X24.7342 Y39.9547
G01 X24.6502 Y39.8801
G01 X24.6341 Y39.8640
G01 X24.5595 Y39.7801
G01 X24.4942 Y39.6886
G01 X24.4821 Y39.6693
G01 X24.4280 Y39.5709
G01 X24.3807 Y39.4566
G01 X24.3465 Y39.3377
G01 X24.3273 Y39.2270
G01 X24.3248 Y39.2044
G01 X24.3188 Y39.0922
G01 X24.3188 Y38.6926
G01 X24.3243 Y38.5897
G01 X23.7585 Y38.0239
G01 X23.8161 Y38.1056
G01 X23.8760 Y38.2139
G01 X23.9233 Y38.3282
G01 X23.9575 Y38.4471
G01 X23.9783 Y38.5691
G01 X23.9849 Y38.6812
G01 X23.9852 Y39.0922
G01 X23.9783 Y39.2157
G01 X23.9598 Y39.3265
G01 X23.9547 Y39.3487
G01 X23.9233 Y39.4566
G01 X23.8806 Y39.5605
G01 X23.8707 Y39.5810
G01 X23.8161 Y39.6792
G01 X23.7445 Y39.7801
G01 X23.6621 Y39.8723
G01 X23.5785 Y39.9474
G01 X23.5607 Y39.9616
G01 X23.4784 Y40.0200
G01 X23.4591 Y40.0321
G01 X23.3607 Y40.0862
G01 X23.2464 Y40.1335
G01 X23.1275 Y40.1678
G01 X23.0055 Y40.1885
G01 X22.8820 Y40.1954
G01 X22.7698 Y40.1894
G01 X22.7472 Y40.1869
G01 X22.6477 Y40.1700
G01 X22.6255 Y40.1649
G01 X22.5176 Y40.1335
G01 X22.4033 Y40.0862
G01 X22.2951 Y40.0263
G01 X22.1942 Y39.9547
G01 X22.1019 Y39.8723
G01 X22.0195 Y39.7801
G01 X21.9479 Y39.6792
G01 X21.8933 Y39.5810
G01 X21.8834 Y39.5605
G01 X21.8448 Y39.4672
G01 X21.8372 Y39.4457
G01 X21.8065 Y39.3377
G01 X21.7857 Y39.2157
G01 X21.7788 Y39.0922
G01 X21.7788 Y38.6926
G01 X21.7848 Y38.5804
G01 X21.7873 Y38.5578
G01 X21.8065 Y38.4471
G01 X21.8407 Y38.3282
G01 X21.8880 Y38.2139
G01 X21.9479 Y38.1056
G01 X22.0195 Y38.0047
G01 X22.1019 Y37.9125
G01 X22.1942 Y37.8301
G01 X22.2856 Y37.7648
G01 X22.3049 Y37.7527
G01 X22.4033 Y37.6986
G01 X22.5070 Y37.6554
G01 X22.5285 Y37.6478
G01 X22.6255 Y37.6199
G01 X22.6477 Y37.6148
G01 X22.7585 Y37.5963
G01 X22.8820 Y37.5894
G01 X23.0055 Y37.5963
G01 X23.1275 Y37.6170
G01 X23.2464 Y37.6513
G01 X23.3607 Y37.6986
G01 X23.4689 Y37.7585
G01 X23.5507 Y37.8161
G01 X13.5796 Y27.8450
G01 X11.6392 Y27.8450
G01 X11.5604 Y27.8406
G01 X11.4827 Y27.8274
G01 X11.4069 Y27.8056
G01 X11.3340 Y27.7754
G01 X11.2649 Y27.7372
G01 X11.2006 Y27.6916
G01 X11.1418 Y27.6390
G01 X10.8307 Y27.3279
G01 X10.7739 Y27.3372
G01 X10.6506 Y27.3445
G01 X10.6278 Y27.3445
G01 X10.5045 Y27.3372
G01 X10.3715 Y27.3146
G01 X10.2418 Y27.2773
G01 X10.1172 Y27.2256
G01 X10.0089 Y27.1662
G01 X9.9896 Y27.1540
G01 X9.8981 Y27.0892
G01 X9.8803 Y27.0749
G01 X9.7884 Y26.9924
G01 X9.7059 Y26.9005
G01 X9.6916 Y26.8827
G01 X9.6268 Y26.7912
G01 X9.6146 Y26.7719
G01 X9.5552 Y26.6636
G01 X9.5035 Y26.5390
G01 X9.4690 Y26.4204
G01 X9.4639 Y26.3982
G01 X9.4436 Y26.2763
G01 X9.4363 Y26.1530
G01 X9.4363 Y26.1302
G01 X9.4426 Y26.0182
G01 X9.4452 Y25.9956
G01 X9.4662 Y25.8739
G01 X9.5001 Y25.7551
G01 X9.5076 Y25.7336
G01 X9.5552 Y25.6196
G01 X9.6146 Y25.5113
G01 X9.6268 Y25.4920
G01 X9.6985 Y25.3914
G01 X9.7806 Y25.2991
G01 X9.7967 Y25.2830
G01 X9.8890 Y25.2009
G01 X9.9991 Y25.1228
G01 X10.1070 Y25.0628
G01 X10.1276 Y25.0529
G01 X10.2418 Y25.0059
G01 X10.3604 Y24.9714
G01 X10.3826 Y24.9663
G01 X10.5045 Y24.9460
G01 X10.6392 Y24.9384
G01 X10.7626 Y24.9450
G01 X10.7852 Y24.9476
G01 X10.9069 Y24.9686
G01 X10.9933 Y24.9931
G01 X4.8586 Y18.8584
G01 X4.8060 Y18.7996
G01 X4.7604 Y18.7353
G01 X4.7222 Y18.6662
G01 X4.6920 Y18.5934
G01 X4.6730 Y18.5286
G01 X4.6680 Y18.5064
G01 X4.6570 Y18.4398
G01 X4.6526 Y18.3667
G01 X4.6525 Y17.9211
G01 X4.6058 Y17.8875
G01 X4.5052 Y17.7976
G01 X4.4153 Y17.6970
G01 X4.3436 Y17.5964
G01 X4.3314 Y17.5771
G01 X4.2772 Y17.4790
G01 X4.2673 Y17.4584
G01 X4.2203 Y17.3442
G01 X4.1858 Y17.2256
G01 X4.1807 Y17.2034
G01 X4.1604 Y17.0815
G01 X4.1531 Y16.9582
G01 X4.1531 Y16.9354
G01 X4.1604 Y16.8121
G01 X4.1807 Y16.6902
G01 X4.1858 Y16.6680
G01 X4.2203 Y16.5494
G01 X4.2720 Y16.4248
G01 X4.3372 Y16.3067
G01 X4.4153 Y16.1966
G01 X4.4974 Y16.1043
G01 X4.5135 Y16.0882
G01 X4.5971 Y16.0135
G01 X4.6149 Y15.9992
G01 X4.7159 Y15.9280
G01 X4.8238 Y15.8680
G01 X4.8444 Y15.8581
G01 X4.9586 Y15.8111
G01 X5.0772 Y15.7766
G01 X5.0994 Y15.7715
G01 X5.2213 Y15.7512
G01 X5.3560 Y15.7436
G01 X5.4907 Y15.7512
G01 X5.6237 Y15.7738
G01 X5.7534 Y15.8111
G01 X5.8780 Y15.8628
G01 X5.9961 Y15.9280
G01 X6.1062 Y16.0061
G01 X6.2068 Y16.0960
G01 X6.2967 Y16.1966
G01 X6.3748 Y16.3067
G01 X6.4400 Y16.4248
G01 X6.4917 Y16.5494
G01 X6.5290 Y16.6791
G01 X6.5516 Y16.8121
G01 X6.5592 Y16.9468
G01 X6.5516 Y17.0815
G01 X6.5290 Y17.2145
G01 X6.4917 Y17.3442
G01 X6.4447 Y17.4584
G01 X6.4348 Y17.4790
G01 X6.3748 Y17.5869
G01 X6.2967 Y17.6970
G01 X6.2146 Y17.7893
G01 X6.1985 Y17.8054
G01 X6.1062 Y17.8875
G01 X6.0595 Y17.9211
G01 X6.0595 Y18.0696
G01 X11.8424 Y23.8526
G01 X13.2426 Y23.8526
G01 X13.1908 Y23.7946
G01 X13.1515 Y23.7397
G01 X13.1394 Y23.7204
G01 X13.1122 Y23.6713
G01 X13.1024 Y23.6508
G01 X13.0768 Y23.5883
G01 X13.0550 Y23.5125
G01 X13.0418 Y23.4348
G01 X13.0377 Y23.3674
G01 X13.0377 Y23.3446
G01 X13.0408 Y23.2886
G01 X13.0434 Y23.2660
G01 X13.0550 Y23.1995
G01 X13.0768 Y23.1237
G01 X13.1070 Y23.0508
G01 X13.1394 Y22.9916
G01 X13.1515 Y22.9723
G01 X13.1908 Y22.9174
G01 X13.2434 Y22.8586
G01 X17.8618 Y18.2402
G01 X17.7493 Y18.2722
G01 X17.6276 Y18.2932
G01 X17.6050 Y18.2958
G01 X17.4930 Y18.3021
G01 X17.4702 Y18.3021
G01 X17.3469 Y18.2948
G01 X17.2250 Y18.2745
G01 X17.2028 Y18.2694
G01 X17.0842 Y18.2349
G01 X16.9596 Y18.1832
G01 X16.8415 Y18.1180
G01 X16.7314 Y18.0399
G01 X16.6308 Y17.9500
G01 X16.5409 Y17.8494
G01 X16.4628 Y17.7393
G01 X16.4028 Y17.6314
G01 X16.3929 Y17.6108
G01 X16.3500 Y17.5072
G01 X16.3425 Y17.4857
G01 X16.3086 Y17.3669
G01 X16.2876 Y17.2452
G01 X16.2850 Y17.2226
G01 X16.2784 Y17.0992
G01 X16.2860 Y16.9645
G01 X16.3063 Y16.8426
G01 X16.3114 Y16.8204
G01 X16.3459 Y16.7018
G01 X16.3929 Y16.5876
G01 X16.4028 Y16.5670
G01 X16.4628 Y16.4591
G01 X16.5340 Y16.3581
G01 X16.5483 Y16.3403
G01 X16.6308 Y16.2484
G01 X16.7227 Y16.1659
G01 X16.7405 Y16.1516
G01 X16.8415 Y16.0804
G01 X16.9494 Y16.0204
G01 X16.9700 Y16.0105
G01 X17.0842 Y15.9635
G01 X17.2139 Y15.9262
G01 X17.3356 Y15.9052
G01 X17.3582 Y15.9026
G01 X17.4816 Y15.8960
G01 X17.6050 Y15.9026
G01 X17.6276 Y15.9052
G01 X17.7493 Y15.9262
G01 X17.8681 Y15.9601
G01 X17.8896 Y15.9676
G01 X18.0036 Y16.0152
G01 X18.1119 Y16.0746
G01 X18.1312 Y16.0868
G01 X18.2318 Y16.1585
G01 X18.3241 Y16.2406
G01 X18.3402 Y16.2567
G01 X18.4223 Y16.3490
G01 X18.4782 Y16.4272
G01 X18.4782 Y11.2993
G01 X18.4816 Y11.2376
G01 X18.4842 Y11.2150
G01 X18.4958 Y11.1485
G01 X18.5142 Y11.0836
G01 X18.5217 Y11.0620
G01 X18.5478 Y10.9998
G01 X18.5860 Y10.9308
G01 X18.6316 Y10.8664
G01 X18.6842 Y10.8076
G01 X21.7612 Y7.7306
G01 X21.8200 Y7.6780
G01 X21.8844 Y7.6324
G01 X21.9534 Y7.5942
G01 X22.0263 Y7.5640
G01 X22.0911 Y7.5450
G01 X22.1133 Y7.5400
G01 X22.1799 Y7.5290
G01 X22.2529 Y7.5246
G01 X22.6750 Y7.5245
G01 X22.6889 Y7.5108
G01 X22.7558 Y7.4510
G01 X22.7736 Y7.4368
G01 X22.8563 Y7.3786
G01 X22.9547 Y7.3241
G01 X23.0587 Y7.2811
G01 X23.1557 Y7.2528
G01 X23.1779 Y7.2477
G01 X23.2664 Y7.2327
G01 X23.2890 Y7.2301
G01 X23.3273 Y7.2280
G01 X23.2890 Y7.2259
G01 X23.2664 Y7.2233
G01 X23.1779 Y7.2083
G01 X23.1557 Y7.2032
G01 X23.0587 Y7.1749
G01 X22.9547 Y7.1319
G01 X22.8563 Y7.0774
G01 X22.7736 Y7.0192
G01 X22.7558 Y7.0050
G01 X22.6889 Y6.9452
G01 X22.6750 Y6.9315
G01 X22.1200 Y6.9315
G01 X22.0526 Y6.9280
G01 X22.0300 Y6.9254
G01 X21.9635 Y6.9138
G01 X21.8985 Y6.8954
G01 X21.8770 Y6.8879
G01 X21.8252 Y6.8664
G01 X21.8047 Y6.8566
G01 X21.7457 Y6.8236
G01 X21.6814 Y6.7780
G01 X21.6226 Y6.7254
G01 X19.3651 Y4.4679
G01 X19.3083 Y4.4772
G01 X19.1850 Y4.4845
G01 X19.1622 Y4.4845
G01 X19.0389 Y4.4772
G01 X18.9059 Y4.4546
G01 X18.7762 Y4.4173
G01 X18.6516 Y4.3656
G01 X18.5335 Y4.3004
G01 X18.4234 Y4.2223
G01 X18.3228 Y4.1324
G01 X18.2329 Y4.0318
G01 X18.1548 Y3.9217
G01 X18.0896 Y3.8036
G01 X18.0379 Y3.6790
G01 X18.0006 Y3.5493
G01 X17.9780 Y3.4163
G01 X17.9707 Y3.2930
G01 X17.9707 Y3.2702
G01 X17.9780 Y3.1469
G01 X17.9873 Y3.0901
G01 X17.7613 Y2.8641
G01 X17.7693 Y2.8842
G01 X17.7727 Y2.8951
G01 X17.8066 Y3.0139
G01 X17.8292 Y3.1469
G01 X17.8368 Y3.2816
G01 X17.8292 Y3.4163
G01 X17.8066 Y3.5493
G01 X17.7693 Y3.6790
G01 X17.7176 Y3.8036
G01 X17.6524 Y3.9217
G01 X17.5743 Y4.0318
G01 X17.4844 Y4.1324
G01 X17.3838 Y4.2223
G01 X17.2737 Y4.3004
G01 X17.1556 Y4.3656
G01 X17.0310 Y4.4173
G01 X16.9013 Y4.4546
G01 X16.7683 Y4.4772
G01 X16.6336 Y4.4848
G01 X16.5102 Y4.4782
G01 X16.4876 Y4.4756
G01 X16.3659 Y4.4546
G01 X16.2471 Y4.4207
G01 X16.2256 Y4.4132
G01 X16.1220 Y4.3703
G01 X16.1014 Y4.3604
G01 X15.9935 Y4.3004
G01 X15.8834 Y4.2223
G01 X15.7828 Y4.1324
G01 X15.6929 Y4.0318
G01 X15.6148 Y3.9217
G01 X15.5548 Y3.8138
G01 X15.5449 Y3.7932
G01 X15.5020 Y3.6896
G01 X15.4945 Y3.6681
G01 X15.4606 Y3.5493
G01 X15.4396 Y3.4276
G01 X15.4370 Y3.4050
G01 X15.4304 Y3.2816
G01 X15.4380 Y3.1469
G01 X15.4606 Y3.0139
G01 X15.4945 Y2.8951
G01 X15.4979 Y2.8842
G01 X15.5059 Y2.8641
G01 X15.2799 Y3.0901
G01 X15.2876 Y3.1356
G01 X15.2902 Y3.1582
G01 X15.2965 Y3.2702
G01 X15.2965 Y3.2930
G01 X15.2892 Y3.4163
G01 X15.2666 Y3.5493
G01 X15.2327 Y3.6681
G01 X15.2252 Y3.6896
G01 X15.1776 Y3.8036
G01 X15.1124 Y3.9217
G01 X15.0412 Y4.0227
G01 X15.0269 Y4.0405
G01 X14.9444 Y4.1324
G01 X14.8438 Y4.2223
G01 X14.7337 Y4.3004
G01 X14.6258 Y4.3604
G01 X14.6052 Y4.3703
G01 X14.4910 Y4.4173
G01 X14.3613 Y4.4546
G01 X14.2396 Y4.4756
G01 X14.2170 Y4.4782
G01 X14.0936 Y4.4848
G01 X13.9702 Y4.4782
G01 X13.9476 Y4.4756
G01 X13.8370 Y4.4569
G01 X13.8148 Y4.4518
G01 X13.6962 Y4.4173
G01 X13.5716 Y4.3656
G01 X13.4535 Y4.3004
G01 X13.3525 Y4.2292
G01 X13.3347 Y4.2149
G01 X13.2428 Y4.1324
G01 X13.1529 Y4.0318
G01 X13.0748 Y3.9217
G01 X13.0096 Y3.8036
G01 X12.9620 Y3.6896
G01 X12.9545 Y3.6681
G01 X12.9206 Y3.5493
G01 X12.8996 Y3.4276
G01 X12.8970 Y3.4050
G01 X12.8904 Y3.2816
G01 X12.8980 Y3.1469
G01 X12.9073 Y3.0901
G01 X12.6813 Y2.8641
G01 X12.6893 Y2.8842
G01 X12.6927 Y2.8951
G01 X12.7266 Y3.0139
G01 X12.7476 Y3.1356
G01 X12.7502 Y3.1582
G01 X12.7568 Y3.2816
G01 X12.7502 Y3.4050
G01 X12.7476 Y3.4276
G01 X12.7266 Y3.5493
G01 X12.6893 Y3.6790
G01 X12.6423 Y3.7932
G01 X12.6324 Y3.8138
G01 X12.5724 Y3.9217
G01 X12.5012 Y4.0227
G01 X12.4869 Y4.0405
G01 X12.4044 Y4.1324
G01 X12.3038 Y4.2223
G01 X12.2032 Y4.2940
G01 X12.1839 Y4.3062
G01 X12.0756 Y4.3656
G01 X11.9616 Y4.4132
G01 X11.9401 Y4.4207
G01 X11.8213 Y4.4546
G01 X11.6883 Y4.4772
G01 X11.5650 Y4.4845
G01 X11.5422 Y4.4845
G01 X11.4189 Y4.4772
G01 X11.2970 Y4.4569
G01 X11.2748 Y4.4518
G01 X11.1562 Y4.4173
G01 X11.0316 Y4.3656
G01 X10.9233 Y4.3062
G01 X10.9040 Y4.2940
G01 X10.8034 Y4.2223
G01 X10.7111 Y4.1402
G01 X10.6950 Y4.1241
G01 X10.6129 Y4.0318
G01 X10.5412 Y3.9312
G01 X10.5290 Y3.9119
G01 X10.4696 Y3.8036
G01 X10.4220 Y3.6896
G01 X10.4145 Y3.6681
G01 X10.3806 Y3.5493
G01 X10.3580 Y3.4163
G01 X10.3507 Y3.2930
G01 X10.3507 Y3.2702
G01 X10.3580 Y3.1469
G01 X10.3783 Y3.0250
G01 X10.3834 Y3.0028
G01 X10.4179 Y2.8842
G01 X10.4696 Y2.7596
G01 X10.5348 Y2.6415
G01 X10.6060 Y2.5405
G01 X10.6203 Y2.5227
G01 X10.6950 Y2.4391
G01 X10.7111 Y2.4230
G01 X10.8034 Y2.3409
G01 X10.8816 Y2.2850
G01 X9.6856 Y2.2850
G01 X9.7638 Y2.3409
G01 X9.8561 Y2.4230
G01 X9.8722 Y2.4391
G01 X9.9543 Y2.5314
G01 X10.0260 Y2.6320
G01 X10.0382 Y2.6513
G01 X10.0976 Y2.7596
G01 X10.1452 Y2.8736
G01 X10.1527 Y2.8951
G01 X10.1866 Y3.0139
G01 X10.2076 Y3.1356
G01 X10.2102 Y3.1582
G01 X10.2165 Y3.2702
G01 X10.2165 Y3.2930
G01 X10.2092 Y3.4163
G01 X10.1889 Y3.5382
G01 X10.1838 Y3.5604
G01 X10.1493 Y3.6790
G01 X10.1023 Y3.7932
G01 X10.0924 Y3.8138
G01 X10.0324 Y3.9217
G01 X9.9612 Y4.0227
G01 X9.9469 Y4.0405
G01 X9.8644 Y4.1324
G01 X9.7638 Y4.2223
G01 X9.6632 Y4.2940
G01 X9.6439 Y4.3062
G01 X9.5356 Y4.3656
G01 X9.4216 Y4.4132
G01 X9.4001 Y4.4207
G01 X9.2813 Y4.4546
G01 X9.1483 Y4.4772
G01 X9.0250 Y4.4845
G01 X9.0022 Y4.4845
G01 X8.8789 Y4.4772
G01 X8.7570 Y4.4569
G01 X8.7348 Y4.4518
G01 X8.6162 Y4.4173
G01 X8.4916 Y4.3656
G01 X8.3833 Y4.3062
G01 X8.3640 Y4.2940
G01 X8.2634 Y4.2223
G01 X8.1711 Y4.1402
G01 X8.1550 Y4.1241
G01 X8.0803 Y4.0405
G01 X8.0660 Y4.0227
G01 X7.9948 Y3.9217
G01 X7.9348 Y3.8138
G01 X7.9249 Y3.7932
G01 X7.8779 Y3.6790
G01 X7.8434 Y3.5604
G01 X7.8383 Y3.5382
G01 X7.8196 Y3.4276
G01 X7.8170 Y3.4050
G01 X7.8104 Y3.2816
G01 X7.8180 Y3.1469
G01 X7.8406 Y3.0139
G01 X7.8745 Y2.8951
G01 X7.8779 Y2.8842
G01 X7.8859 Y2.8641
G01 X7.6599 Y3.0901
G01 X7.6676 Y3.1356
G01 X7.6702 Y3.1582
G01 X7.6765 Y3.2702
G01 X7.6765 Y3.2930
G01 X7.6692 Y3.4163
G01 X7.6466 Y3.5493
G01 X7.6093 Y3.6790
G01 X7.5576 Y3.8036
G01 X7.4924 Y3.9217
G01 X7.4212 Y4.0227
G01 X7.4069 Y4.0405
G01 X7.3322 Y4.1241
G01 X7.3161 Y4.1402
G01 X7.2238 Y4.2223
G01 X7.1137 Y4.3004
G01 X6.9956 Y4.3656
G01 X6.8816 Y4.4132
G01 X6.8601 Y4.4207
G01 X6.7413 Y4.4546
G01 X6.6083 Y4.4772
G01 X6.4850 Y4.4845
G01 X6.4622 Y4.4845
G01 X6.3389 Y4.4772
G01 X6.2170 Y4.4569
G01 X6.1948 Y4.4518
G01 X6.0871 Y4.4207
G01 X6.0656 Y4.4132
G01 X5.9516 Y4.3656
G01 X5.8335 Y4.3004
G01 X5.7234 Y4.2223
G01 X5.6228 Y4.1324
G01 X5.5329 Y4.0318
G01 X5.4548 Y3.9217
G01 X5.3896 Y3.8036
G01 X5.3379 Y3.6790
G01 X5.3006 Y3.5493
G01 X5.2780 Y3.4163
G01 X5.2707 Y3.2930
G01 X5.2707 Y3.2702
G01 X5.2780 Y3.1469
G01 X5.2873 Y3.0901
G01 X5.0613 Y2.8641
G01 X5.0693 Y2.8842
G01 X5.0727 Y2.8951
G01 X5.1038 Y3.0028
G01 X5.1089 Y3.0250
G01 X5.1292 Y3.1469
G01 X5.1368 Y3.2816
G01 X5.1292 Y3.4163
G01 X5.1089 Y3.5382
G01 X5.1038 Y3.5604
G01 X5.0727 Y3.6681
G01 X5.0652 Y3.6896
G01 X5.0176 Y3.8036
G01 X4.9524 Y3.9217
G01 X4.8743 Y4.0318
G01 X4.7922 Y4.1241
G01 X4.7761 Y4.1402
G01 X4.6925 Y4.2149
G01 X4.6747 Y4.2292
G01 X4.5737 Y4.3004
G01 X4.4556 Y4.3656
G01 X4.3416 Y4.4132
G01 X4.3201 Y4.4207
G01 X4.2013 Y4.4546
G01 X4.0796 Y4.4756
G01 X4.0570 Y4.4782
G01 X3.9336 Y4.4848
G01 X3.8102 Y4.4782
G01 X3.7876 Y4.4756
G01 X3.6659 Y4.4546
G01 X3.5471 Y4.4207
G01 X3.5256 Y4.4132
G01 X3.4116 Y4.3656
G01 X3.3033 Y4.3062
G01 X3.2840 Y4.2940
G01 X3.1834 Y4.2223
G01 X3.0911 Y4.1402
G01 X3.0750 Y4.1241
G01 X2.9929 Y4.0318
G01 X2.9212 Y3.9312
G01 X2.9090 Y3.9119
G01 X2.8496 Y3.8036
G01 X2.8020 Y3.6896
G01 X2.7945 Y3.6681
G01 X2.7606 Y3.5493
G01 X2.7396 Y3.4276
G01 X2.7370 Y3.4050
G01 X2.7304 Y3.2816
G01 X2.7370 Y3.1582
G01 X2.7396 Y3.1356
G01 X2.7606 Y3.0139
G01 X2.7945 Y2.8951
G01 X2.7979 Y2.8842
G01 X2.8059 Y2.8641
G01 X2.5799 Y3.0901
G01 X2.5892 Y3.1469
G01 X2.5968 Y3.2816
G01 X2.5902 Y3.4050
G01 X2.5876 Y3.4276
G01 X2.5666 Y3.5493
G01 X2.5327 Y3.6681
G01 X2.5252 Y3.6896
G01 X2.4776 Y3.8036
G01 X2.4124 Y3.9217
G01 X2.3343 Y4.0318
G01 X2.2522 Y4.1241
G01 X2.2361 Y4.1402
G01 X2.1438 Y4.2223
G01 X2.0971 Y4.2559
G01 X2.0971 Y21.6846
G01 X5.3677 Y24.9553
G01 X5.4245 Y24.9460
G01 X5.5478 Y24.9387
G01 X5.5706 Y24.9387
G01 X5.6939 Y24.9460
G01 X5.8269 Y24.9686
G01 X5.9566 Y25.0059
G01 X6.0812 Y25.0576
G01 X6.1993 Y25.1228
G01 X6.3094 Y25.2009
G01 X6.4100 Y25.2908
G01 X6.4999 Y25.3914
G01 X6.5716 Y25.4920
G01 X6.5838 Y25.5113
G01 X6.6380 Y25.6094
G01 X6.6479 Y25.6300
G01 X6.6949 Y25.7442
G01 X6.7322 Y25.8739
G01 X6.7548 Y26.0069
G01 X6.7624 Y26.1416
G01 X6.7548 Y26.2763
G01 X6.7345 Y26.3982
G01 X6.7294 Y26.4204
G01 X6.6983 Y26.5281
G01 X6.6908 Y26.5496
G01 X6.6432 Y26.6636
G01 X6.5780 Y26.7817
G01 X6.4999 Y26.8918
G01 X6.4100 Y26.9924
G01 X6.3094 Y27.0823
G01 X6.1993 Y27.1604
G01 X6.0812 Y27.2256
G01 X5.9566 Y27.2773
G01 X5.8269 Y27.3146
G01 X5.6939 Y27.3372
G01 X5.5706 Y27.3445
G01 X5.5478 Y27.3445
G01 X5.4245 Y27.3372
G01 X5.3677 Y27.3279
G01 X1.9701 Y30.7256
G01 X1.9701 Y39.5756
G01 X4.8506 Y42.4561
G01 X5.3560 Y42.4561
G01 X5.3562 Y42.2860
G01 X5.3587 Y42.2632
G01 X5.3637 Y42.2407
G01 X5.3712 Y42.2189
G01 X5.3811 Y42.1982
G01 X5.3933 Y42.1787
G01 X5.4076 Y42.1607
G01 X5.4239 Y42.1444
G01 X5.4419 Y42.1301
G01 X5.4614 Y42.1179
G01 X5.4821 Y42.1080
G01 X5.5039 Y42.1005
G01 X5.5264 Y42.0955
G01 X5.5492 Y42.0930
G01 X7.6012 Y42.0930
G01 X7.6240 Y42.0955
G01 X7.6465 Y42.1005
G01 X7.6683 Y42.1080
G01 X7.6890 Y42.1179
G01 X7.7085 Y42.1301
G01 X7.7265 Y42.1444
G01 X7.7428 Y42.1607
G01 X7.7571 Y42.1787
G01 X7.7693 Y42.1982
G01 X7.7792 Y42.2189
G01 X7.7867 Y42.2407
G01 X7.7895 Y42.2529
G01 X11.2397 Y42.2529
G01 X11.2733 Y42.2062
G01 X11.3632 Y42.1056
G01 X11.4551 Y42.0231
G01 X11.4729 Y42.0088
G01 X11.5739 Y41.9376
G01 X11.6818 Y41.8776
G01 X11.7024 Y41.8677
G01 X11.8060 Y41.8248
G01 X11.8275 Y41.8173
G01 X11.9463 Y41.7834
G01 X12.0680 Y41.7624
G01 X12.0906 Y41.7598
G01 X12.2140 Y41.7532
G01 X12.3487 Y41.7608
G01 X12.4706 Y41.7811
G01 X12.4928 Y41.7862
G01 X12.6005 Y41.8173
G01 X12.6220 Y41.8248
G01 X12.7360 Y41.8724
G01 X12.8443 Y41.9318
G01 X12.8636 Y41.9440
G01 X12.9551 Y42.0088
G01 X12.9729 Y42.0231
G01 X13.0648 Y42.1056
G01 X13.1473 Y42.1975
G01 X13.1616 Y42.2153
G01 X13.2328 Y42.3163
G01 X13.2980 Y42.4344
G01 X13.3497 Y42.5590
G01 X13.3870 Y42.6887
G01 X13.4096 Y42.8217
G01 X13.4169 Y42.9450
G01 X13.4169 Y42.9678
G01 X13.4106 Y43.0798
G01 X13.4080 Y43.1024
G01 X13.3870 Y43.2241
G01 X13.3531 Y43.3429
G01 X13.3456 Y43.3644
G01 X13.2980 Y43.4784
G01 X13.2328 Y43.5965
G01 X13.1547 Y43.7066
G01 X13.0726 Y43.7989
G01 X13.0565 Y43.8150
G01 X12.9642 Y43.8971
G01 X12.8541 Y43.9752
G01 X12.7360 Y44.0404
G01 X12.6220 Y44.0880
G01 X12.6005 Y44.0955
G01 X12.4928 Y44.1266
G01 X12.4706 Y44.1317
G01 X12.3487 Y44.1520
G01 X12.2254 Y44.1593
G01 X12.2026 Y44.1593
G01 X12.0793 Y44.1520
G01 X11.9463 Y44.1294
G01 X11.8166 Y44.0921
G01 X11.7024 Y44.0451
G01 X11.6818 Y44.0352
G01 X11.5739 Y43.9752
G01 X11.4729 Y43.9040
G01 X11.4551 Y43.8897
G01 X11.3715 Y43.8150
G01 X11.3554 Y43.7989
G01 X11.2733 Y43.7066
G01 X11.2397 Y43.6599
G01 X7.7944 Y43.6599
G01 X7.7944 Y44.0232
G01 X7.7942 Y44.0332
G01 X7.7917 Y44.0560
G01 X7.7867 Y44.0785
G01 X7.7792 Y44.1003
G01 X7.7693 Y44.1210
G01 X7.7571 Y44.1405
G01 X7.7428 Y44.1585
G01 X7.7265 Y44.1748
G01 X7.7085 Y44.1891
G01 X7.6890 Y44.2013
G01 X7.6683 Y44.2112
G01 X7.6465 Y44.2187
G01 X7.6240 Y44.2237
G01 X7.6012 Y44.2262
G01 X7.5912 Y44.2264
G01 X5.5592 Y44.2264
G01 X5.5492 Y44.2262
G01 X5.5264 Y44.2237
G01 X5.5039 Y44.2187
G01 X5.4821 Y44.2112
G01 X5.4614 Y44.2013
G01 X5.4419 Y44.1891
G01 X5.4239 Y44.1748
G01 X5.4076 Y44.1585
G01 X5.3933 Y44.1405
G01 X5.3811 Y44.1210
G01 X5.3712 Y44.1003
G01 X5.3637 Y44.0785
G01 X5.3587 Y44.0560
G01 X5.3562 Y44.0332
G01 X5.3560 Y43.8631
G01 X4.5592 Y43.8631
G01 X4.4804 Y43.8586
G01 X4.4027 Y43.8454
G01 X4.3377 Y43.8270
G01 X4.3162 Y43.8195
G01 X4.2540 Y43.7934
G01 X4.1948 Y43.7610
G01 X4.1755 Y43.7489
G01 X4.1206 Y43.7096
G01 X4.0618 Y43.6570
G01 X0.7652 Y40.3603
G01 X0.7166 Y40.3056
G01 X0.6773 Y40.2507
G01 X0.6652 Y40.2314
G01 X0.6380 Y40.1823
G01 X0.6282 Y40.1618
G01 X0.6026 Y40.0993
G01 X0.5808 Y40.0235
G01 X0.5676 Y39.9458
G01 X0.5632 Y39.8727
G01 X0.5631 Y30.4342
G00 Z2.5400
G00 X6.4228 Y46.7664
G01 F76.20
G01 Z-0.2000
G01 F76.20
G01 X6.3034 Y46.7597
G01 X6.1966 Y46.7419
G01 X6.1744 Y46.7368
G01 X6.0813 Y46.7100
G01 X6.0598 Y46.7025
G01 X5.9599 Y46.6608
G01 X5.8552 Y46.6029
G01 X5.7577 Y46.5337
G01 X5.6685 Y46.4539
G01 X5.5887 Y46.3647
G01 X5.5258 Y46.2766
G01 X5.5137 Y46.2574
G01 X5.4669 Y46.1726
G01 X5.4570 Y46.1521
G01 X5.4159 Y46.0519
G01 X5.3827 Y45.9370
G01 X5.3627 Y45.8190
G01 X5.3563 Y45.7110
G01 X5.3563 Y45.6882
G01 X5.3617 Y45.5915
G01 X5.3643 Y45.5689
G01 X5.3827 Y45.4622
G01 X5.4159 Y45.3473
G01 X5.4616 Y45.2367
G01 X5.5137 Y45.1418
G01 X5.5258 Y45.1226
G01 X5.5819 Y45.0436
G01 X5.5961 Y45.0258
G01 X5.6685 Y44.9453
G01 X5.7577 Y44.8655
G01 X5.8552 Y44.7963
G01 X5.9498 Y44.7437
G01 X5.9703 Y44.7338
G01 X6.0598 Y44.6967
G01 X6.0813 Y44.6892
G01 X6.1854 Y44.6595
G01 X6.3034 Y44.6395
G01 X6.4228 Y44.6328
G01 X6.7276 Y44.6328
G01 X6.8357 Y44.6385
G01 X6.8583 Y44.6411
G01 X6.9650 Y44.6595
G01 X7.0691 Y44.6892
G01 X7.0906 Y44.6967
G01 X7.1905 Y44.7384
G01 X7.2854 Y44.7905
G01 X7.3046 Y44.8026
G01 X7.3836 Y44.8587
G01 X7.4014 Y44.8729
G01 X7.4819 Y44.9453
G01 X7.5278 Y44.9961
G01 X11.1206 Y44.9961
G01 X11.1300 Y44.9744
G01 X11.1352 Y44.9642
G01 X11.1952 Y44.8563
G01 X11.2664 Y44.7553
G01 X11.2807 Y44.7375
G01 X11.3632 Y44.6456
G01 X11.4551 Y44.5631
G01 X11.4729 Y44.5488
G01 X11.5739 Y44.4776
G01 X11.6920 Y44.4124
G01 X11.8060 Y44.3648
G01 X11.8275 Y44.3573
G01 X11.9463 Y44.3234
G01 X12.0680 Y44.3024
G01 X12.0906 Y44.2998
G01 X12.2140 Y44.2932
G01 X12.3487 Y44.3008
G01 X12.4817 Y44.3234
G01 X12.6114 Y44.3607
G01 X12.7360 Y44.4124
G01 X12.8541 Y44.4776
G01 X12.9642 Y44.5557
G01 X13.0565 Y44.6378
G01 X13.0726 Y44.6539
G01 X13.1547 Y44.7462
G01 X13.1883 Y44.7929
G01 X29.0458 Y44.7929
G01 X29.1246 Y44.7974
G01 X29.1912 Y44.8084
G01 X29.2134 Y44.8134
G01 X29.2782 Y44.8324
G01 X29.3406 Y44.8580
G01 X29.3612 Y44.8678
G01 X29.4103 Y44.8950
G01 X29.4296 Y44.9071
G01 X29.4844 Y44.9464
G01 X29.5432 Y44.9990
G01 X36.0794 Y51.5352
G01 X36.1320 Y51.5940
G01 X36.1713 Y51.6488
G01 X36.1834 Y51.6681
G01 X36.2158 Y51.7274
G01 X36.2419 Y51.7896
G01 X36.2494 Y51.8111
G01 X36.2678 Y51.8761
G01 X36.2810 Y51.9538
G01 X36.2855 Y52.0326
G01 X36.2855 Y53.0836
G01 X36.3621 Y53.1525
G01 X36.4372 Y53.2360
G01 X36.4514 Y53.2539
G01 X36.5161 Y53.3456
G01 X36.5760 Y53.4539
G01 X36.6192 Y53.5576
G01 X36.6268 Y53.5791
G01 X36.6547 Y53.6761
G01 X36.6598 Y53.6983
G01 X36.6783 Y53.8091
G01 X36.6851 Y53.9269
G01 X36.6852 Y54.3322
G01 X36.6783 Y54.4557
G01 X36.6598 Y54.5665
G01 X36.6547 Y54.5887
G01 X36.6268 Y54.6857
G01 X36.6192 Y54.7072
G01 X36.5760 Y54.8109
G01 X36.5219 Y54.9093
G01 X36.5098 Y54.9286
G01 X36.4445 Y55.0201
G01 X36.3621 Y55.1123
G01 X36.2698 Y55.1947
G01 X36.1784 Y55.2600
G01 X36.1591 Y55.2721
G01 X36.0607 Y55.3262
G01 X35.9570 Y55.3694
G01 X35.9355 Y55.3770
G01 X35.8385 Y55.4049
G01 X35.8163 Y55.4100
G01 X35.7055 Y55.4285
G01 X35.5934 Y55.4351
G01 X35.5706 Y55.4351
G01 X35.4585 Y55.4285
G01 X35.3477 Y55.4100
G01 X35.3255 Y55.4049
G01 X35.2285 Y55.3770
G01 X35.2070 Y55.3694
G01 X35.1033 Y55.3262
G01 X34.9951 Y55.2663
G01 X34.8942 Y55.1947
G01 X34.8102 Y55.1201
G01 X34.7941 Y55.1040
G01 X34.7195 Y55.0201
G01 X34.6542 Y54.9286
G01 X34.6421 Y54.9093
G01 X34.5880 Y54.8109
G01 X34.5448 Y54.7072
G01 X34.5372 Y54.6857
G01 X34.5093 Y54.5887
G01 X34.5042 Y54.5665
G01 X34.4857 Y54.4557
G01 X34.4791 Y54.3436
G01 X34.4789 Y53.9269
G01 X34.4857 Y53.8091
G01 X34.5065 Y53.6871
G01 X34.5407 Y53.5682
G01 X34.5880 Y53.4539
G01 X34.6479 Y53.3456
G01 X34.7195 Y53.2447
G01 X34.8019 Y53.1525
G01 X34.8785 Y53.0836
G01 X34.8785 Y52.3240
G01 X28.7544 Y46.1999
G01 X13.1883 Y46.1999
G01 X13.1616 Y46.2375
G01 X13.1473 Y46.2553
G01 X13.0726 Y46.3389
G01 X13.0565 Y46.3550
G01 X12.9642 Y46.4371
G01 X12.8636 Y46.5088
G01 X12.8443 Y46.5210
G01 X12.7360 Y46.5804
G01 X12.6114 Y46.6321
G01 X12.4817 Y46.6694
G01 X12.3600 Y46.6904
G01 X12.3374 Y46.6930
G01 X12.2140 Y46.6996
G01 X12.0793 Y46.6920
G01 X11.9463 Y46.6694
G01 X11.8275 Y46.6355
G01 X11.8060 Y46.6280
G01 X11.6920 Y46.5804
G01 X11.5837 Y46.5210
G01 X11.5644 Y46.5088
G01 X11.4729 Y46.4440
G01 X11.4551 Y46.4297
G01 X11.4252 Y46.4031
G01 X7.5278 Y46.4031
G01 X7.4819 Y46.4539
G01 X7.4014 Y46.5263
G01 X7.3836 Y46.5405
G01 X7.3046 Y46.5966
G01 X7.2854 Y46.6087
G01 X7.1905 Y46.6608
G01 X7.0799 Y46.7065
G01 X6.9650 Y46.7397
G01 X6.8470 Y46.7597
G01 X6.7333 Y46.7663
G01 X6.4228 Y46.7664
G00 Z2.5400
G00 X6.4228 Y49.3064
G01 F76.20
G01 Z-0.2000
G01 F76.20
G01 X6.3034 Y49.2997
G01 X6.1854 Y49.2797
G01 X6.0705 Y49.2465
G01 X5.9599 Y49.2008
G01 X5.8552 Y49.1429
G01 X5.7577 Y49.0737
G01 X5.6685 Y48.9939
G01 X5.5887 Y48.9047
G01 X5.5195 Y48.8072
G01 X5.4616 Y48.7025
G01 X5.4159 Y48.5919
G01 X5.3827 Y48.4770
G01 X5.3627 Y48.3590
G01 X5.3560 Y48.2396
G01 X5.3627 Y48.1202
G01 X5.3805 Y48.0134
G01 X5.3856 Y47.9912
G01 X5.4159 Y47.8873
G01 X5.4616 Y47.7767
G01 X5.5195 Y47.6720
G01 X5.5887 Y47.5745
G01 X5.6685 Y47.4853
G01 X5.7577 Y47.4055
G01 X5.8552 Y47.3363
G01 X5.9599 Y47.2784
G01 X6.0705 Y47.2327
G01 X6.1744 Y47.2024
G01 X6.1966 Y47.1973
G01 X6.2921 Y47.1811
G01 X6.3147 Y47.1785
G01 X6.4228 Y47.1728
G01 X6.7333 Y47.1729
G01 X6.8470 Y47.1795
G01 X6.9538 Y47.1973
G01 X6.9760 Y47.2024
G01 X7.0799 Y47.2327
G01 X7.1905 Y47.2784
G01 X7.2952 Y47.3363
G01 X7.3836 Y47.3987
G01 X7.4014 Y47.4129
G01 X7.4737 Y47.4774
G01 X7.4898 Y47.4935
G01 X7.5617 Y47.5745
G01 X7.6309 Y47.6720
G01 X7.6888 Y47.7767
G01 X7.7345 Y47.8873
G01 X7.7677 Y48.0022
G01 X7.7861 Y48.1089
G01 X7.7887 Y48.1315
G01 X7.7941 Y48.2282
G01 X7.7941 Y48.2510
G01 X7.7877 Y48.3590
G01 X7.7699 Y48.4658
G01 X7.7648 Y48.4880
G01 X7.7345 Y48.5919
G01 X7.6888 Y48.7025
G01 X7.6309 Y48.8072
G01 X7.5685 Y48.8956
G01 X7.5543 Y48.9134
G01 X7.4898 Y48.9857
G01 X7.4737 Y49.0018
G01 X7.3927 Y49.0737
G01 X7.2952 Y49.1429
G01 X7.1905 Y49.2008
G01 X7.0906 Y49.2425
G01 X7.0691 Y49.2500
G01 X6.9760 Y49.2768
G01 X6.9538 Y49.2819
G01 X6.8470 Y49.2997
G01 X6.7390 Y49.3061
G01 X6.4228 Y49.3064
G00 Z2.5400
G00 X6.4228 Y51.8464
G01 F76.20
G01 Z-0.2000
G01 F76.20
G01 X6.3034 Y51.8397
G01 X6.1966 Y51.8219
G01 X6.1744 Y51.8168
G01 X6.0813 Y51.7900
G01 X6.0598 Y51.7825
G01 X5.9599 Y51.7408
G01 X5.8552 Y51.6829
G01 X5.7577 Y51.6137
G01 X5.6767 Y51.5418
G01 X5.6606 Y51.5257
G01 X5.5961 Y51.4534
G01 X5.5819 Y51.4356
G01 X5.5195 Y51.3472
G01 X5.4616 Y51.2425
G01 X5.4159 Y51.1319
G01 X5.3856 Y51.0280
G01 X5.3805 Y51.0058
G01 X5.3627 Y50.8990
G01 X5.3560 Y50.7796
G01 X5.3617 Y50.6715
G01 X5.3643 Y50.6489
G01 X5.3805 Y50.5534
G01 X5.3856 Y50.5312
G01 X5.4159 Y50.4273
G01 X5.4616 Y50.3167
G01 X5.5195 Y50.2120
G01 X5.5819 Y50.1236
G01 X5.5961 Y50.1058
G01 X5.6606 Y50.0335
G01 X5.6767 Y50.0174
G01 X5.7577 Y49.9455
G01 X5.8552 Y49.8763
G01 X5.9498 Y49.8237
G01 X5.9703 Y49.8138
G01 X6.0705 Y49.7727
G01 X6.1854 Y49.7395
G01 X6.3034 Y49.7195
G01 X6.4228 Y49.7128
G01 X6.7390 Y49.7131
G01 X6.8470 Y49.7195
G01 X6.9650 Y49.7395
G01 X7.0799 Y49.7727
G01 X7.1801 Y49.8138
G01 X7.2006 Y49.8237
G01 X7.2952 Y49.8763
G01 X7.3836 Y49.9387
G01 X7.4014 Y49.9529
G01 X7.4819 Y50.0253
G01 X7.5278 Y50.0761
G01 X16.6216 Y50.0761
G01 X17.9183 Y48.7796
G01 X17.9730 Y48.7310
G01 X18.0373 Y48.6854
G01 X18.1064 Y48.6472
G01 X18.1686 Y48.6211
G01 X18.1901 Y48.6136
G01 X18.2440 Y48.5980
G01 X18.2662 Y48.5930
G01 X18.3328 Y48.5820
G01 X18.4002 Y48.5779
G01 X18.4230 Y48.5779
G01 X18.4904 Y48.5820
G01 X18.5681 Y48.5952
G01 X18.6439 Y48.6170
G01 X18.7064 Y48.6426
G01 X18.7269 Y48.6524
G01 X18.7859 Y48.6854
G01 X18.8502 Y48.7310
G01 X18.9090 Y48.7836
G01 X18.9616 Y48.8424
G01 X19.0072 Y48.9067
G01 X19.0454 Y48.9758
G01 X19.0756 Y49.0487
G01 X19.0974 Y49.1245
G01 X19.1106 Y49.2023
G01 X19.1151 Y49.2810
G01 X19.1106 Y49.3597
G01 X19.0974 Y49.4375
G01 X19.0756 Y49.5133
G01 X19.0454 Y49.5862
G01 X19.0072 Y49.6553
G01 X18.9684 Y49.7105
G01 X18.9542 Y49.7283
G01 X18.9090 Y49.7784
G01 X17.4063 Y51.2810
G01 X17.3603 Y51.3222
G01 X17.3425 Y51.3364
G01 X17.2873 Y51.3752
G01 X17.2283 Y51.4082
G01 X17.2078 Y51.4180
G01 X17.1453 Y51.4436
G01 X17.0695 Y51.4654
G01 X16.9918 Y51.4786
G01 X16.9130 Y51.4831
G01 X7.5278 Y51.4831
G01 X7.4819 Y51.5339
G01 X7.4014 Y51.6063
G01 X7.3836 Y51.6205
G01 X7.3046 Y51.6766
G01 X7.2854 Y51.6887
G01 X7.1905 Y51.7408
G01 X7.0799 Y51.7865
G01 X6.9650 Y51.8197
G01 X6.8470 Y51.8397
G01 X6.7333 Y51.8463
G01 X6.4228 Y51.8464
G00 Z2.5400
G00 X16.9468 Y55.0288
G01 F76.20
G01 Z-0.2000
G01 F76.20
G01 X16.9326 Y55.0109
G01 X16.8742 Y54.9286
G01 X16.8621 Y54.9093
G01 X16.8080 Y54.8109
G01 X16.7607 Y54.6966
G01 X16.7293 Y54.5887
G01 X16.7242 Y54.5665
G01 X16.7057 Y54.4557
G01 X16.6988 Y54.3322
G01 X16.6991 Y53.9212
G01 X16.7057 Y53.8091
G01 X16.7265 Y53.6871
G01 X16.7607 Y53.5682
G01 X16.8080 Y53.4539
G01 X16.8679 Y53.3456
G01 X16.9395 Y53.2447
G01 X17.0219 Y53.1525
G01 X17.1055 Y53.0774
G01 X17.1233 Y53.0632
G01 X17.2056 Y53.0048
G01 X17.2249 Y52.9927
G01 X17.3233 Y52.9386
G01 X17.4376 Y52.8913
G01 X17.5565 Y52.8570
G01 X17.6785 Y52.8363
G01 X17.8020 Y52.8294
G01 X17.9142 Y52.8354
G01 X17.9368 Y52.8379
G01 X18.0363 Y52.8548
G01 X18.0585 Y52.8599
G01 X18.1664 Y52.8913
G01 X18.2807 Y52.9386
G01 X18.3889 Y52.9985
G01 X18.4898 Y53.0701
G01 X18.5821 Y53.1525
G01 X18.6645 Y53.2447
G01 X18.7361 Y53.3456
G01 X18.7907 Y53.4438
G01 X18.8006 Y53.4643
G01 X18.8392 Y53.5576
G01 X18.8468 Y53.5791
G01 X18.8775 Y53.6871
G01 X18.8983 Y53.8091
G01 X18.9052 Y53.9326
G01 X18.9051 Y54.3379
G01 X18.8983 Y54.4557
G01 X18.8798 Y54.5665
G01 X18.8747 Y54.5887
G01 X18.8433 Y54.6966
G01 X18.7960 Y54.8109
G01 X18.7361 Y54.9192
G01 X18.6645 Y55.0201
G01 X18.5821 Y55.1123
G01 X18.4898 Y55.1947
G01 X18.3889 Y55.2663
G01 X18.2807 Y55.3262
G01 X18.1664 Y55.3735
G01 X18.0475 Y55.4078
G01 X17.9255 Y55.4285
G01 X17.8020 Y55.4354
G01 X17.6785 Y55.4285
G01 X17.5565 Y55.4078
G01 X17.4376 Y55.3735
G01 X17.3233 Y55.3262
G01 X17.2151 Y55.2663
G01 X17.1142 Y55.1947
G01 X17.0219 Y55.1123
G01 X16.9468 Y55.0288
G00 Z2.5400
G00 X19.4868 Y55.0288
G01 F76.20
G01 Z-0.2000
G01 F76.20
G01 X19.4726 Y55.0109
G01 X19.4142 Y54.9286
G01 X19.4021 Y54.9093
G01 X19.3480 Y54.8109
G01 X19.3007 Y54.6966
G01 X19.2693 Y54.5887
G01 X19.2642 Y54.5665
G01 X19.2457 Y54.4557
G01 X19.2388 Y54.3322
G01 X19.2391 Y53.9212
G01 X19.2457 Y53.8091
G01 X19.2665 Y53.6871
G01 X19.3007 Y53.5682
G01 X19.3480 Y53.4539
G01 X19.4079 Y53.3456
G01 X19.4795 Y53.2447
G01 X19.5619 Y53.1525
G01 X19.6455 Y53.0774
G01 X19.6633 Y53.0632
G01 X19.7456 Y53.0048
G01 X19.7649 Y52.9927
G01 X19.8633 Y52.9386
G01 X19.9776 Y52.8913
G01 X20.0965 Y52.8570
G01 X20.2185 Y52.8363
G01 X20.3420 Y52.8294
G01 X20.4542 Y52.8354
G01 X20.4768 Y52.8379
G01 X20.5763 Y52.8548
G01 X20.5985 Y52.8599
G01 X20.7064 Y52.8913
G01 X20.8207 Y52.9386
G01 X20.9289 Y52.9985
G01 X21.0298 Y53.0701
G01 X21.1221 Y53.1525
G01 X21.2045 Y53.2447
G01 X21.2761 Y53.3456
G01 X21.3307 Y53.4438
G01 X21.3406 Y53.4643
G01 X21.3792 Y53.5576
G01 X21.3868 Y53.5791
G01 X21.4175 Y53.6871
G01 X21.4383 Y53.8091
G01 X21.4452 Y53.9326
G01 X21.4451 Y54.3379
G01 X21.4383 Y54.4557
G01 X21.4198 Y54.5665
G01 X21.4147 Y54.5887
G01 X21.3833 Y54.6966
G01 X21.3360 Y54.8109
G01 X21.2761 Y54.9192
G01 X21.2045 Y55.0201
G01 X21.1221 Y55.1123
G01 X21.0298 Y55.1947
G01 X20.9289 Y55.2663
G01 X20.8207 Y55.3262
G01 X20.7064 Y55.3735
G01 X20.5875 Y55.4078
G01 X20.4655 Y55.4285
G01 X20.3420 Y55.4354
G01 X20.2185 Y55.4285
G01 X20.0965 Y55.4078
G01 X19.9776 Y55.3735
G01 X19.8633 Y55.3262
G01 X19.7551 Y55.2663
G01 X19.6542 Y55.1947
G01 X19.5619 Y55.1123
G01 X19.4868 Y55.0288
G00 Z2.5400
G00 X22.0268 Y55.0288
G01 F76.20
G01 Z-0.2000
G01 F76.20
G01 X22.0126 Y55.0109
G01 X21.9542 Y54.9286
G01 X21.9421 Y54.9093
G01 X21.8880 Y54.8109
G01 X21.8407 Y54.6966
G01 X21.8093 Y54.5887
G01 X21.8042 Y54.5665
G01 X21.7857 Y54.4557
G01 X21.7788 Y54.3322
G01 X21.7791 Y53.9212
G01 X21.7857 Y53.8091
G01 X21.8065 Y53.6871
G01 X21.8407 Y53.5682
G01 X21.8880 Y53.4539
G01 X21.9479 Y53.3456
G01 X22.0195 Y53.2447
G01 X22.1019 Y53.1525
G01 X22.1855 Y53.0774
G01 X22.2033 Y53.0632
G01 X22.2856 Y53.0048
G01 X22.3049 Y52.9927
G01 X22.4033 Y52.9386
G01 X22.5176 Y52.8913
G01 X22.6365 Y52.8570
G01 X22.7585 Y52.8363
G01 X22.8820 Y52.8294
G01 X22.9942 Y52.8354
G01 X23.0168 Y52.8379
G01 X23.1163 Y52.8548
G01 X23.1385 Y52.8599
G01 X23.2464 Y52.8913
G01 X23.3607 Y52.9386
G01 X23.4689 Y52.9985
G01 X23.5698 Y53.0701
G01 X23.6621 Y53.1525
G01 X23.7445 Y53.2447
G01 X23.8161 Y53.3456
G01 X23.8707 Y53.4438
G01 X23.8806 Y53.4643
G01 X23.9192 Y53.5576
G01 X23.9268 Y53.5791
G01 X23.9575 Y53.6871
G01 X23.9783 Y53.8091
G01 X23.9852 Y53.9326
G01 X23.9851 Y54.3379
G01 X23.9783 Y54.4557
G01 X23.9598 Y54.5665
G01 X23.9547 Y54.5887
G01 X23.9233 Y54.6966
G01 X23.8760 Y54.8109
G01 X23.8161 Y54.9192
G01 X23.7445 Y55.0201
G01 X23.6621 Y55.1123
G01 X23.5698 Y55.1947
G01 X23.4689 Y55.2663
G01 X23.3607 Y55.3262
G01 X23.2464 Y55.3735
G01 X23.1275 Y55.4078
G01 X23.0055 Y55.4285
G01 X22.8820 Y55.4354
G01 X22.7585 Y55.4285
G01 X22.6365 Y55.4078
G01 X22.5176 Y55.3735
G01 X22.4033 Y55.3262
G01 X22.2951 Y55.2663
G01 X22.1942 Y55.1947
G01 X22.1019 Y55.1123
G01 X22.0268 Y55.0288
G00 Z2.5400
G00 X24.5668 Y55.0288
G01 F76.20
G01 Z-0.2000
G01 F76.20
G01 X24.5526 Y55.0109
G01 X24.4942 Y54.9286
G01 X24.4821 Y54.9093
G01 X24.4280 Y54.8109
G01 X24.3807 Y54.6966
G01 X24.3493 Y54.5887
G01 X24.3442 Y54.5665
G01 X24.3257 Y54.4557
G01 X24.3188 Y54.3322
G01 X24.3191 Y53.9212
G01 X24.3257 Y53.8091
G01 X24.3465 Y53.6871
G01 X24.3807 Y53.5682
G01 X24.4280 Y53.4539
G01 X24.4879 Y53.3456
G01 X24.5595 Y53.2447
G01 X24.6419 Y53.1525
G01 X24.7255 Y53.0774
G01 X24.7433 Y53.0632
G01 X24.8256 Y53.0048
G01 X24.8449 Y52.9927
G01 X24.9433 Y52.9386
G01 X25.0576 Y52.8913
G01 X25.1765 Y52.8570
G01 X25.2985 Y52.8363
G01 X25.4220 Y52.8294
G01 X25.5342 Y52.8354
G01 X25.5568 Y52.8379
G01 X25.6563 Y52.8548
G01 X25.6785 Y52.8599
G01 X25.7864 Y52.8913
G01 X25.9007 Y52.9386
G01 X26.0089 Y52.9985
G01 X26.1098 Y53.0701
G01 X26.2021 Y53.1525
G01 X26.2845 Y53.2447
G01 X26.3561 Y53.3456
G01 X26.4107 Y53.4438
G01 X26.4206 Y53.4643
G01 X26.4592 Y53.5576
G01 X26.4668 Y53.5791
G01 X26.4975 Y53.6871
G01 X26.5183 Y53.8091
G01 X26.5252 Y53.9326
G01 X26.5251 Y54.3379
G01 X26.5183 Y54.4557
G01 X26.4998 Y54.5665
G01 X26.4947 Y54.5887
G01 X26.4633 Y54.6966
G01 X26.4160 Y54.8109
G01 X26.3561 Y54.9192
G01 X26.2845 Y55.0201
G01 X26.2021 Y55.1123
G01 X26.1098 Y55.1947
G01 X26.0089 Y55.2663
G01 X25.9007 Y55.3262
G01 X25.7864 Y55.3735
G01 X25.6675 Y55.4078
G01 X25.5455 Y55.4285
G01 X25.4220 Y55.4354
G01 X25.2985 Y55.4285
G01 X25.1765 Y55.4078
G01 X25.0576 Y55.3735
G01 X24.9433 Y55.3262
G01 X24.8351 Y55.2663
G01 X24.7342 Y55.1947
G01 X24.6419 Y55.1123
G01 X24.5668 Y55.0288
G00 Z2.5400
G00 X27.1068 Y55.0288
G01 F76.20
G01 Z-0.2000
G01 F76.20
G01 X27.0926 Y55.0109
G01 X27.0342 Y54.9286
G01 X27.0221 Y54.9093
G01 X26.9680 Y54.8109
G01 X26.9207 Y54.6966
G01 X26.8893 Y54.5887
G01 X26.8842 Y54.5665
G01 X26.8657 Y54.4557
G01 X26.8588 Y54.3322
G01 X26.8591 Y53.9212
G01 X26.8657 Y53.8091
G01 X26.8865 Y53.6871
G01 X26.9207 Y53.5682
G01 X26.9680 Y53.4539
G01 X27.0279 Y53.3456
G01 X27.0995 Y53.2447
G01 X27.1819 Y53.1525
G01 X27.2655 Y53.0774
G01 X27.2833 Y53.0632
G01 X27.3656 Y53.0048
G01 X27.3849 Y52.9927
G01 X27.4833 Y52.9386
G01 X27.5976 Y52.8913
G01 X27.7165 Y52.8570
G01 X27.8385 Y52.8363
G01 X27.9620 Y52.8294
G01 X28.0742 Y52.8354
G01 X28.0968 Y52.8379
G01 X28.1963 Y52.8548
G01 X28.2185 Y52.8599
G01 X28.3264 Y52.8913
G01 X28.4407 Y52.9386
G01 X28.5489 Y52.9985
G01 X28.6498 Y53.0701
G01 X28.7421 Y53.1525
G01 X28.8245 Y53.2447
G01 X28.8961 Y53.3456
G01 X28.9507 Y53.4438
G01 X28.9606 Y53.4643
G01 X28.9992 Y53.5576
G01 X29.0068 Y53.5791
G01 X29.0375 Y53.6871
G01 X29.0583 Y53.8091
G01 X29.0652 Y53.9326
G01 X29.0651 Y54.3379
G01 X29.0583 Y54.4557
G01 X29.0398 Y54.5665
G01 X29.0347 Y54.5887
G01 X29.0033 Y54.6966
G01 X28.9560 Y54.8109
G01 X28.8961 Y54.9192
G01 X28.8245 Y55.0201
G01 X28.7421 Y55.1123
G01 X28.6498 Y55.1947
G01 X28.5489 Y55.2663
G01 X28.4407 Y55.3262
G01 X28.3264 Y55.3735
G01 X28.2075 Y55.4078
G01 X28.0855 Y55.4285
G01 X27.9620 Y55.4354
G01 X27.8385 Y55.4285
G01 X27.7165 Y55.4078
G01 X27.5976 Y55.3735
G01 X27.4833 Y55.3262
G01 X27.3751 Y55.2663
G01 X27.2742 Y55.1947
G01 X27.1819 Y55.1123
G01 X27.1068 Y55.0288
G00 Z2.5400
G00 X29.6468 Y55.0288
G01 F76.20
G01 Z-0.2000
G01 F76.20
G01 X29.6326 Y55.0109
G01 X29.5742 Y54.9286
G01 X29.5621 Y54.9093
G01 X29.5080 Y54.8109
G01 X29.4607 Y54.6966
G01 X29.4293 Y54.5887
G01 X29.4242 Y54.5665
G01 X29.4057 Y54.4557
G01 X29.3988 Y54.3322
G01 X29.3991 Y53.9212
G01 X29.4057 Y53.8091
G01 X29.4265 Y53.6871
G01 X29.4607 Y53.5682
G01 X29.5080 Y53.4539
G01 X29.5679 Y53.3456
G01 X29.6395 Y53.2447
G01 X29.7219 Y53.1525
G01 X29.8055 Y53.0774
G01 X29.8233 Y53.0632
G01 X29.9056 Y53.0048
G01 X29.9249 Y52.9927
G01 X30.0233 Y52.9386
G01 X30.1376 Y52.8913
G01 X30.2565 Y52.8570
G01 X30.3785 Y52.8363
G01 X30.5020 Y52.8294
G01 X30.6142 Y52.8354
G01 X30.6368 Y52.8379
G01 X30.7363 Y52.8548
G01 X30.7585 Y52.8599
G01 X30.8664 Y52.8913
G01 X30.9807 Y52.9386
G01 X31.0889 Y52.9985
G01 X31.1898 Y53.0701
G01 X31.2821 Y53.1525
G01 X31.3645 Y53.2447
G01 X31.4361 Y53.3456
G01 X31.4907 Y53.4438
G01 X31.5006 Y53.4643
G01 X31.5392 Y53.5576
G01 X31.5468 Y53.5791
G01 X31.5775 Y53.6871
G01 X31.5983 Y53.8091
G01 X31.6052 Y53.9326
G01 X31.6051 Y54.3379
G01 X31.5983 Y54.4557
G01 X31.5798 Y54.5665
G01 X31.5747 Y54.5887
G01 X31.5433 Y54.6966
G01 X31.4960 Y54.8109
G01 X31.4361 Y54.9192
G01 X31.3645 Y55.0201
G01 X31.2821 Y55.1123
G01 X31.1898 Y55.1947
G01 X31.0889 Y55.2663
G01 X30.9807 Y55.3262
G01 X30.8664 Y55.3735
G01 X30.7475 Y55.4078
G01 X30.6255 Y55.4285
G01 X30.5020 Y55.4354
G01 X30.3785 Y55.4285
G01 X30.2565 Y55.4078
G01 X30.1376 Y55.3735
G01 X30.0233 Y55.3262
G01 X29.9151 Y55.2663
G01 X29.8142 Y55.1947
G01 X29.7219 Y55.1123
G01 X29.6468 Y55.0288
G00 Z2.5400
G00 X32.1868 Y55.0288
G01 F76.20
G01 Z-0.2000
G01 F76.20
G01 X32.1726 Y55.0109
G01 X32.1142 Y54.9286
G01 X32.1021 Y54.9093
G01 X32.0480 Y54.8109
G01 X32.0007 Y54.6966
G01 X31.9693 Y54.5887
G01 X31.9642 Y54.5665
G01 X31.9457 Y54.4557
G01 X31.9388 Y54.3322
G01 X31.9391 Y53.9212
G01 X31.9457 Y53.8091
G01 X31.9665 Y53.6871
G01 X32.0007 Y53.5682
G01 X32.0480 Y53.4539
G01 X32.1079 Y53.3456
G01 X32.1795 Y53.2447
G01 X32.2619 Y53.1525
G01 X32.3455 Y53.0774
G01 X32.3633 Y53.0632
G01 X32.4456 Y53.0048
G01 X32.4649 Y52.9927
G01 X32.5633 Y52.9386
G01 X32.6776 Y52.8913
G01 X32.7965 Y52.8570
G01 X32.9185 Y52.8363
G01 X33.0420 Y52.8294
G01 X33.1542 Y52.8354
G01 X33.1768 Y52.8379
G01 X33.2763 Y52.8548
G01 X33.2985 Y52.8599
G01 X33.4064 Y52.8913
G01 X33.5207 Y52.9386
G01 X33.6289 Y52.9985
G01 X33.7298 Y53.0701
G01 X33.8221 Y53.1525
G01 X33.9045 Y53.2447
G01 X33.9761 Y53.3456
G01 X34.0307 Y53.4438
G01 X34.0406 Y53.4643
G01 X34.0792 Y53.5576
G01 X34.0868 Y53.5791
G01 X34.1175 Y53.6871
G01 X34.1383 Y53.8091
G01 X34.1452 Y53.9326
G01 X34.1451 Y54.3379
G01 X34.1383 Y54.4557
G01 X34.1198 Y54.5665
G01 X34.1147 Y54.5887
G01 X34.0833 Y54.6966
G01 X34.0360 Y54.8109
G01 X33.9761 Y54.9192
G01 X33.9045 Y55.0201
G01 X33.8221 Y55.1123
G01 X33.7298 Y55.1947
G01 X33.6289 Y55.2663
G01 X33.5207 Y55.3262
G01 X33.4064 Y55.3735
G01 X33.2875 Y55.4078
G01 X33.1655 Y55.4285
G01 X33.0420 Y55.4354
G01 X32.9185 Y55.4285
G01 X32.7965 Y55.4078
G01 X32.6776 Y55.3735
G01 X32.5633 Y55.3262
G01 X32.4551 Y55.2663
G01 X32.3542 Y55.1947
G01 X32.2619 Y55.1123
G01 X32.1868 Y55.0288
G00 Z2.5400
G00 X37.2668 Y55.0288
G01 F76.20
G01 Z-0.2000
G01 F76.20
G01 X37.2526 Y55.0109
G01 X37.1942 Y54.9286
G01 X37.1821 Y54.9093
G01 X37.1280 Y54.8109
G01 X37.0807 Y54.6966
G01 X37.0493 Y54.5887
G01 X37.0442 Y54.5665
G01 X37.0257 Y54.4557
G01 X37.0188 Y54.3322
G01 X37.0191 Y53.9212
G01 X37.0257 Y53.8091
G01 X37.0465 Y53.6871
G01 X37.0807 Y53.5682
G01 X37.1280 Y53.4539
G01 X37.1879 Y53.3456
G01 X37.2595 Y53.2447
G01 X37.3419 Y53.1525
G01 X37.4255 Y53.0774
G01 X37.4433 Y53.0632
G01 X37.5256 Y53.0048
G01 X37.5449 Y52.9927
G01 X37.6433 Y52.9386
G01 X37.7576 Y52.8913
G01 X37.8765 Y52.8570
G01 X37.9985 Y52.8363
G01 X38.1220 Y52.8294
G01 X38.2342 Y52.8354
G01 X38.2568 Y52.8379
G01 X38.3563 Y52.8548
G01 X38.3785 Y52.8599
G01 X38.4864 Y52.8913
G01 X38.6007 Y52.9386
G01 X38.7089 Y52.9985
G01 X38.8098 Y53.0701
G01 X38.9021 Y53.1525
G01 X38.9845 Y53.2447
G01 X39.0561 Y53.3456
G01 X39.1107 Y53.4438
G01 X39.1206 Y53.4643
