(G-CODE GENERATED BY FLATCAM v8.912 - www.flatcam.org - Version Date: 2019/03/17)

(Name: TALADROS)
(Type: G-code from Excellon)
(Units: MM)

(Created on Friday, 12 April 2019 at 10:55)

(Feedrate: 76.2 mm/min)
(Feedrate rapids 76.2 mm/min)

(Z_Cut: -1.65 mm)
(Z_Move: 2.54 mm)
(Z Toolchange: 25.4 mm)
(X,Y Toolchange: 0.0000, 0.0000 mm)
(Z Start: None mm)
(Z End: 50.8 mm)
(Steps per circle: 64)
(Postprocessor Excellon: default)

(X range:    0.7940 ...   46.3420  mm)
(Y range:    2.6820 ...   54.7320  mm)

(Spindle Speed: None RPM)

G21
G90
G94

G01 F76.20
G00 Z2.5400

M03
G00 X13.7410 Y23.3560
G01 Z-1.6500
G01 Z0
G00 Z2.5400
G00 X18.4120 Y49.2810
G01 Z-1.6500
G01 Z0
G00 Z2.5400
G00 X40.6370 Y45.4710
G01 Z-1.6500
G01 Z0
G00 Z2.5400
M03
G00 X6.5750 Y43.1600
G01 Z-1.6500
G01 Z0
G00 Z2.5400
G00 X6.5750 Y45.7000
G01 Z-1.6500
G01 Z0
G00 Z2.5400
G00 X6.5750 Y48.2400
G01 Z-1.6500
G01 Z0
G00 Z2.5400
G00 X6.5750 Y50.7800
G01 Z-1.6500
G01 Z0
G00 Z2.5400
M03
G00 X17.8020 Y38.8920
G01 Z-1.6500
G01 Z0
G00 Z2.5400
G00 X12.2140 Y42.9560
G01 Z-1.6500
G01 Z0
G00 Z2.5400
G00 X12.2140 Y45.4960
G01 Z-1.6500
G01 Z0
G00 Z2.5400
G00 X17.8020 Y54.1320
G01 Z-1.6500
G01 Z0
G00 Z2.5400
G00 X20.3420 Y54.1320
G01 Z-1.6500
G01 Z0
G00 Z2.5400
G00 X22.8820 Y54.1320
G01 Z-1.6500
G01 Z0
G00 Z2.5400
G00 X25.4220 Y54.1320
G01 Z-1.6500
G01 Z0
G00 Z2.5400
G00 X27.9620 Y54.1320
G01 Z-1.6500
G01 Z0
G00 Z2.5400
G00 X30.5020 Y54.1320
G01 Z-1.6500
G01 Z0
G00 Z2.5400
G00 X33.0420 Y54.1320
G01 Z-1.6500
G01 Z0
G00 Z2.5400
G00 X35.5820 Y54.1320
G01 Z-1.6500
G01 Z0
G00 Z2.5400
G00 X38.1220 Y54.1320
G01 Z-1.6500
G01 Z0
G00 Z2.5400
G00 X40.6620 Y54.1320
G01 Z-1.6500
G01 Z0
G00 Z2.5400
G00 X43.2020 Y54.1320
G01 Z-1.6500
G01 Z0
G00 Z2.5400
G00 X45.7420 Y54.1320
G01 Z-1.6500
G01 Z0
G00 Z2.5400
G00 X29.2320 Y41.4320
G01 Z-1.6500
G01 Z0
G00 Z2.5400
G00 X26.6920 Y41.4320
G01 Z-1.6500
G01 Z0
G00 Z2.5400
G00 X25.4220 Y38.8920
G01 Z-1.6500
G01 Z0
G00 Z2.5400
G00 X27.9620 Y38.8920
G01 Z-1.6500
G01 Z0
G00 Z2.5400
G00 X30.5020 Y38.8920
G01 Z-1.6500
G01 Z0
G00 Z2.5400
G00 X33.0420 Y38.8920
G01 Z-1.6500
G01 Z0
G00 Z2.5400
G00 X35.5820 Y38.8920
G01 Z-1.6500
G01 Z0
G00 Z2.5400
G00 X38.1220 Y38.8920
G01 Z-1.6500
G01 Z0
G00 Z2.5400
G00 X40.6620 Y38.8920
G01 Z-1.6500
G01 Z0
G00 Z2.5400
G00 X43.2020 Y38.8920
G01 Z-1.6500
G01 Z0
G00 Z2.5400
G00 X45.7420 Y38.8920
G01 Z-1.6500
G01 Z0
G00 Z2.5400
G00 X45.3900 Y24.2280
G01 Z-1.6500
G01 Z0
G00 Z2.5400
G00 X45.3900 Y20.2280
G01 Z-1.6500
G01 Z0
G00 Z2.5400
G00 X45.3900 Y10.2280
G01 Z-1.6500
G01 Z0
G00 Z2.5400
G00 X45.3900 Y8.2280
G01 Z-1.6500
G01 Z0
G00 Z2.5400
G00 X45.3900 Y6.2280
G01 Z-1.6500
G01 Z0
G00 Z2.5400
G00 X23.3900 Y10.2280
G01 Z-1.6500
G01 Z0
G00 Z2.5400
G00 X23.3900 Y8.2280
G01 Z-1.6500
G01 Z0
G00 Z2.5400
G00 X23.3900 Y6.2280
G01 Z-1.6500
G01 Z0
G00 Z2.5400
G00 X19.1740 Y3.2820
G01 Z-1.6500
G01 Z0
G00 Z2.5400
G00 X16.6340 Y3.2820
G01 Z-1.6500
G01 Z0
G00 Z2.5400
G00 X14.0940 Y3.2820
G01 Z-1.6500
G01 Z0
G00 Z2.5400
G00 X11.5540 Y3.2820
G01 Z-1.6500
G01 Z0
G00 Z2.5400
G00 X9.0140 Y3.2820
G01 Z-1.6500
G01 Z0
G00 Z2.5400
G00 X6.4740 Y3.2820
G01 Z-1.6500
G01 Z0
G00 Z2.5400
G00 X3.9340 Y3.2820
G01 Z-1.6500
G01 Z0
G00 Z2.5400
G00 X1.3940 Y3.2820
G01 Z-1.6500
G01 Z0
G00 Z2.5400
G00 X5.3560 Y16.9470
G01 Z-1.6500
G01 Z0
G00 Z2.5400
G00 X7.8960 Y16.9470
G01 Z-1.6500
G01 Z0
G00 Z2.5400
G00 X10.4360 Y16.9470
G01 Z-1.6500
G01 Z0
G00 Z2.5400
G00 X14.9420 Y17.0990
G01 Z-1.6500
G01 Z0
G00 Z2.5400
G00 X17.4820 Y17.0990
G01 Z-1.6500
G01 Z0
G00 Z2.5400
G00 X23.3900 Y24.2280
G01 Z-1.6500
G01 Z0
G00 Z2.5400
G00 X18.3100 Y26.0910
G01 Z-1.6500
G01 Z0
G00 Z2.5400
G00 X15.7700 Y26.0910
G01 Z-1.6500
G01 Z0
G00 Z2.5400
G00 X10.6390 Y26.1420
G01 Z-1.6500
G01 Z0
G00 Z2.5400
G00 X8.0990 Y26.1420
G01 Z-1.6500
G01 Z0
G00 Z2.5400
G00 X5.5590 Y26.1420
G01 Z-1.6500
G01 Z0
G00 Z2.5400
G00 X5.5590 Y35.4890
G01 Z-1.6500
G01 Z0
G00 Z2.5400
G00 X8.0990 Y35.4890
G01 Z-1.6500
G01 Z0
G00 Z2.5400
G00 X10.6390 Y35.4890
G01 Z-1.6500
G01 Z0
G00 Z2.5400
G00 X15.8210 Y35.4890
G01 Z-1.6500
G01 Z0
G00 Z2.5400
G00 X18.3610 Y35.4890
G01 Z-1.6500
G01 Z0
G00 Z2.5400
G00 X22.8820 Y38.8920
G01 Z-1.6500
G01 Z0
G00 Z2.5400
G00 X20.3420 Y38.8920
G01 Z-1.6500
G01 Z0
G00 Z2.5400
M05
G00 Z50.80
G00 X0.0 Y0.0

