(G-CODE GENERATED BY FLATCAM v8.912 - www.flatcam.org - Version Date: 2019/03/17)

(Name: V2-Edge.Cuts.gbr_iso_cnc)
(Type: G-code from Geometry)
(Units: MM)

(Created on Tuesday, 30 April 2019 at 11:58)

(TOOL DIAMETER: 0.41 mm)
(Feedrate: 76.2 mm/min)
(Feedrate_Z: 76.2 mm/min)
(Feedrate rapids 76.2 mm/min)

(Z_Cut: -0.4 mm)
(Z_Move: 2.54 mm)
(Z Toolchange: 25.4 mm)
(X,Y Toolchange: 0.0000, 0.0000 mm)
(Z Start: None mm)
(Z End: 50.8 mm)
(Steps per circle: 64)
(Postprocessor Geometry: default)

(X range:    0.1084 ...   50.1448  mm)
(Y range:   -0.8372 ...   58.0892  mm)

(Spindle Speed: None RPM)

G21
G90
G94

G01 F76.20
G00 Z2.5400

M03
G00 X0.1087 Y57.8474
G01 F76.20
G01 Z-0.4000
G01 F76.20
G01 X0.1084 Y-0.5840
G01 X0.1100 Y-0.6123
G01 X0.1125 Y-0.6292
G01 X0.1176 Y-0.6514
G01 X0.1226 Y-0.6676
G01 X0.1335 Y-0.6939
G01 X0.1414 Y-0.7089
G01 X0.1568 Y-0.7328
G01 X0.1710 Y-0.7506
G01 X0.1825 Y-0.7631
G01 X0.2037 Y-0.7820
G01 X0.2269 Y-0.7984
G01 X0.2517 Y-0.8121
G01 X0.2780 Y-0.8230
G01 X0.3053 Y-0.8309
G01 X0.3332 Y-0.8356
G01 X0.3616 Y-0.8372
G01 X49.8916 Y-0.8372
G01 X49.9200 Y-0.8356
G01 X49.9368 Y-0.8331
G01 X49.9590 Y-0.8280
G01 X49.9752 Y-0.8230
G01 X50.0015 Y-0.8121
G01 X50.0165 Y-0.8042
G01 X50.0404 Y-0.7888
G01 X50.0582 Y-0.7746
G01 X50.0707 Y-0.7631
G01 X50.0896 Y-0.7419
G01 X50.1060 Y-0.7187
G01 X50.1197 Y-0.6939
G01 X50.1306 Y-0.6676
G01 X50.1385 Y-0.6403
G01 X50.1432 Y-0.6123
G01 X50.1448 Y-0.5840
G01 X50.1448 Y57.8360
G01 X50.1432 Y57.8643
G01 X50.1407 Y57.8812
G01 X50.1356 Y57.9034
G01 X50.1306 Y57.9196
G01 X50.1197 Y57.9459
G01 X50.1118 Y57.9609
G01 X50.0997 Y57.9802
G01 X50.0822 Y58.0026
G01 X50.0707 Y58.0151
G01 X50.0495 Y58.0340
G01 X50.0263 Y58.0504
G01 X50.0015 Y58.0641
G01 X49.9752 Y58.0750
G01 X49.9480 Y58.0829
G01 X49.9200 Y58.0876
G01 X49.8916 Y58.0892
G01 X0.3616 Y58.0892
G01 X0.3333 Y58.0876
G01 X0.3164 Y58.0851
G01 X0.2888 Y58.0785
G01 X0.2673 Y58.0710
G01 X0.2517 Y58.0641
G01 X0.2269 Y58.0504
G01 X0.2037 Y58.0340
G01 X0.1825 Y58.0151
G01 X0.1636 Y57.9939
G01 X0.1535 Y57.9802
G01 X0.1387 Y57.9560
G01 X0.1288 Y57.9355
G01 X0.1226 Y57.9196
G01 X0.1147 Y57.8924
G01 X0.1100 Y57.8643
G01 X0.1087 Y57.8474
G00 Z2.5400
G00 X49.6384 Y57.5828
G01 F76.20
G01 Z-0.4000
G01 F76.20
G01 X0.6148 Y57.5828
G01 X0.6148 Y-0.3308
G01 X49.6384 Y-0.3308
G01 X49.6384 Y57.5828
G00 Z2.5400
M05
G00 Z2.5400
G00 Z50.80
G00 X0.0 Y0.0

