(G-CODE GENERATED BY FLATCAM v8.912 - www.flatcam.org - Version Date: 2019/03/17)

(Name: capa roja_iso_cnc_1)
(Type: G-code from Geometry)
(Units: MM)

(Created on Tuesday, 16 April 2019 at 09:28)

(TOOL DIAMETER: 0.41 mm)
(Feedrate: 76.2 mm/min)
(Feedrate_Z: 76.2 mm/min)
(Feedrate rapids 76.2 mm/min)

(Z_Cut: -0.2 mm)
(Z_Move: 2.54 mm)
(Z Toolchange: 25.4 mm)
(X,Y Toolchange: 0.0000, 0.0000 mm)
(Z Start: None mm)
(Z End: 50.8 mm)
(Steps per circle: 64)
(Postprocessor Geometry: default)

(X range:    0.6904 ...   49.3450  mm)
(Y range:   -0.1175 ...   55.6354  mm)

(Spindle Speed: None RPM)

G21
G90
G94

G01 F76.20
G00 Z2.5400

M03
G00 X5.6365 Y3.4702
G01 F76.20
G01 Z-0.2000
G01 F76.20
G01 X5.6365 Y3.4930
G01 X5.6292 Y3.6163
G01 X5.6089 Y3.7382
G01 X5.6038 Y3.7604
G01 X5.5727 Y3.8681
G01 X5.5652 Y3.8896
G01 X5.5176 Y4.0036
G01 X5.4524 Y4.1217
G01 X5.3743 Y4.2318
G01 X5.2844 Y4.3324
G01 X5.1838 Y4.4223
G01 X5.0832 Y4.4940
G01 X5.0639 Y4.5062
G01 X4.9658 Y4.5604
G01 X4.9452 Y4.5703
G01 X4.8310 Y4.6173
G01 X4.7013 Y4.6546
G01 X4.5683 Y4.6772
G01 X4.4336 Y4.6848
G01 X4.2989 Y4.6772
G01 X4.1659 Y4.6546
G01 X4.0362 Y4.6173
G01 X3.9220 Y4.5703
G01 X3.9014 Y4.5604
G01 X3.8033 Y4.5062
G01 X3.7840 Y4.4940
G01 X3.6834 Y4.4223
G01 X3.5828 Y4.3324
G01 X3.4929 Y4.2318
G01 X3.4148 Y4.1217
G01 X3.3496 Y4.0036
G01 X3.3020 Y3.8896
G01 X3.2945 Y3.8681
G01 X3.2634 Y3.7604
G01 X3.2583 Y3.7382
G01 X3.2380 Y3.6163
G01 X3.2304 Y3.4816
G01 X3.2380 Y3.3469
G01 X3.2583 Y3.2250
G01 X3.2634 Y3.2028
G01 X3.2945 Y3.0951
G01 X3.3020 Y3.0736
G01 X3.3496 Y2.9596
G01 X3.4148 Y2.8415
G01 X3.4929 Y2.7314
G01 X3.5828 Y2.6308
G01 X3.6834 Y2.5409
G01 X3.7840 Y2.4692
G01 X3.8033 Y2.4570
G01 X3.9014 Y2.4028
G01 X3.9220 Y2.3929
G01 X4.0362 Y2.3459
G01 X4.1659 Y2.3086
G01 X4.2989 Y2.2860
G01 X4.4336 Y2.2784
G01 X4.5683 Y2.2860
G01 X4.7013 Y2.3086
G01 X4.8310 Y2.3459
G01 X4.9452 Y2.3929
G01 X4.9658 Y2.4028
G01 X5.0639 Y2.4570
G01 X5.0832 Y2.4692
G01 X5.1838 Y2.5409
G01 X5.2844 Y2.6308
G01 X5.3743 Y2.7314
G01 X5.4460 Y2.8320
G01 X5.4582 Y2.8513
G01 X5.5124 Y2.9494
G01 X5.5223 Y2.9700
G01 X5.5693 Y3.0842
G01 X5.6066 Y3.2139
G01 X5.6292 Y3.3469
G01 X5.6365 Y3.4702
G00 Z2.5400
G00 X10.7165 Y3.4702
G01 F76.20
G01 Z-0.2000
G01 F76.20
G01 X10.7165 Y3.4930
G01 X10.7092 Y3.6163
G01 X10.6889 Y3.7382
G01 X10.6838 Y3.7604
G01 X10.6527 Y3.8681
G01 X10.6452 Y3.8896
G01 X10.5976 Y4.0036
G01 X10.5324 Y4.1217
G01 X10.4543 Y4.2318
G01 X10.3644 Y4.3324
G01 X10.2638 Y4.4223
G01 X10.1632 Y4.4940
G01 X10.1439 Y4.5062
G01 X10.0458 Y4.5604
G01 X10.0252 Y4.5703
G01 X9.9110 Y4.6173
G01 X9.7813 Y4.6546
G01 X9.6483 Y4.6772
G01 X9.5136 Y4.6848
G01 X9.3789 Y4.6772
G01 X9.2459 Y4.6546
G01 X9.1162 Y4.6173
G01 X9.0020 Y4.5703
G01 X8.9814 Y4.5604
G01 X8.8833 Y4.5062
G01 X8.8640 Y4.4940
G01 X8.7634 Y4.4223
G01 X8.6628 Y4.3324
G01 X8.5729 Y4.2318
G01 X8.4948 Y4.1217
G01 X8.4296 Y4.0036
G01 X8.3820 Y3.8896
G01 X8.3745 Y3.8681
G01 X8.3434 Y3.7604
G01 X8.3383 Y3.7382
G01 X8.3180 Y3.6163
G01 X8.3104 Y3.4816
G01 X8.3180 Y3.3469
G01 X8.3383 Y3.2250
G01 X8.3434 Y3.2028
G01 X8.3745 Y3.0951
G01 X8.3820 Y3.0736
G01 X8.4296 Y2.9596
G01 X8.4948 Y2.8415
G01 X8.5729 Y2.7314
G01 X8.6628 Y2.6308
G01 X8.7634 Y2.5409
G01 X8.8640 Y2.4692
G01 X8.8833 Y2.4570
G01 X8.9814 Y2.4028
G01 X9.0020 Y2.3929
G01 X9.1162 Y2.3459
G01 X9.2459 Y2.3086
G01 X9.3789 Y2.2860
G01 X9.5136 Y2.2784
G01 X9.6483 Y2.2860
G01 X9.7813 Y2.3086
G01 X9.9110 Y2.3459
G01 X10.0252 Y2.3929
G01 X10.0458 Y2.4028
G01 X10.1439 Y2.4570
G01 X10.1632 Y2.4692
G01 X10.2638 Y2.5409
G01 X10.3644 Y2.6308
G01 X10.4543 Y2.7314
G01 X10.5260 Y2.8320
G01 X10.5382 Y2.8513
G01 X10.5924 Y2.9494
G01 X10.6023 Y2.9700
G01 X10.6493 Y3.0842
G01 X10.6866 Y3.2139
G01 X10.7092 Y3.3469
G01 X10.7165 Y3.4702
G00 Z2.5400
G00 X13.2565 Y3.4702
G01 F76.20
G01 Z-0.2000
G01 F76.20
G01 X13.2565 Y3.4930
G01 X13.2492 Y3.6163
G01 X13.2289 Y3.7382
G01 X13.2238 Y3.7604
G01 X13.1927 Y3.8681
G01 X13.1852 Y3.8896
G01 X13.1376 Y4.0036
G01 X13.0724 Y4.1217
G01 X12.9943 Y4.2318
G01 X12.9044 Y4.3324
G01 X12.8038 Y4.4223
G01 X12.7032 Y4.4940
G01 X12.6839 Y4.5062
G01 X12.5858 Y4.5604
G01 X12.5652 Y4.5703
G01 X12.4510 Y4.6173
G01 X12.3213 Y4.6546
G01 X12.1883 Y4.6772
G01 X12.0536 Y4.6848
G01 X11.9189 Y4.6772
G01 X11.7859 Y4.6546
G01 X11.6562 Y4.6173
G01 X11.5420 Y4.5703
G01 X11.5214 Y4.5604
G01 X11.4233 Y4.5062
G01 X11.4040 Y4.4940
G01 X11.3034 Y4.4223
G01 X11.2028 Y4.3324
G01 X11.1129 Y4.2318
G01 X11.0348 Y4.1217
G01 X10.9696 Y4.0036
G01 X10.9220 Y3.8896
G01 X10.9145 Y3.8681
G01 X10.8834 Y3.7604
G01 X10.8783 Y3.7382
G01 X10.8580 Y3.6163
G01 X10.8504 Y3.4816
G01 X10.8580 Y3.3469
G01 X10.8783 Y3.2250
G01 X10.8834 Y3.2028
G01 X10.9145 Y3.0951
G01 X10.9220 Y3.0736
G01 X10.9696 Y2.9596
G01 X11.0348 Y2.8415
G01 X11.1129 Y2.7314
G01 X11.2028 Y2.6308
G01 X11.3034 Y2.5409
G01 X11.4040 Y2.4692
G01 X11.4233 Y2.4570
G01 X11.5214 Y2.4028
G01 X11.5420 Y2.3929
G01 X11.6562 Y2.3459
G01 X11.7859 Y2.3086
G01 X11.9189 Y2.2860
G01 X12.0536 Y2.2784
G01 X12.1883 Y2.2860
G01 X12.3213 Y2.3086
G01 X12.4510 Y2.3459
G01 X12.5652 Y2.3929
G01 X12.5858 Y2.4028
G01 X12.6839 Y2.4570
G01 X12.7032 Y2.4692
G01 X12.8038 Y2.5409
G01 X12.9044 Y2.6308
G01 X12.9943 Y2.7314
G01 X13.0660 Y2.8320
G01 X13.0782 Y2.8513
G01 X13.1324 Y2.9494
G01 X13.1423 Y2.9700
G01 X13.1893 Y3.0842
G01 X13.2266 Y3.2139
G01 X13.2492 Y3.3469
G01 X13.2565 Y3.4702
G00 Z2.5400
G00 X18.3365 Y3.4702
G01 F76.20
G01 Z-0.2000
G01 F76.20
G01 X18.3365 Y3.4930
G01 X18.3302 Y3.6050
G01 X18.3276 Y3.6276
G01 X18.3066 Y3.7493
G01 X18.2727 Y3.8681
G01 X18.2652 Y3.8896
G01 X18.2176 Y4.0036
G01 X18.1524 Y4.1217
G01 X18.0743 Y4.2318
G01 X17.9844 Y4.3324
G01 X17.8838 Y4.4223
G01 X17.7832 Y4.4940
G01 X17.7639 Y4.5062
G01 X17.6658 Y4.5604
G01 X17.6452 Y4.5703
G01 X17.5310 Y4.6173
G01 X17.4013 Y4.6546
G01 X17.2683 Y4.6772
G01 X17.1336 Y4.6848
G01 X16.9989 Y4.6772
G01 X16.8770 Y4.6569
G01 X16.8548 Y4.6518
G01 X16.7471 Y4.6207
G01 X16.7256 Y4.6132
G01 X16.6116 Y4.5656
G01 X16.4935 Y4.5004
G01 X16.3834 Y4.4223
G01 X16.2828 Y4.3324
G01 X16.1929 Y4.2318
G01 X16.1212 Y4.1312
G01 X16.1090 Y4.1119
G01 X16.0548 Y4.0138
G01 X16.0449 Y3.9932
G01 X15.9979 Y3.8790
G01 X15.9606 Y3.7493
G01 X15.9380 Y3.6163
G01 X15.9304 Y3.4816
G01 X15.9380 Y3.3469
G01 X15.9583 Y3.2250
G01 X15.9634 Y3.2028
G01 X15.9945 Y3.0951
G01 X16.0020 Y3.0736
G01 X16.0496 Y2.9596
G01 X16.1148 Y2.8415
G01 X16.1929 Y2.7314
G01 X16.2828 Y2.6308
G01 X16.3834 Y2.5409
G01 X16.4840 Y2.4692
G01 X16.5033 Y2.4570
G01 X16.6014 Y2.4028
G01 X16.6220 Y2.3929
G01 X16.7362 Y2.3459
G01 X16.8659 Y2.3086
G01 X16.9989 Y2.2860
G01 X17.1336 Y2.2784
G01 X17.2683 Y2.2860
G01 X17.3902 Y2.3063
G01 X17.4124 Y2.3114
G01 X17.5201 Y2.3425
G01 X17.5416 Y2.3500
G01 X17.6556 Y2.3976
G01 X17.7737 Y2.4628
G01 X17.8838 Y2.5409
G01 X17.9844 Y2.6308
G01 X18.0743 Y2.7314
G01 X18.1460 Y2.8320
G01 X18.1582 Y2.8513
G01 X18.2124 Y2.9494
G01 X18.2223 Y2.9700
G01 X18.2693 Y3.0842
G01 X18.3066 Y3.2139
G01 X18.3292 Y3.3469
G01 X18.3365 Y3.4702
G00 Z2.5400
G00 X19.1845 Y17.2878
G01 F76.20
G01 Z-0.2000
G01 F76.20
G01 X19.1845 Y17.3106
G01 X19.1782 Y17.4226
G01 X19.1756 Y17.4452
G01 X19.1546 Y17.5669
G01 X19.1207 Y17.6857
G01 X19.1132 Y17.7072
G01 X19.0656 Y17.8212
G01 X19.0004 Y17.9393
G01 X18.9223 Y18.0494
G01 X18.8324 Y18.1500
G01 X18.7318 Y18.2399
G01 X18.6312 Y18.3116
G01 X18.6119 Y18.3238
G01 X18.5138 Y18.3780
G01 X18.4932 Y18.3879
G01 X18.3790 Y18.4349
G01 X18.2493 Y18.4722
G01 X18.1163 Y18.4948
G01 X17.9816 Y18.5024
G01 X17.8469 Y18.4948
G01 X17.7250 Y18.4745
G01 X17.7028 Y18.4694
G01 X17.5951 Y18.4383
G01 X17.5736 Y18.4308
G01 X17.4596 Y18.3832
G01 X17.3415 Y18.3180
G01 X17.2314 Y18.2399
G01 X17.1308 Y18.1500
G01 X17.0409 Y18.0494
G01 X16.9692 Y17.9488
G01 X16.9570 Y17.9295
G01 X16.9028 Y17.8314
G01 X16.8929 Y17.8108
G01 X16.8459 Y17.6966
G01 X16.8086 Y17.5669
G01 X16.7860 Y17.4339
G01 X16.7784 Y17.2992
G01 X16.7860 Y17.1645
G01 X16.8063 Y17.0426
G01 X16.8114 Y17.0204
G01 X16.8425 Y16.9127
G01 X16.8500 Y16.8912
G01 X16.8976 Y16.7772
G01 X16.9628 Y16.6591
G01 X17.0409 Y16.5490
G01 X17.1308 Y16.4484
G01 X17.2314 Y16.3585
G01 X17.3320 Y16.2868
G01 X17.3513 Y16.2746
G01 X17.4494 Y16.2204
G01 X17.4700 Y16.2105
G01 X17.5842 Y16.1635
G01 X17.7139 Y16.1262
G01 X17.8469 Y16.1036
G01 X17.9816 Y16.0960
G01 X18.1163 Y16.1036
G01 X18.2382 Y16.1239
G01 X18.2604 Y16.1290
G01 X18.3681 Y16.1601
G01 X18.3896 Y16.1676
G01 X18.5036 Y16.2152
G01 X18.6217 Y16.2804
G01 X18.7318 Y16.3585
G01 X18.8324 Y16.4484
G01 X18.9223 Y16.5490
G01 X18.9940 Y16.6496
G01 X19.0062 Y16.6689
G01 X19.0604 Y16.7670
G01 X19.0703 Y16.7876
G01 X19.1173 Y16.9018
G01 X19.1546 Y17.0315
G01 X19.1772 Y17.1645
G01 X19.1845 Y17.2878
G00 Z2.5400
G00 X12.1389 Y17.1354
G01 F76.20
G01 Z-0.2000
G01 F76.20
G01 X12.1389 Y17.1582
G01 X12.1316 Y17.2815
G01 X12.1113 Y17.4034
G01 X12.1062 Y17.4256
G01 X12.0751 Y17.5333
G01 X12.0676 Y17.5548
G01 X12.0200 Y17.6688
G01 X11.9548 Y17.7869
G01 X11.8767 Y17.8970
G01 X11.7868 Y17.9976
G01 X11.6862 Y18.0875
G01 X11.5856 Y18.1592
G01 X11.5663 Y18.1714
G01 X11.4682 Y18.2256
G01 X11.4476 Y18.2355
G01 X11.3334 Y18.2825
G01 X11.2037 Y18.3198
G01 X11.0707 Y18.3424
G01 X10.9360 Y18.3500
G01 X10.8013 Y18.3424
G01 X10.6683 Y18.3198
G01 X10.5386 Y18.2825
G01 X10.4244 Y18.2355
G01 X10.4038 Y18.2256
G01 X10.3057 Y18.1714
G01 X10.2864 Y18.1592
G01 X10.1858 Y18.0875
G01 X10.0852 Y17.9976
G01 X9.9953 Y17.8970
G01 X9.9172 Y17.7869
G01 X9.8520 Y17.6688
G01 X9.8044 Y17.5548
G01 X9.7969 Y17.5333
G01 X9.7658 Y17.4256
G01 X9.7607 Y17.4034
G01 X9.7404 Y17.2815
G01 X9.7328 Y17.1468
G01 X9.7404 Y17.0121
G01 X9.7607 Y16.8902
G01 X9.7658 Y16.8680
G01 X9.7969 Y16.7603
G01 X9.8044 Y16.7388
G01 X9.8520 Y16.6248
G01 X9.9172 Y16.5067
G01 X9.9953 Y16.3966
G01 X10.0852 Y16.2960
G01 X10.1858 Y16.2061
G01 X10.2864 Y16.1344
G01 X10.3057 Y16.1222
G01 X10.4038 Y16.0680
G01 X10.4244 Y16.0581
G01 X10.5386 Y16.0111
G01 X10.6683 Y15.9738
G01 X10.8013 Y15.9512
G01 X10.9360 Y15.9436
G01 X11.0707 Y15.9512
G01 X11.2037 Y15.9738
G01 X11.3334 Y16.0111
G01 X11.4476 Y16.0581
G01 X11.4682 Y16.0680
G01 X11.5663 Y16.1222
G01 X11.5856 Y16.1344
G01 X11.6862 Y16.2061
G01 X11.7868 Y16.2960
G01 X11.8767 Y16.3966
G01 X11.9484 Y16.4972
G01 X11.9606 Y16.5165
G01 X12.0148 Y16.6146
G01 X12.0247 Y16.6352
G01 X12.0717 Y16.7494
G01 X12.1090 Y16.8791
G01 X12.1316 Y17.0121
G01 X12.1389 Y17.1354
G00 Z2.5400
G00 X7.6881 Y14.3060
G01 F76.20
G01 Z-0.2000
G01 F76.20
G01 X7.6926 Y14.2272
G01 X7.7036 Y14.1606
G01 X7.7086 Y14.1384
G01 X7.7242 Y14.0845
G01 X7.7317 Y14.0630
G01 X7.7578 Y14.0008
G01 X7.7960 Y13.9317
G01 X7.8416 Y13.8674
G01 X7.8864 Y13.8169
G01 X9.9342 Y11.7686
G01 X9.9930 Y11.7160
G01 X10.0479 Y11.6767
G01 X10.0672 Y11.6646
G01 X10.1163 Y11.6374
G01 X10.1368 Y11.6276
G01 X10.1993 Y11.6020
G01 X10.2751 Y11.5802
G01 X10.3528 Y11.5670
G01 X10.4316 Y11.5625
G01 X13.5116 Y11.5625
G01 X13.5904 Y11.5670
G01 X13.6570 Y11.5780
G01 X13.6792 Y11.5830
G01 X13.7331 Y11.5986
G01 X13.7546 Y11.6061
G01 X13.8168 Y11.6322
G01 X13.8859 Y11.6704
G01 X13.9502 Y11.7160
G01 X14.0090 Y11.7686
G01 X15.9390 Y13.6986
G01 X15.9916 Y13.7574
G01 X16.0309 Y13.8123
G01 X16.0430 Y13.8316
G01 X16.0754 Y13.8908
G01 X16.1056 Y13.9637
G01 X16.1274 Y14.0395
G01 X16.1406 Y14.1172
G01 X16.1450 Y14.1903
G01 X16.1451 Y16.3249
G01 X16.1918 Y16.3585
G01 X16.2924 Y16.4484
G01 X16.3749 Y16.5403
G01 X16.3892 Y16.5581
G01 X16.4604 Y16.6591
G01 X16.5204 Y16.7670
G01 X16.5303 Y16.7876
G01 X16.5732 Y16.8912
G01 X16.5807 Y16.9127
G01 X16.6146 Y17.0315
G01 X16.6356 Y17.1532
G01 X16.6382 Y17.1758
G01 X16.6448 Y17.2992
G01 X16.6372 Y17.4339
G01 X16.6169 Y17.5558
G01 X16.6118 Y17.5780
G01 X16.5807 Y17.6857
G01 X16.5732 Y17.7072
G01 X16.5256 Y17.8212
G01 X16.4604 Y17.9393
G01 X16.3823 Y18.0494
G01 X16.3002 Y18.1417
G01 X16.2841 Y18.1578
G01 X16.2005 Y18.2325
G01 X16.1827 Y18.2468
G01 X16.0817 Y18.3180
G01 X15.9738 Y18.3780
G01 X15.9532 Y18.3879
G01 X15.8390 Y18.4349
G01 X15.7204 Y18.4694
G01 X15.6982 Y18.4745
G01 X15.5763 Y18.4948
G01 X15.4416 Y18.5024
G01 X15.3069 Y18.4948
G01 X15.1739 Y18.4722
G01 X15.0442 Y18.4349
G01 X14.9196 Y18.3832
G01 X14.8015 Y18.3180
G01 X14.6914 Y18.2399
G01 X14.5908 Y18.1500
G01 X14.5009 Y18.0494
G01 X14.4228 Y17.9393
G01 X14.3576 Y17.8212
G01 X14.3059 Y17.6966
G01 X14.2686 Y17.5669
G01 X14.2460 Y17.4339
G01 X14.2384 Y17.2992
G01 X14.2460 Y17.1645
G01 X14.2686 Y17.0315
G01 X14.3059 Y16.9018
G01 X14.3576 Y16.7772
G01 X14.4228 Y16.6591
G01 X14.5009 Y16.5490
G01 X14.5830 Y16.4567
G01 X14.5991 Y16.4406
G01 X14.6914 Y16.3585
G01 X14.7381 Y16.3249
G01 X14.7381 Y14.4874
G01 X13.2202 Y12.9695
G01 X10.7230 Y12.9695
G01 X9.0951 Y14.5974
G01 X9.0951 Y15.6541
G01 X9.0995 Y15.7326
G01 X9.0995 Y16.1725
G01 X9.1371 Y16.1992
G01 X9.1549 Y16.2135
G01 X9.2385 Y16.2882
G01 X9.2546 Y16.3043
G01 X9.3367 Y16.3966
G01 X9.4084 Y16.4972
G01 X9.4206 Y16.5165
G01 X9.4800 Y16.6248
G01 X9.5317 Y16.7494
G01 X9.5690 Y16.8791
G01 X9.5916 Y17.0121
G01 X9.5989 Y17.1354
G01 X9.5989 Y17.1582
G01 X9.5916 Y17.2815
G01 X9.5713 Y17.4034
G01 X9.5662 Y17.4256
G01 X9.5317 Y17.5442
G01 X9.4800 Y17.6688
G01 X9.4148 Y17.7869
G01 X9.3436 Y17.8879
G01 X9.3293 Y17.9057
G01 X9.2546 Y17.9893
G01 X9.2385 Y18.0054
G01 X9.1462 Y18.0875
G01 X9.0361 Y18.1656
G01 X8.9180 Y18.2308
G01 X8.8040 Y18.2784
G01 X8.7825 Y18.2859
G01 X8.6748 Y18.3170
G01 X8.6526 Y18.3221
G01 X8.5307 Y18.3424
G01 X8.3960 Y18.3500
G01 X8.2613 Y18.3424
G01 X8.1394 Y18.3221
G01 X8.1172 Y18.3170
G01 X8.0095 Y18.2859
G01 X7.9880 Y18.2784
G01 X7.8844 Y18.2355
G01 X7.8638 Y18.2256
G01 X7.7559 Y18.1656
G01 X7.6549 Y18.0944
G01 X7.6371 Y18.0801
G01 X7.5452 Y17.9976
G01 X7.4553 Y17.8970
G01 X7.3836 Y17.7964
G01 X7.3714 Y17.7771
G01 X7.3120 Y17.6688
G01 X7.2644 Y17.5548
G01 X7.2569 Y17.5333
G01 X7.2230 Y17.4145
G01 X7.2020 Y17.2928
G01 X7.1994 Y17.2702
G01 X7.1931 Y17.1582
G01 X7.1931 Y17.1354
G01 X7.2004 Y17.0121
G01 X7.2207 Y16.8902
G01 X7.2258 Y16.8680
G01 X7.2603 Y16.7494
G01 X7.3120 Y16.6248
G01 X7.3772 Y16.5067
G01 X7.4553 Y16.3966
G01 X7.5374 Y16.3043
G01 X7.5535 Y16.2882
G01 X7.6458 Y16.2061
G01 X7.6925 Y16.1725
G01 X7.6925 Y15.8067
G01 X7.6881 Y15.7282
G01 X7.6881 Y14.3060
G00 Z2.5400
G00 X5.1525 Y18.1211
G01 F76.20
G01 Z-0.2000
G01 F76.20
G01 X5.1149 Y18.0944
G01 X5.0971 Y18.0801
G01 X5.0135 Y18.0054
G01 X4.9974 Y17.9893
G01 X4.9153 Y17.8970
G01 X4.8436 Y17.7964
G01 X4.8314 Y17.7771
G01 X4.7720 Y17.6688
G01 X4.7203 Y17.5442
G01 X4.6830 Y17.4145
G01 X4.6604 Y17.2815
G01 X4.6528 Y17.1468
G01 X4.6604 Y17.0121
G01 X4.6830 Y16.8791
G01 X4.7169 Y16.7603
G01 X4.7244 Y16.7388
G01 X4.7673 Y16.6352
G01 X4.7772 Y16.6146
G01 X4.8372 Y16.5067
G01 X4.9153 Y16.3966
G01 X5.0052 Y16.2960
G01 X5.1058 Y16.2061
G01 X5.2159 Y16.1280
G01 X5.3238 Y16.0680
G01 X5.3444 Y16.0581
G01 X5.4480 Y16.0152
G01 X5.4695 Y16.0077
G01 X5.5883 Y15.9738
G01 X5.7213 Y15.9512
G01 X5.8560 Y15.9436
G01 X5.9907 Y15.9512
G01 X6.1237 Y15.9738
G01 X6.2425 Y16.0077
G01 X6.2640 Y16.0152
G01 X6.3676 Y16.0581
G01 X6.3882 Y16.0680
G01 X6.4961 Y16.1280
G01 X6.6062 Y16.2061
G01 X6.7068 Y16.2960
G01 X6.7967 Y16.3966
G01 X6.8748 Y16.5067
G01 X6.9400 Y16.6248
G01 X6.9917 Y16.7494
G01 X7.0290 Y16.8791
G01 X7.0516 Y17.0121
G01 X7.0592 Y17.1468
G01 X7.0516 Y17.2815
G01 X7.0290 Y17.4145
G01 X6.9917 Y17.5442
G01 X6.9400 Y17.6688
G01 X6.8748 Y17.7869
G01 X6.7967 Y17.8970
G01 X6.7146 Y17.9893
G01 X6.6985 Y18.0054
G01 X6.6062 Y18.0875
G01 X6.5595 Y18.1211
G01 X6.5595 Y19.4190
G01 X9.3130 Y22.1725
G01 X17.4016 Y22.1725
G01 X17.4690 Y22.1760
G01 X17.4916 Y22.1786
G01 X17.5581 Y22.1902
G01 X17.6231 Y22.2086
G01 X17.6446 Y22.2161
G01 X17.7068 Y22.2422
G01 X17.7759 Y22.2804
G01 X17.8402 Y22.3260
G01 X17.8990 Y22.3786
G01 X19.3074 Y23.7870
G01 X19.3600 Y23.8458
G01 X19.3993 Y23.9007
G01 X19.4114 Y23.9200
G01 X19.4386 Y23.9691
G01 X19.4484 Y23.9896
G01 X19.4740 Y24.0521
G01 X19.4958 Y24.1279
G01 X19.5090 Y24.2057
G01 X19.5131 Y24.2730
G01 X19.5135 Y25.3165
G01 X19.5511 Y25.3432
G01 X19.5689 Y25.3575
G01 X19.6525 Y25.4322
G01 X19.6686 Y25.4483
G01 X19.7507 Y25.5406
G01 X19.8224 Y25.6412
G01 X19.8346 Y25.6605
G01 X19.8940 Y25.7688
G01 X19.9457 Y25.8934
G01 X19.9830 Y26.0231
G01 X20.0056 Y26.1561
G01 X20.0132 Y26.2908
G01 X20.0066 Y26.4142
G01 X20.0040 Y26.4368
G01 X19.9830 Y26.5585
G01 X19.9491 Y26.6773
G01 X19.9416 Y26.6988
G01 X19.8940 Y26.8128
G01 X19.8288 Y26.9309
G01 X19.7507 Y27.0410
G01 X19.6608 Y27.1416
G01 X19.5602 Y27.2315
G01 X19.4501 Y27.3096
G01 X19.3320 Y27.3748
G01 X19.2074 Y27.4265
G01 X19.0777 Y27.4638
G01 X18.9560 Y27.4848
G01 X18.9334 Y27.4874
G01 X18.8100 Y27.4940
G01 X18.6866 Y27.4874
G01 X18.6640 Y27.4848
G01 X18.5534 Y27.4661
G01 X18.5312 Y27.4610
G01 X18.4126 Y27.4265
G01 X18.2984 Y27.3795
G01 X18.2778 Y27.3696
G01 X18.1699 Y27.3096
G01 X18.0598 Y27.2315
G01 X17.9592 Y27.1416
G01 X17.8693 Y27.0410
G01 X17.7912 Y26.9309
G01 X17.7312 Y26.8230
G01 X17.7213 Y26.8024
G01 X17.6784 Y26.6988
G01 X17.6709 Y26.6773
G01 X17.6370 Y26.5585
G01 X17.6144 Y26.4255
G01 X17.6068 Y26.2908
G01 X17.6144 Y26.1561
G01 X17.6370 Y26.0231
G01 X17.6743 Y25.8934
G01 X17.7260 Y25.7688
G01 X17.7854 Y25.6605
G01 X17.7976 Y25.6412
G01 X17.8693 Y25.5406
G01 X17.9514 Y25.4483
G01 X17.9675 Y25.4322
G01 X18.0511 Y25.3575
G01 X18.0689 Y25.3432
G01 X18.1065 Y25.3165
G01 X18.1065 Y24.5758
G01 X17.1102 Y23.5795
G01 X9.0216 Y23.5795
G01 X8.9428 Y23.5750
G01 X8.8762 Y23.5640
G01 X8.8540 Y23.5590
G01 X8.7893 Y23.5400
G01 X8.7268 Y23.5144
G01 X8.7063 Y23.5046
G01 X8.6473 Y23.4716
G01 X8.5830 Y23.4260
G01 X8.5242 Y23.3734
G01 X5.3586 Y20.2078
G01 X5.3060 Y20.1490
G01 X5.2604 Y20.0847
G01 X5.2222 Y20.0156
G01 X5.1961 Y19.9534
G01 X5.1886 Y19.9319
G01 X5.1702 Y19.8669
G01 X5.1586 Y19.8004
G01 X5.1560 Y19.7778
G01 X5.1529 Y19.7218
G01 X5.1525 Y18.1211
G00 Z2.5400
G00 X9.8021 Y26.3302
G01 F76.20
G01 Z-0.2000
G01 F76.20
G01 X9.8021 Y26.3530
G01 X9.7948 Y26.4763
G01 X9.7745 Y26.5982
G01 X9.7694 Y26.6204
G01 X9.7383 Y26.7281
G01 X9.7308 Y26.7496
G01 X9.6832 Y26.8636
G01 X9.6180 Y26.9817
G01 X9.5399 Y27.0918
G01 X9.4500 Y27.1924
G01 X9.3494 Y27.2823
G01 X9.2488 Y27.3540
G01 X9.2295 Y27.3662
G01 X9.1314 Y27.4204
G01 X9.1108 Y27.4303
G01 X8.9966 Y27.4773
G01 X8.8669 Y27.5146
G01 X8.7339 Y27.5372
G01 X8.5992 Y27.5448
G01 X8.4645 Y27.5372
G01 X8.3426 Y27.5169
G01 X8.3204 Y27.5118
G01 X8.2127 Y27.4807
G01 X8.1912 Y27.4732
G01 X8.0772 Y27.4256
G01 X7.9591 Y27.3604
G01 X7.8490 Y27.2823
G01 X7.7484 Y27.1924
G01 X7.6585 Y27.0918
G01 X7.5868 Y26.9912
G01 X7.5746 Y26.9719
G01 X7.5204 Y26.8738
G01 X7.5105 Y26.8532
G01 X7.4635 Y26.7390
G01 X7.4262 Y26.6093
G01 X7.4036 Y26.4763
G01 X7.3960 Y26.3416
G01 X7.4036 Y26.2069
G01 X7.4239 Y26.0850
G01 X7.4290 Y26.0628
G01 X7.4601 Y25.9551
G01 X7.4676 Y25.9336
G01 X7.5152 Y25.8196
G01 X7.5804 Y25.7015
G01 X7.6585 Y25.5914
G01 X7.7484 Y25.4908
G01 X7.8490 Y25.4009
G01 X7.9496 Y25.3292
G01 X7.9689 Y25.3170
G01 X8.0670 Y25.2628
G01 X8.0876 Y25.2529
G01 X8.2018 Y25.2059
G01 X8.3315 Y25.1686
G01 X8.4645 Y25.1460
G01 X8.5992 Y25.1384
G01 X8.7339 Y25.1460
G01 X8.8558 Y25.1663
G01 X8.8780 Y25.1714
G01 X8.9857 Y25.2025
G01 X9.0072 Y25.2100
G01 X9.1212 Y25.2576
G01 X9.2393 Y25.3228
G01 X9.3494 Y25.4009
G01 X9.4500 Y25.4908
G01 X9.5399 Y25.5914
G01 X9.6116 Y25.6920
G01 X9.6238 Y25.7113
G01 X9.6780 Y25.8094
G01 X9.6879 Y25.8300
G01 X9.7349 Y25.9442
G01 X9.7722 Y26.0739
G01 X9.7948 Y26.2069
G01 X9.8021 Y26.3302
G00 Z2.5400
G00 X10.4357 Y27.3159
G01 F76.20
G01 Z-0.2000
G01 F76.20
G01 X10.3890 Y27.2823
G01 X10.2884 Y27.1924
G01 X10.1985 Y27.0918
G01 X10.1268 Y26.9912
G01 X10.1146 Y26.9719
G01 X10.0604 Y26.8738
G01 X10.0505 Y26.8532
G01 X10.0035 Y26.7390
G01 X9.9690 Y26.6204
G01 X9.9639 Y26.5982
G01 X9.9452 Y26.4876
G01 X9.9426 Y26.4650
G01 X9.9360 Y26.3416
G01 X9.9436 Y26.2069
G01 X9.9639 Y26.0850
G01 X9.9690 Y26.0628
G01 X10.0035 Y25.9442
G01 X10.0505 Y25.8300
G01 X10.0604 Y25.8094
G01 X10.1146 Y25.7113
G01 X10.1268 Y25.6920
G01 X10.1985 Y25.5914
G01 X10.2884 Y25.4908
G01 X10.3890 Y25.4009
G01 X10.4896 Y25.3292
G01 X10.5089 Y25.3170
G01 X10.6172 Y25.2576
G01 X10.7418 Y25.2059
G01 X10.8604 Y25.1714
G01 X10.8826 Y25.1663
G01 X11.0045 Y25.1460
G01 X11.1278 Y25.1387
G01 X11.1506 Y25.1387
G01 X11.2739 Y25.1460
G01 X11.3958 Y25.1663
G01 X11.4180 Y25.1714
G01 X11.5366 Y25.2059
G01 X11.6508 Y25.2529
G01 X11.6714 Y25.2628
G01 X11.7793 Y25.3228
G01 X11.8803 Y25.3940
G01 X11.8981 Y25.4083
G01 X11.9900 Y25.4908
G01 X12.0799 Y25.5914
G01 X12.1516 Y25.6920
G01 X12.1638 Y25.7113
G01 X12.2232 Y25.8196
G01 X12.2708 Y25.9336
G01 X12.2783 Y25.9551
G01 X12.3122 Y26.0739
G01 X12.3332 Y26.1956
G01 X12.3358 Y26.2182
G01 X12.3424 Y26.3416
G01 X12.3358 Y26.4650
G01 X12.3332 Y26.4876
G01 X12.3122 Y26.6093
G01 X12.2749 Y26.7390
G01 X12.2279 Y26.8532
G01 X12.2180 Y26.8738
G01 X12.1580 Y26.9817
G01 X12.0868 Y27.0827
G01 X12.0725 Y27.1005
G01 X11.9900 Y27.1924
G01 X11.8894 Y27.2823
G01 X11.8427 Y27.3159
G01 X11.8427 Y28.8522
G01 X12.2930 Y29.3025
G01 X21.2781 Y29.3026
G01 X21.3512 Y29.3070
G01 X21.4178 Y29.3180
G01 X21.4400 Y29.3230
G01 X21.5047 Y29.3420
G01 X21.5776 Y29.3722
G01 X21.6368 Y29.4046
G01 X21.6561 Y29.4167
G01 X21.7110 Y29.4560
G01 X21.7698 Y29.5086
G01 X26.4194 Y34.1582
G01 X26.4720 Y34.2170
G01 X26.5113 Y34.2719
G01 X26.5234 Y34.2912
G01 X26.5558 Y34.3504
G01 X26.5860 Y34.4233
G01 X26.6078 Y34.4991
G01 X26.6210 Y34.5769
G01 X26.6254 Y34.6499
G01 X26.6255 Y38.0436
G01 X26.7021 Y38.1125
G01 X26.7845 Y38.2047
G01 X26.8561 Y38.3056
G01 X26.9160 Y38.4139
G01 X26.9633 Y38.5282
G01 X26.9975 Y38.6471
G01 X27.0183 Y38.7691
G01 X27.0251 Y38.8869
G01 X27.0249 Y39.3036
G01 X27.0183 Y39.4157
G01 X26.9975 Y39.5377
G01 X26.9633 Y39.6566
G01 X26.9160 Y39.7709
G01 X26.8561 Y39.8792
G01 X26.7845 Y39.9801
G01 X26.7021 Y40.0723
G01 X26.6098 Y40.1547
G01 X26.5089 Y40.2263
G01 X26.4108 Y40.2809
G01 X26.3903 Y40.2908
G01 X26.2864 Y40.3335
G01 X26.1785 Y40.3649
G01 X26.1563 Y40.3700
G01 X26.0455 Y40.3885
G01 X25.9334 Y40.3951
G01 X25.9106 Y40.3951
G01 X25.8098 Y40.3894
G01 X25.7872 Y40.3869
G01 X25.6765 Y40.3678
G01 X25.5576 Y40.3335
G01 X25.4433 Y40.2862
G01 X25.3351 Y40.2263
G01 X25.2342 Y40.1547
G01 X25.1419 Y40.0723
G01 X25.0595 Y39.9801
G01 X24.9879 Y39.8792
G01 X24.9280 Y39.7709
G01 X24.8807 Y39.6566
G01 X24.8465 Y39.5377
G01 X24.8273 Y39.4270
G01 X24.8248 Y39.4044
G01 X24.8189 Y39.2979
G01 X24.8191 Y38.8812
G01 X24.8257 Y38.7691
G01 X24.8465 Y38.6471
G01 X24.8807 Y38.5282
G01 X24.9280 Y38.4139
G01 X24.9879 Y38.3056
G01 X25.0595 Y38.2047
G01 X25.1419 Y38.1125
G01 X25.2185 Y38.0436
G01 X25.2185 Y34.9470
G01 X20.9810 Y30.7095
G01 X12.0016 Y30.7095
G01 X11.9228 Y30.7050
G01 X11.8562 Y30.6940
G01 X11.8340 Y30.6890
G01 X11.7693 Y30.6700
G01 X11.6964 Y30.6398
G01 X11.6273 Y30.6016
G01 X11.5630 Y30.5560
G01 X11.5042 Y30.5034
G01 X10.6340 Y29.6327
G01 X10.5892 Y29.5822
G01 X10.5436 Y29.5179
G01 X10.5054 Y29.4488
G01 X10.4793 Y29.3866
G01 X10.4718 Y29.3651
G01 X10.4562 Y29.3112
G01 X10.4512 Y29.2890
G01 X10.4402 Y29.2224
G01 X10.4358 Y29.1493
G01 X10.4357 Y27.3159
G00 Z2.5400
G00 X17.1286 Y27.1333
G01 F76.20
G01 Z-0.2000
G01 F76.20
G01 X17.1125 Y27.1494
G01 X17.0202 Y27.2315
G01 X16.9196 Y27.3032
G01 X16.9003 Y27.3154
G01 X16.8022 Y27.3696
G01 X16.7816 Y27.3795
G01 X16.6674 Y27.4265
G01 X16.5377 Y27.4638
G01 X16.4047 Y27.4864
G01 X16.2700 Y27.4940
G01 X16.1353 Y27.4864
G01 X16.0134 Y27.4661
G01 X15.9912 Y27.4610
G01 X15.8835 Y27.4299
G01 X15.8620 Y27.4224
G01 X15.7480 Y27.3748
G01 X15.6299 Y27.3096
G01 X15.5198 Y27.2315
G01 X15.4192 Y27.1416
G01 X15.3293 Y27.0410
G01 X15.2576 Y26.9404
G01 X15.2454 Y26.9211
G01 X15.1912 Y26.8230
G01 X15.1813 Y26.8024
G01 X15.1343 Y26.6882
G01 X15.0970 Y26.5585
G01 X15.0744 Y26.4255
G01 X15.0668 Y26.2908
G01 X15.0744 Y26.1561
G01 X15.0947 Y26.0342
G01 X15.0998 Y26.0120
G01 X15.1309 Y25.9043
G01 X15.1384 Y25.8828
G01 X15.1860 Y25.7688
G01 X15.2512 Y25.6507
G01 X15.3293 Y25.5406
G01 X15.4192 Y25.4400
G01 X15.5198 Y25.3501
G01 X15.6204 Y25.2784
G01 X15.6397 Y25.2662
G01 X15.7378 Y25.2120
G01 X15.7584 Y25.2021
G01 X15.8726 Y25.1551
G01 X16.0023 Y25.1178
G01 X16.1353 Y25.0952
G01 X16.2700 Y25.0876
G01 X16.4047 Y25.0952
G01 X16.5266 Y25.1155
G01 X16.5488 Y25.1206
G01 X16.6565 Y25.1517
G01 X16.6780 Y25.1592
G01 X16.7920 Y25.2068
G01 X16.9101 Y25.2720
G01 X17.0202 Y25.3501
G01 X17.1208 Y25.4400
G01 X17.2107 Y25.5406
G01 X17.2824 Y25.6412
G01 X17.2946 Y25.6605
G01 X17.3488 Y25.7586
G01 X17.3587 Y25.7792
G01 X17.4057 Y25.8934
G01 X17.4430 Y26.0231
G01 X17.4656 Y26.1561
G01 X17.4732 Y26.2908
G01 X17.4656 Y26.4255
G01 X17.4453 Y26.5474
G01 X17.4402 Y26.5696
G01 X17.4091 Y26.6773
G01 X17.4016 Y26.6988
G01 X17.3540 Y26.8128
G01 X17.2888 Y26.9309
G01 X17.2107 Y27.0410
G01 X17.1286 Y27.1333
G00 Z2.5400
G00 X23.1130 Y25.0622
G01 F76.20
G01 Z-0.2000
G01 F76.20
G01 X23.0988 Y25.0444
G01 X23.0469 Y24.9712
G01 X23.0348 Y24.9519
G01 X22.9861 Y24.8633
G01 X22.9472 Y24.7700
G01 X22.9396 Y24.7485
G01 X22.9120 Y24.6512
G01 X22.8931 Y24.5403
G01 X22.8868 Y24.4280
G01 X22.8931 Y24.3157
G01 X22.9120 Y24.2048
G01 X22.9396 Y24.1075
G01 X22.9472 Y24.0860
G01 X22.9815 Y24.0031
G01 X22.9914 Y23.9826
G01 X23.0406 Y23.8943
G01 X23.1057 Y23.8025
G01 X23.1806 Y23.7186
G01 X23.2645 Y23.6437
G01 X23.3563 Y23.5786
G01 X23.4446 Y23.5294
G01 X23.4651 Y23.5195
G01 X23.5480 Y23.4852
G01 X23.5695 Y23.4776
G01 X23.6668 Y23.4500
G01 X23.7777 Y23.4311
G01 X23.8900 Y23.4248
G01 X24.0023 Y23.4311
G01 X24.1132 Y23.4500
G01 X24.2213 Y23.4811
G01 X24.3253 Y23.5241
G01 X24.4139 Y23.5728
G01 X24.4332 Y23.5849
G01 X24.5064 Y23.6368
G01 X24.5242 Y23.6510
G01 X24.5994 Y23.7186
G01 X24.6743 Y23.8025
G01 X24.7394 Y23.8943
G01 X24.7886 Y23.9826
G01 X24.7985 Y24.0031
G01 X24.8328 Y24.0860
G01 X24.8404 Y24.1075
G01 X24.8680 Y24.2048
G01 X24.8869 Y24.3157
G01 X24.8932 Y24.4280
G01 X24.8869 Y24.5403
G01 X24.8680 Y24.6512
G01 X24.8404 Y24.7485
G01 X24.8328 Y24.7700
G01 X24.7985 Y24.8529
G01 X24.7886 Y24.8734
G01 X24.7394 Y24.9617
G01 X24.6743 Y25.0535
G01 X24.5994 Y25.1374
G01 X24.5155 Y25.2123
G01 X24.4237 Y25.2774
G01 X24.3253 Y25.3319
G01 X24.2213 Y25.3749
G01 X24.1243 Y25.4032
G01 X24.1021 Y25.4083
G01 X24.0136 Y25.4233
G01 X23.9910 Y25.4259
G01 X23.8900 Y25.4312
G01 X23.7777 Y25.4249
G01 X23.6668 Y25.4060
G01 X23.5695 Y25.3784
G01 X23.5480 Y25.3708
G01 X23.4651 Y25.3365
G01 X23.4446 Y25.3266
G01 X23.3563 Y25.2774
G01 X23.2645 Y25.2123
G01 X23.1806 Y25.1374
G01 X23.1130 Y25.0622
G00 Z2.5400
G00 X17.9275 Y36.4477
G01 F76.20
G01 Z-0.2000
G01 F76.20
G01 X17.9132 Y36.4299
G01 X17.8484 Y36.3384
G01 X17.8362 Y36.3191
G01 X17.7768 Y36.2108
G01 X17.7292 Y36.0968
G01 X17.7217 Y36.0753
G01 X17.6878 Y35.9565
G01 X17.6652 Y35.8235
G01 X17.6576 Y35.6888
G01 X17.6652 Y35.5541
G01 X17.6878 Y35.4211
G01 X17.7217 Y35.3023
G01 X17.7292 Y35.2808
G01 X17.7721 Y35.1772
G01 X17.7820 Y35.1566
G01 X17.8420 Y35.0487
G01 X17.9201 Y34.9386
G01 X18.0100 Y34.8380
G01 X18.1106 Y34.7481
G01 X18.2207 Y34.6700
G01 X18.3388 Y34.6048
G01 X18.4634 Y34.5531
G01 X18.5820 Y34.5186
G01 X18.6042 Y34.5135
G01 X18.7148 Y34.4948
G01 X18.7374 Y34.4922
G01 X18.8608 Y34.4856
G01 X18.9955 Y34.4932
G01 X19.1285 Y34.5158
G01 X19.2473 Y34.5497
G01 X19.2688 Y34.5572
G01 X19.3724 Y34.6001
G01 X19.3930 Y34.6100
G01 X19.5009 Y34.6700
G01 X19.6110 Y34.7481
G01 X19.7116 Y34.8380
G01 X19.8015 Y34.9386
G01 X19.8796 Y35.0487
G01 X19.9396 Y35.1566
G01 X19.9495 Y35.1772
G01 X19.9924 Y35.2808
G01 X19.9999 Y35.3023
G01 X20.0338 Y35.4211
G01 X20.0564 Y35.5541
G01 X20.0640 Y35.6888
G01 X20.0564 Y35.8235
G01 X20.0338 Y35.9565
G01 X19.9999 Y36.0753
G01 X19.9924 Y36.0968
G01 X19.9495 Y36.2004
G01 X19.9396 Y36.2210
G01 X19.8796 Y36.3289
G01 X19.8015 Y36.4390
G01 X19.7116 Y36.5396
G01 X19.6110 Y36.6295
G01 X19.5009 Y36.7076
G01 X19.3828 Y36.7728
G01 X19.2582 Y36.8245
G01 X19.1396 Y36.8590
G01 X19.1174 Y36.8641
G01 X19.0068 Y36.8828
G01 X18.9842 Y36.8854
G01 X18.8608 Y36.8920
G01 X18.7261 Y36.8844
G01 X18.5931 Y36.8618
G01 X18.4743 Y36.8279
G01 X18.4528 Y36.8204
G01 X18.3492 Y36.7775
G01 X18.3286 Y36.7676
G01 X18.2207 Y36.7076
G01 X18.1106 Y36.6295
G01 X18.0100 Y36.5396
G01 X17.9275 Y36.4477
G00 Z2.5400
G00 X17.1794 Y36.5313
G01 F76.20
G01 Z-0.2000
G01 F76.20
G01 X17.1633 Y36.5474
G01 X17.0710 Y36.6295
G01 X16.9704 Y36.7012
G01 X16.9511 Y36.7134
G01 X16.8530 Y36.7676
G01 X16.8324 Y36.7775
G01 X16.7182 Y36.8245
G01 X16.5885 Y36.8618
G01 X16.4555 Y36.8844
G01 X16.3208 Y36.8920
G01 X16.1861 Y36.8844
G01 X16.0642 Y36.8641
G01 X16.0420 Y36.8590
G01 X15.9343 Y36.8279
G01 X15.9128 Y36.8204
G01 X15.7988 Y36.7728
G01 X15.6807 Y36.7076
G01 X15.5706 Y36.6295
G01 X15.4700 Y36.5396
G01 X15.3801 Y36.4390
G01 X15.3084 Y36.3384
G01 X15.2962 Y36.3191
G01 X15.2420 Y36.2210
G01 X15.2321 Y36.2004
G01 X15.1851 Y36.0862
G01 X15.1478 Y35.9565
G01 X15.1252 Y35.8235
G01 X15.1176 Y35.6888
G01 X15.1252 Y35.5541
G01 X15.1455 Y35.4322
G01 X15.1506 Y35.4100
G01 X15.1817 Y35.3023
G01 X15.1892 Y35.2808
G01 X15.2368 Y35.1668
G01 X15.3020 Y35.0487
G01 X15.3801 Y34.9386
G01 X15.4700 Y34.8380
G01 X15.5706 Y34.7481
G01 X15.6712 Y34.6764
G01 X15.6905 Y34.6642
G01 X15.7886 Y34.6100
G01 X15.8092 Y34.6001
G01 X15.9234 Y34.5531
G01 X16.0531 Y34.5158
G01 X16.1861 Y34.4932
G01 X16.3208 Y34.4856
G01 X16.4555 Y34.4932
G01 X16.5774 Y34.5135
G01 X16.5996 Y34.5186
G01 X16.7073 Y34.5497
G01 X16.7288 Y34.5572
G01 X16.8428 Y34.6048
G01 X16.9609 Y34.6700
G01 X17.0710 Y34.7481
G01 X17.1716 Y34.8380
G01 X17.2615 Y34.9386
G01 X17.3332 Y35.0392
G01 X17.3454 Y35.0585
G01 X17.3996 Y35.1566
G01 X17.4095 Y35.1772
G01 X17.4565 Y35.2914
G01 X17.4938 Y35.4211
G01 X17.5164 Y35.5541
G01 X17.5240 Y35.6888
G01 X17.5164 Y35.8235
G01 X17.4961 Y35.9454
G01 X17.4910 Y35.9676
G01 X17.4599 Y36.0753
G01 X17.4524 Y36.0968
G01 X17.4048 Y36.2108
G01 X17.3396 Y36.3289
G01 X17.2615 Y36.4390
G01 X17.1794 Y36.5313
G00 Z2.5400
G00 X17.4468 Y39.9888
G01 F76.20
G01 Z-0.2000
G01 F76.20
G01 X17.4326 Y39.9709
G01 X17.3742 Y39.8886
G01 X17.3621 Y39.8693
G01 X17.3080 Y39.7709
G01 X17.2607 Y39.6566
G01 X17.2293 Y39.5487
G01 X17.2242 Y39.5265
G01 X17.2057 Y39.4157
G01 X17.1988 Y39.2922
G01 X17.1991 Y38.8812
G01 X17.2057 Y38.7691
G01 X17.2265 Y38.6471
G01 X17.2607 Y38.5282
G01 X17.3080 Y38.4139
G01 X17.3679 Y38.3056
G01 X17.4395 Y38.2047
G01 X17.5219 Y38.1125
G01 X17.6055 Y38.0374
G01 X17.6233 Y38.0232
G01 X17.7056 Y37.9648
G01 X17.7249 Y37.9527
G01 X17.8233 Y37.8986
G01 X17.9376 Y37.8513
G01 X18.0565 Y37.8170
G01 X18.1785 Y37.7963
G01 X18.3020 Y37.7894
G01 X18.4142 Y37.7954
G01 X18.4368 Y37.7979
G01 X18.5363 Y37.8148
G01 X18.5585 Y37.8199
G01 X18.6664 Y37.8513
G01 X18.7807 Y37.8986
G01 X18.8889 Y37.9585
G01 X18.9898 Y38.0301
G01 X19.0821 Y38.1125
G01 X19.1645 Y38.2047
G01 X19.2361 Y38.3056
G01 X19.2907 Y38.4038
G01 X19.3006 Y38.4243
G01 X19.3392 Y38.5176
G01 X19.3468 Y38.5391
G01 X19.3775 Y38.6471
G01 X19.3983 Y38.7691
G01 X19.4052 Y38.8926
G01 X19.4051 Y39.2979
G01 X19.3983 Y39.4157
G01 X19.3798 Y39.5265
G01 X19.3747 Y39.5487
G01 X19.3433 Y39.6566
G01 X19.2960 Y39.7709
G01 X19.2361 Y39.8792
G01 X19.1645 Y39.9801
G01 X19.0821 Y40.0723
G01 X18.9898 Y40.1547
G01 X18.8889 Y40.2263
G01 X18.7807 Y40.2862
G01 X18.6664 Y40.3335
G01 X18.5475 Y40.3678
G01 X18.4255 Y40.3885
G01 X18.3020 Y40.3954
G01 X18.1785 Y40.3885
G01 X18.0565 Y40.3678
G01 X17.9376 Y40.3335
G01 X17.8233 Y40.2862
G01 X17.7151 Y40.2263
G01 X17.6142 Y40.1547
G01 X17.5219 Y40.0723
G01 X17.4468 Y39.9888
G00 Z2.5400
G00 X19.9868 Y39.9888
G01 F76.20
G01 Z-0.2000
G01 F76.20
G01 X19.9726 Y39.9709
G01 X19.9142 Y39.8886
G01 X19.9021 Y39.8693
G01 X19.8480 Y39.7709
G01 X19.8007 Y39.6566
G01 X19.7693 Y39.5487
G01 X19.7642 Y39.5265
G01 X19.7457 Y39.4157
G01 X19.7388 Y39.2922
G01 X19.7391 Y38.8812
G01 X19.7457 Y38.7691
G01 X19.7665 Y38.6471
G01 X19.8007 Y38.5282
G01 X19.8480 Y38.4139
G01 X19.9079 Y38.3056
G01 X19.9795 Y38.2047
G01 X20.0619 Y38.1125
G01 X20.1455 Y38.0374
G01 X20.1633 Y38.0232
G01 X20.2456 Y37.9648
G01 X20.2649 Y37.9527
G01 X20.3633 Y37.8986
G01 X20.4776 Y37.8513
G01 X20.5965 Y37.8170
G01 X20.7185 Y37.7963
G01 X20.8420 Y37.7894
G01 X20.9542 Y37.7954
G01 X20.9768 Y37.7979
G01 X21.0763 Y37.8148
G01 X21.0985 Y37.8199
G01 X21.2064 Y37.8513
G01 X21.3207 Y37.8986
G01 X21.4289 Y37.9585
G01 X21.5298 Y38.0301
G01 X21.6221 Y38.1125
G01 X21.7045 Y38.2047
G01 X21.7761 Y38.3056
G01 X21.8307 Y38.4038
G01 X21.8406 Y38.4243
G01 X21.8792 Y38.5176
G01 X21.8868 Y38.5391
G01 X21.9175 Y38.6471
G01 X21.9383 Y38.7691
G01 X21.9452 Y38.8926
G01 X21.9451 Y39.2979
G01 X21.9383 Y39.4157
G01 X21.9198 Y39.5265
G01 X21.9147 Y39.5487
G01 X21.8833 Y39.6566
G01 X21.8360 Y39.7709
G01 X21.7761 Y39.8792
G01 X21.7045 Y39.9801
G01 X21.6221 Y40.0723
G01 X21.5298 Y40.1547
G01 X21.4289 Y40.2263
G01 X21.3207 Y40.2862
G01 X21.2064 Y40.3335
G01 X21.0875 Y40.3678
G01 X20.9655 Y40.3885
G01 X20.8420 Y40.3954
G01 X20.7185 Y40.3885
G01 X20.5965 Y40.3678
G01 X20.4776 Y40.3335
G01 X20.3633 Y40.2862
G01 X20.2551 Y40.2263
G01 X20.1542 Y40.1547
G01 X20.0619 Y40.0723
G01 X19.9868 Y39.9888
G00 Z2.5400
G00 X22.5268 Y39.9888
G01 F76.20
G01 Z-0.2000
G01 F76.20
G01 X22.5126 Y39.9709
G01 X22.4542 Y39.8886
G01 X22.4421 Y39.8693
G01 X22.3880 Y39.7709
G01 X22.3407 Y39.6566
G01 X22.3093 Y39.5487
G01 X22.3042 Y39.5265
G01 X22.2857 Y39.4157
G01 X22.2788 Y39.2922
G01 X22.2791 Y38.8812
G01 X22.2857 Y38.7691
G01 X22.3065 Y38.6471
G01 X22.3407 Y38.5282
G01 X22.3880 Y38.4139
G01 X22.4479 Y38.3056
G01 X22.5195 Y38.2047
G01 X22.6019 Y38.1125
G01 X22.6855 Y38.0374
G01 X22.7033 Y38.0232
G01 X22.7856 Y37.9648
G01 X22.8049 Y37.9527
G01 X22.9033 Y37.8986
G01 X23.0176 Y37.8513
G01 X23.1365 Y37.8170
G01 X23.2585 Y37.7963
G01 X23.3820 Y37.7894
G01 X23.4942 Y37.7954
G01 X23.5168 Y37.7979
G01 X23.6163 Y37.8148
G01 X23.6385 Y37.8199
G01 X23.7464 Y37.8513
G01 X23.8607 Y37.8986
G01 X23.9689 Y37.9585
G01 X24.0698 Y38.0301
G01 X24.1621 Y38.1125
G01 X24.2445 Y38.2047
G01 X24.3161 Y38.3056
G01 X24.3707 Y38.4038
G01 X24.3806 Y38.4243
G01 X24.4192 Y38.5176
G01 X24.4268 Y38.5391
G01 X24.4575 Y38.6471
G01 X24.4783 Y38.7691
G01 X24.4852 Y38.8926
G01 X24.4851 Y39.2979
G01 X24.4783 Y39.4157
G01 X24.4598 Y39.5265
G01 X24.4547 Y39.5487
G01 X24.4233 Y39.6566
G01 X24.3760 Y39.7709
G01 X24.3161 Y39.8792
G01 X24.2445 Y39.9801
G01 X24.1621 Y40.0723
G01 X24.0698 Y40.1547
G01 X23.9689 Y40.2263
G01 X23.8607 Y40.2862
G01 X23.7464 Y40.3335
G01 X23.6275 Y40.3678
G01 X23.5055 Y40.3885
G01 X23.3820 Y40.3954
G01 X23.2585 Y40.3885
G01 X23.1365 Y40.3678
G01 X23.0176 Y40.3335
G01 X22.9033 Y40.2862
G01 X22.7951 Y40.2263
G01 X22.6942 Y40.1547
G01 X22.6019 Y40.0723
G01 X22.5268 Y39.9888
G00 Z2.5400
G00 X26.3368 Y42.5288
G01 F76.20
G01 Z-0.2000
G01 F76.20
G01 X26.3226 Y42.5109
G01 X26.2642 Y42.4286
G01 X26.2521 Y42.4093
G01 X26.1980 Y42.3109
G01 X26.1507 Y42.1966
G01 X26.1193 Y42.0887
G01 X26.1142 Y42.0665
G01 X26.0957 Y41.9557
G01 X26.0888 Y41.8322
G01 X26.0891 Y41.4212
G01 X26.0957 Y41.3091
G01 X26.1165 Y41.1871
G01 X26.1507 Y41.0682
G01 X26.1980 Y40.9539
G01 X26.2579 Y40.8456
G01 X26.3295 Y40.7447
G01 X26.4119 Y40.6525
G01 X26.4955 Y40.5774
G01 X26.5133 Y40.5632
G01 X26.5956 Y40.5048
G01 X26.6149 Y40.4927
G01 X26.7133 Y40.4386
G01 X26.8276 Y40.3913
G01 X26.9465 Y40.3570
G01 X27.0685 Y40.3363
G01 X27.1920 Y40.3294
G01 X27.3042 Y40.3354
G01 X27.3268 Y40.3379
G01 X27.4263 Y40.3548
G01 X27.4485 Y40.3599
G01 X27.5564 Y40.3913
G01 X27.6707 Y40.4386
G01 X27.7789 Y40.4985
G01 X27.8798 Y40.5701
G01 X27.9721 Y40.6525
G01 X28.0545 Y40.7447
G01 X28.1261 Y40.8456
G01 X28.1807 Y40.9438
G01 X28.1906 Y40.9643
G01 X28.2292 Y41.0576
G01 X28.2368 Y41.0791
G01 X28.2675 Y41.1871
G01 X28.2883 Y41.3091
G01 X28.2952 Y41.4326
G01 X28.2951 Y41.8379
G01 X28.2883 Y41.9557
G01 X28.2698 Y42.0665
G01 X28.2647 Y42.0887
G01 X28.2333 Y42.1966
G01 X28.1860 Y42.3109
G01 X28.1261 Y42.4192
G01 X28.0545 Y42.5201
G01 X27.9721 Y42.6123
G01 X27.8798 Y42.6947
G01 X27.7789 Y42.7663
G01 X27.6707 Y42.8262
G01 X27.5564 Y42.8735
G01 X27.4375 Y42.9078
G01 X27.3155 Y42.9285
G01 X27.1920 Y42.9354
G01 X27.0685 Y42.9285
G01 X26.9465 Y42.9078
G01 X26.8276 Y42.8735
G01 X26.7133 Y42.8262
G01 X26.6051 Y42.7663
G01 X26.5042 Y42.6947
G01 X26.4119 Y42.6123
G01 X26.3368 Y42.5288
G00 Z2.5400
G00 X28.8768 Y42.5288
G01 F76.20
G01 Z-0.2000
G01 F76.20
G01 X28.8626 Y42.5109
G01 X28.8042 Y42.4286
G01 X28.7921 Y42.4093
G01 X28.7380 Y42.3109
G01 X28.6907 Y42.1966
G01 X28.6593 Y42.0887
G01 X28.6542 Y42.0665
G01 X28.6357 Y41.9557
G01 X28.6288 Y41.8322
G01 X28.6291 Y41.4212
G01 X28.6357 Y41.3091
G01 X28.6565 Y41.1871
G01 X28.6907 Y41.0682
G01 X28.7380 Y40.9539
G01 X28.7979 Y40.8456
G01 X28.8695 Y40.7447
G01 X28.9519 Y40.6525
G01 X29.0355 Y40.5774
G01 X29.0533 Y40.5632
G01 X29.1356 Y40.5048
G01 X29.1549 Y40.4927
G01 X29.2533 Y40.4386
G01 X29.3676 Y40.3913
G01 X29.4865 Y40.3570
G01 X29.6085 Y40.3363
G01 X29.7320 Y40.3294
G01 X29.8442 Y40.3354
G01 X29.8668 Y40.3379
G01 X29.9663 Y40.3548
G01 X29.9885 Y40.3599
G01 X30.0964 Y40.3913
G01 X30.2107 Y40.4386
G01 X30.3189 Y40.4985
G01 X30.4198 Y40.5701
G01 X30.5121 Y40.6525
G01 X30.5945 Y40.7447
G01 X30.6661 Y40.8456
G01 X30.7207 Y40.9438
G01 X30.7306 Y40.9643
G01 X30.7692 Y41.0576
G01 X30.7768 Y41.0791
G01 X30.8075 Y41.1871
G01 X30.8283 Y41.3091
G01 X30.8352 Y41.4326
G01 X30.8351 Y41.8379
G01 X30.8283 Y41.9557
G01 X30.8098 Y42.0665
G01 X30.8047 Y42.0887
G01 X30.7733 Y42.1966
G01 X30.7260 Y42.3109
G01 X30.6661 Y42.4192
G01 X30.5945 Y42.5201
G01 X30.5121 Y42.6123
G01 X30.4198 Y42.6947
G01 X30.3189 Y42.7663
G01 X30.2107 Y42.8262
G01 X30.0964 Y42.8735
G01 X29.9775 Y42.9078
G01 X29.8555 Y42.9285
G01 X29.7320 Y42.9354
G01 X29.6085 Y42.9285
G01 X29.4865 Y42.9078
G01 X29.3676 Y42.8735
G01 X29.2533 Y42.8262
G01 X29.1451 Y42.7663
G01 X29.0442 Y42.6947
G01 X28.9519 Y42.6123
G01 X28.8768 Y42.5288
G00 Z2.5400
G00 X30.1468 Y39.9888
G01 F76.20
G01 Z-0.2000
G01 F76.20
G01 X30.1326 Y39.9709
G01 X30.0742 Y39.8886
G01 X30.0621 Y39.8693
G01 X30.0080 Y39.7709
G01 X29.9607 Y39.6566
G01 X29.9293 Y39.5487
G01 X29.9242 Y39.5265
G01 X29.9057 Y39.4157
G01 X29.8988 Y39.2922
G01 X29.8991 Y38.8812
G01 X29.9057 Y38.7691
G01 X29.9265 Y38.6471
G01 X29.9607 Y38.5282
G01 X30.0080 Y38.4139
G01 X30.0679 Y38.3056
G01 X30.1395 Y38.2047
G01 X30.2219 Y38.1125
G01 X30.3055 Y38.0374
G01 X30.3233 Y38.0232
G01 X30.4056 Y37.9648
G01 X30.4249 Y37.9527
G01 X30.5233 Y37.8986
G01 X30.6376 Y37.8513
G01 X30.7565 Y37.8170
G01 X30.8785 Y37.7963
G01 X31.0020 Y37.7894
G01 X31.1142 Y37.7954
G01 X31.1368 Y37.7979
G01 X31.2363 Y37.8148
G01 X31.2585 Y37.8199
G01 X31.3664 Y37.8513
G01 X31.4807 Y37.8986
G01 X31.5889 Y37.9585
G01 X31.6898 Y38.0301
G01 X31.7821 Y38.1125
G01 X31.8645 Y38.2047
G01 X31.9361 Y38.3056
G01 X31.9907 Y38.4038
G01 X32.0006 Y38.4243
G01 X32.0392 Y38.5176
G01 X32.0468 Y38.5391
G01 X32.0775 Y38.6471
G01 X32.0983 Y38.7691
G01 X32.1052 Y38.8926
G01 X32.1051 Y39.2979
G01 X32.0983 Y39.4157
G01 X32.0798 Y39.5265
G01 X32.0747 Y39.5487
G01 X32.0433 Y39.6566
G01 X31.9960 Y39.7709
G01 X31.9361 Y39.8792
G01 X31.8645 Y39.9801
G01 X31.7821 Y40.0723
G01 X31.6898 Y40.1547
G01 X31.5889 Y40.2263
G01 X31.4807 Y40.2862
G01 X31.3664 Y40.3335
G01 X31.2475 Y40.3678
G01 X31.1255 Y40.3885
G01 X31.0020 Y40.3954
G01 X30.8785 Y40.3885
G01 X30.7565 Y40.3678
G01 X30.6376 Y40.3335
G01 X30.5233 Y40.2862
G01 X30.4151 Y40.2263
G01 X30.3142 Y40.1547
G01 X30.2219 Y40.0723
G01 X30.1468 Y39.9888
G00 Z2.5400
G00 X27.6068 Y39.9888
G01 F76.20
G01 Z-0.2000
G01 F76.20
G01 X27.5926 Y39.9709
G01 X27.5342 Y39.8886
G01 X27.5221 Y39.8693
G01 X27.4680 Y39.7709
G01 X27.4207 Y39.6566
G01 X27.3893 Y39.5487
G01 X27.3842 Y39.5265
G01 X27.3657 Y39.4157
G01 X27.3588 Y39.2922
G01 X27.3591 Y38.8812
G01 X27.3657 Y38.7691
G01 X27.3865 Y38.6471
G01 X27.4207 Y38.5282
G01 X27.4680 Y38.4139
G01 X27.5279 Y38.3056
G01 X27.5995 Y38.2047
G01 X27.6819 Y38.1125
G01 X27.7655 Y38.0374
G01 X27.7833 Y38.0232
G01 X27.8656 Y37.9648
G01 X27.8849 Y37.9527
G01 X27.9833 Y37.8986
G01 X28.0976 Y37.8513
G01 X28.2165 Y37.8170
G01 X28.3385 Y37.7963
G01 X28.4620 Y37.7894
G01 X28.5742 Y37.7954
G01 X28.5968 Y37.7979
G01 X28.6963 Y37.8148
G01 X28.7185 Y37.8199
G01 X28.8264 Y37.8513
G01 X28.9407 Y37.8986
G01 X29.0489 Y37.9585
G01 X29.1498 Y38.0301
G01 X29.2421 Y38.1125
G01 X29.3245 Y38.2047
G01 X29.3961 Y38.3056
G01 X29.4507 Y38.4038
G01 X29.4606 Y38.4243
G01 X29.4992 Y38.5176
G01 X29.5068 Y38.5391
G01 X29.5375 Y38.6471
G01 X29.5583 Y38.7691
G01 X29.5652 Y38.8926
G01 X29.5651 Y39.2979
G01 X29.5583 Y39.4157
G01 X29.5398 Y39.5265
G01 X29.5347 Y39.5487
G01 X29.5033 Y39.6566
G01 X29.4560 Y39.7709
G01 X29.3961 Y39.8792
G01 X29.3245 Y39.9801
G01 X29.2421 Y40.0723
G01 X29.1498 Y40.1547
G01 X29.0489 Y40.2263
G01 X28.9407 Y40.2862
G01 X28.8264 Y40.3335
G01 X28.7075 Y40.3678
G01 X28.5855 Y40.3885
G01 X28.4620 Y40.3954
G01 X28.3385 Y40.3885
G01 X28.2165 Y40.3678
G01 X28.0976 Y40.3335
G01 X27.9833 Y40.2862
G01 X27.8751 Y40.2263
G01 X27.7742 Y40.1547
G01 X27.6819 Y40.0723
G01 X27.6068 Y39.9888
G00 Z2.5400
G00 X32.6868 Y39.9888
G01 F76.20
G01 Z-0.2000
G01 F76.20
G01 X32.6726 Y39.9709
G01 X32.6142 Y39.8886
G01 X32.6021 Y39.8693
G01 X32.5480 Y39.7709
G01 X32.5007 Y39.6566
G01 X32.4693 Y39.5487
G01 X32.4642 Y39.5265
G01 X32.4457 Y39.4157
G01 X32.4388 Y39.2922
G01 X32.4391 Y38.8812
G01 X32.4457 Y38.7691
G01 X32.4665 Y38.6471
G01 X32.5007 Y38.5282
G01 X32.5480 Y38.4139
G01 X32.6079 Y38.3056
G01 X32.6795 Y38.2047
G01 X32.7619 Y38.1125
G01 X32.8455 Y38.0374
G01 X32.8633 Y38.0232
G01 X32.9456 Y37.9648
G01 X32.9649 Y37.9527
G01 X33.0633 Y37.8986
G01 X33.1776 Y37.8513
G01 X33.2965 Y37.8170
G01 X33.4185 Y37.7963
G01 X33.5420 Y37.7894
G01 X33.6542 Y37.7954
G01 X33.6768 Y37.7979
G01 X33.7763 Y37.8148
G01 X33.7985 Y37.8199
G01 X33.9064 Y37.8513
G01 X34.0207 Y37.8986
G01 X34.1289 Y37.9585
G01 X34.2298 Y38.0301
G01 X34.3221 Y38.1125
G01 X34.4045 Y38.2047
G01 X34.4761 Y38.3056
G01 X34.5307 Y38.4038
G01 X34.5406 Y38.4243
G01 X34.5792 Y38.5176
G01 X34.5868 Y38.5391
G01 X34.6175 Y38.6471
G01 X34.6383 Y38.7691
G01 X34.6452 Y38.8926
G01 X34.6451 Y39.2979
G01 X34.6383 Y39.4157
G01 X34.6198 Y39.5265
G01 X34.6147 Y39.5487
G01 X34.5833 Y39.6566
G01 X34.5360 Y39.7709
G01 X34.4761 Y39.8792
G01 X34.4045 Y39.9801
G01 X34.3221 Y40.0723
G01 X34.2298 Y40.1547
G01 X34.1289 Y40.2263
G01 X34.0207 Y40.2862
G01 X33.9064 Y40.3335
G01 X33.7875 Y40.3678
G01 X33.6655 Y40.3885
G01 X33.5420 Y40.3954
G01 X33.4185 Y40.3885
G01 X33.2965 Y40.3678
G01 X33.1776 Y40.3335
G01 X33.0633 Y40.2862
G01 X32.9551 Y40.2263
G01 X32.8542 Y40.1547
G01 X32.7619 Y40.0723
G01 X32.6868 Y39.9888
G00 Z2.5400
G00 X35.2268 Y39.9888
G01 F76.20
G01 Z-0.2000
G01 F76.20
G01 X35.2126 Y39.9709
G01 X35.1542 Y39.8886
G01 X35.1421 Y39.8693
G01 X35.0880 Y39.7709
G01 X35.0407 Y39.6566
G01 X35.0093 Y39.5487
G01 X35.0042 Y39.5265
G01 X34.9857 Y39.4157
G01 X34.9788 Y39.2922
G01 X34.9791 Y38.8812
G01 X34.9857 Y38.7691
G01 X35.0065 Y38.6471
G01 X35.0407 Y38.5282
G01 X35.0880 Y38.4139
G01 X35.1479 Y38.3056
G01 X35.2195 Y38.2047
G01 X35.3019 Y38.1125
G01 X35.3855 Y38.0374
G01 X35.4033 Y38.0232
G01 X35.4856 Y37.9648
G01 X35.5049 Y37.9527
G01 X35.6033 Y37.8986
G01 X35.7176 Y37.8513
G01 X35.8365 Y37.8170
G01 X35.9585 Y37.7963
G01 X36.0820 Y37.7894
G01 X36.1942 Y37.7954
G01 X36.2168 Y37.7979
G01 X36.3163 Y37.8148
G01 X36.3385 Y37.8199
G01 X36.4464 Y37.8513
G01 X36.5607 Y37.8986
G01 X36.6689 Y37.9585
G01 X36.7698 Y38.0301
G01 X36.8621 Y38.1125
G01 X36.9445 Y38.2047
G01 X37.0161 Y38.3056
G01 X37.0707 Y38.4038
G01 X37.0806 Y38.4243
G01 X37.1192 Y38.5176
G01 X37.1268 Y38.5391
G01 X37.1575 Y38.6471
G01 X37.1783 Y38.7691
G01 X37.1852 Y38.8926
G01 X37.1851 Y39.2979
G01 X37.1783 Y39.4157
G01 X37.1598 Y39.5265
G01 X37.1547 Y39.5487
G01 X37.1233 Y39.6566
G01 X37.0760 Y39.7709
G01 X37.0161 Y39.8792
G01 X36.9445 Y39.9801
G01 X36.8621 Y40.0723
G01 X36.7698 Y40.1547
G01 X36.6689 Y40.2263
G01 X36.5607 Y40.2862
G01 X36.4464 Y40.3335
G01 X36.3275 Y40.3678
G01 X36.2055 Y40.3885
G01 X36.0820 Y40.3954
G01 X35.9585 Y40.3885
G01 X35.8365 Y40.3678
G01 X35.7176 Y40.3335
G01 X35.6033 Y40.2862
G01 X35.4951 Y40.2263
G01 X35.3942 Y40.1547
G01 X35.3019 Y40.0723
G01 X35.2268 Y39.9888
G00 Z2.5400
G00 X37.7668 Y39.9888
G01 F76.20
G01 Z-0.2000
G01 F76.20
G01 X37.7526 Y39.9709
G01 X37.6942 Y39.8886
G01 X37.6821 Y39.8693
G01 X37.6280 Y39.7709
G01 X37.5807 Y39.6566
G01 X37.5493 Y39.5487
G01 X37.5442 Y39.5265
G01 X37.5257 Y39.4157
G01 X37.5188 Y39.2922
G01 X37.5191 Y38.8812
G01 X37.5257 Y38.7691
G01 X37.5465 Y38.6471
G01 X37.5807 Y38.5282
G01 X37.6280 Y38.4139
G01 X37.6879 Y38.3056
G01 X37.7595 Y38.2047
G01 X37.8419 Y38.1125
G01 X37.9255 Y38.0374
G01 X37.9433 Y38.0232
G01 X38.0256 Y37.9648
G01 X38.0449 Y37.9527
G01 X38.1433 Y37.8986
G01 X38.2576 Y37.8513
G01 X38.3765 Y37.8170
G01 X38.4985 Y37.7963
G01 X38.6220 Y37.7894
G01 X38.7342 Y37.7954
G01 X38.7568 Y37.7979
G01 X38.8563 Y37.8148
G01 X38.8785 Y37.8199
G01 X38.9864 Y37.8513
G01 X39.1007 Y37.8986
G01 X39.2089 Y37.9585
G01 X39.3098 Y38.0301
G01 X39.4021 Y38.1125
G01 X39.4845 Y38.2047
G01 X39.5561 Y38.3056
G01 X39.6107 Y38.4038
G01 X39.6206 Y38.4243
G01 X39.6592 Y38.5176
G01 X39.6668 Y38.5391
G01 X39.6975 Y38.6471
G01 X39.7183 Y38.7691
G01 X39.7252 Y38.8926
G01 X39.7251 Y39.2979
G01 X39.7183 Y39.4157
G01 X39.6998 Y39.5265
G01 X39.6947 Y39.5487
G01 X39.6633 Y39.6566
G01 X39.6160 Y39.7709
G01 X39.5561 Y39.8792
G01 X39.4845 Y39.9801
G01 X39.4021 Y40.0723
G01 X39.3098 Y40.1547
G01 X39.2089 Y40.2263
G01 X39.1007 Y40.2862
G01 X38.9864 Y40.3335
G01 X38.8675 Y40.3678
G01 X38.7455 Y40.3885
G01 X38.6220 Y40.3954
G01 X38.4985 Y40.3885
G01 X38.3765 Y40.3678
G01 X38.2576 Y40.3335
G01 X38.1433 Y40.2862
G01 X38.0351 Y40.2263
G01 X37.9342 Y40.1547
G01 X37.8419 Y40.0723
G01 X37.7668 Y39.9888
G00 Z2.5400
G00 X40.3068 Y39.9888
G01 F76.20
G01 Z-0.2000
G01 F76.20
G01 X40.2926 Y39.9709
G01 X40.2342 Y39.8886
G01 X40.2221 Y39.8693
G01 X40.1680 Y39.7709
G01 X40.1207 Y39.6566
G01 X40.0893 Y39.5487
G01 X40.0842 Y39.5265
G01 X40.0657 Y39.4157
G01 X40.0588 Y39.2922
G01 X40.0591 Y38.8812
G01 X40.0657 Y38.7691
G01 X40.0865 Y38.6471
G01 X40.1207 Y38.5282
G01 X40.1680 Y38.4139
G01 X40.2279 Y38.3056
G01 X40.2995 Y38.2047
G01 X40.3819 Y38.1125
G01 X40.4655 Y38.0374
G01 X40.4833 Y38.0232
G01 X40.5656 Y37.9648
G01 X40.5849 Y37.9527
G01 X40.6833 Y37.8986
G01 X40.7976 Y37.8513
G01 X40.9165 Y37.8170
G01 X41.0385 Y37.7963
G01 X41.1620 Y37.7894
G01 X41.2742 Y37.7954
G01 X41.2968 Y37.7979
G01 X41.3963 Y37.8148
G01 X41.4185 Y37.8199
G01 X41.5264 Y37.8513
G01 X41.6407 Y37.8986
G01 X41.7489 Y37.9585
G01 X41.8498 Y38.0301
G01 X41.9421 Y38.1125
G01 X42.0245 Y38.2047
G01 X42.0961 Y38.3056
G01 X42.1507 Y38.4038
G01 X42.1606 Y38.4243
G01 X42.1992 Y38.5176
G01 X42.2068 Y38.5391
G01 X42.2375 Y38.6471
G01 X42.2583 Y38.7691
G01 X42.2652 Y38.8926
G01 X42.2651 Y39.2979
G01 X42.2583 Y39.4157
G01 X42.2398 Y39.5265
G01 X42.2347 Y39.5487
G01 X42.2033 Y39.6566
G01 X42.1560 Y39.7709
G01 X42.0961 Y39.8792
G01 X42.0245 Y39.9801
G01 X41.9421 Y40.0723
G01 X41.8498 Y40.1547
G01 X41.7489 Y40.2263
G01 X41.6407 Y40.2862
G01 X41.5264 Y40.3335
G01 X41.4075 Y40.3678
G01 X41.2855 Y40.3885
G01 X41.1620 Y40.3954
G01 X41.0385 Y40.3885
G01 X40.9165 Y40.3678
G01 X40.7976 Y40.3335
G01 X40.6833 Y40.2862
G01 X40.5751 Y40.2263
G01 X40.4742 Y40.1547
G01 X40.3819 Y40.0723
G01 X40.3068 Y39.9888
G00 Z2.5400
G00 X42.8468 Y39.9888
G01 F76.20
G01 Z-0.2000
G01 F76.20
G01 X42.8326 Y39.9709
G01 X42.7742 Y39.8886
G01 X42.7621 Y39.8693
G01 X42.7080 Y39.7709
G01 X42.6607 Y39.6566
G01 X42.6293 Y39.5487
G01 X42.6242 Y39.5265
G01 X42.6057 Y39.4157
G01 X42.5988 Y39.2922
G01 X42.5991 Y38.8812
G01 X42.6057 Y38.7691
G01 X42.6265 Y38.6471
G01 X42.6607 Y38.5282
G01 X42.7080 Y38.4139
G01 X42.7679 Y38.3056
G01 X42.8395 Y38.2047
G01 X42.9219 Y38.1125
G01 X43.0055 Y38.0374
G01 X43.0233 Y38.0232
G01 X43.1056 Y37.9648
G01 X43.1249 Y37.9527
G01 X43.2233 Y37.8986
G01 X43.3376 Y37.8513
G01 X43.4565 Y37.8170
G01 X43.5785 Y37.7963
G01 X43.7020 Y37.7894
G01 X43.8142 Y37.7954
G01 X43.8368 Y37.7979
G01 X43.9363 Y37.8148
G01 X43.9585 Y37.8199
G01 X44.0664 Y37.8513
G01 X44.1807 Y37.8986
G01 X44.2889 Y37.9585
G01 X44.3898 Y38.0301
G01 X44.4821 Y38.1125
G01 X44.5645 Y38.2047
G01 X44.6361 Y38.3056
G01 X44.6907 Y38.4038
G01 X44.7006 Y38.4243
G01 X44.7392 Y38.5176
G01 X44.7468 Y38.5391
G01 X44.7775 Y38.6471
G01 X44.7983 Y38.7691
G01 X44.8052 Y38.8926
G01 X44.8051 Y39.2979
G01 X44.7983 Y39.4157
G01 X44.7798 Y39.5265
G01 X44.7747 Y39.5487
G01 X44.7433 Y39.6566
G01 X44.6960 Y39.7709
G01 X44.6361 Y39.8792
G01 X44.5645 Y39.9801
G01 X44.4821 Y40.0723
G01 X44.3898 Y40.1547
G01 X44.2889 Y40.2263
G01 X44.1807 Y40.2862
G01 X44.0664 Y40.3335
G01 X43.9475 Y40.3678
G01 X43.8255 Y40.3885
G01 X43.7020 Y40.3954
G01 X43.5785 Y40.3885
G01 X43.4565 Y40.3678
G01 X43.3376 Y40.3335
G01 X43.2233 Y40.2862
G01 X43.1151 Y40.2263
G01 X43.0142 Y40.1547
G01 X42.9219 Y40.0723
G01 X42.8468 Y39.9888
G00 Z2.5400
G00 X45.3868 Y39.9888
G01 F76.20
G01 Z-0.2000
G01 F76.20
G01 X45.3726 Y39.9709
G01 X45.3142 Y39.8886
G01 X45.3021 Y39.8693
G01 X45.2480 Y39.7709
G01 X45.2007 Y39.6566
G01 X45.1693 Y39.5487
G01 X45.1642 Y39.5265
G01 X45.1457 Y39.4157
G01 X45.1388 Y39.2922
G01 X45.1391 Y38.8812
G01 X45.1457 Y38.7691
G01 X45.1665 Y38.6471
G01 X45.2007 Y38.5282
G01 X45.2480 Y38.4139
G01 X45.3079 Y38.3056
G01 X45.3795 Y38.2047
G01 X45.4619 Y38.1125
G01 X45.5455 Y38.0374
G01 X45.5633 Y38.0232
G01 X45.6456 Y37.9648
G01 X45.6649 Y37.9527
G01 X45.7633 Y37.8986
G01 X45.8776 Y37.8513
G01 X45.9965 Y37.8170
G01 X46.1185 Y37.7963
G01 X46.2420 Y37.7894
G01 X46.3542 Y37.7954
G01 X46.3768 Y37.7979
G01 X46.4763 Y37.8148
G01 X46.4985 Y37.8199
G01 X46.6064 Y37.8513
G01 X46.7207 Y37.8986
G01 X46.8289 Y37.9585
G01 X46.9298 Y38.0301
G01 X47.0221 Y38.1125
G01 X47.1045 Y38.2047
G01 X47.1761 Y38.3056
G01 X47.2307 Y38.4038
G01 X47.2406 Y38.4243
G01 X47.2792 Y38.5176
G01 X47.2868 Y38.5391
G01 X47.3175 Y38.6471
G01 X47.3383 Y38.7691
G01 X47.3452 Y38.8926
G01 X47.3451 Y39.2979
G01 X47.3383 Y39.4157
G01 X47.3198 Y39.5265
G01 X47.3147 Y39.5487
G01 X47.2833 Y39.6566
G01 X47.2360 Y39.7709
G01 X47.1761 Y39.8792
G01 X47.1045 Y39.9801
G01 X47.0221 Y40.0723
G01 X46.9298 Y40.1547
G01 X46.8289 Y40.2263
G01 X46.7207 Y40.2862
G01 X46.6064 Y40.3335
G01 X46.4875 Y40.3678
G01 X46.3655 Y40.3885
G01 X46.2420 Y40.3954
G01 X46.1185 Y40.3885
G01 X45.9965 Y40.3678
G01 X45.8776 Y40.3335
G01 X45.7633 Y40.2862
G01 X45.6551 Y40.2263
G01 X45.5542 Y40.1547
G01 X45.4619 Y40.0723
G01 X45.3868 Y39.9888
G00 Z2.5400
G00 X45.1130 Y25.0622
G01 F76.20
G01 Z-0.2000
G01 F76.20
G01 X45.0988 Y25.0444
G01 X45.0469 Y24.9712
G01 X45.0348 Y24.9519
G01 X44.9861 Y24.8633
G01 X44.9472 Y24.7700
G01 X44.9396 Y24.7485
G01 X44.9120 Y24.6512
G01 X44.8931 Y24.5403
G01 X44.8868 Y24.4280
G01 X44.8931 Y24.3157
G01 X44.9120 Y24.2048
G01 X44.9396 Y24.1075
G01 X44.9472 Y24.0860
G01 X44.9815 Y24.0031
G01 X44.9914 Y23.9826
G01 X45.0406 Y23.8943
G01 X45.1057 Y23.8025
G01 X45.1806 Y23.7186
G01 X45.2645 Y23.6437
G01 X45.3563 Y23.5786
G01 X45.4446 Y23.5294
G01 X45.4651 Y23.5195
G01 X45.5480 Y23.4852
G01 X45.5695 Y23.4776
G01 X45.6668 Y23.4500
G01 X45.7777 Y23.4311
G01 X45.8900 Y23.4248
G01 X46.0023 Y23.4311
G01 X46.1132 Y23.4500
G01 X46.2213 Y23.4811
G01 X46.3253 Y23.5241
G01 X46.4139 Y23.5728
G01 X46.4332 Y23.5849
G01 X46.5064 Y23.6368
G01 X46.5242 Y23.6510
G01 X46.5994 Y23.7186
G01 X46.6743 Y23.8025
G01 X46.7394 Y23.8943
G01 X46.7886 Y23.9826
G01 X46.7985 Y24.0031
G01 X46.8328 Y24.0860
G01 X46.8404 Y24.1075
G01 X46.8680 Y24.2048
G01 X46.8869 Y24.3157
G01 X46.8932 Y24.4280
G01 X46.8869 Y24.5403
G01 X46.8680 Y24.6512
G01 X46.8404 Y24.7485
G01 X46.8328 Y24.7700
G01 X46.7985 Y24.8529
G01 X46.7886 Y24.8734
G01 X46.7394 Y24.9617
G01 X46.6743 Y25.0535
G01 X46.5994 Y25.1374
G01 X46.5155 Y25.2123
G01 X46.4237 Y25.2774
G01 X46.3253 Y25.3319
G01 X46.2213 Y25.3749
G01 X46.1243 Y25.4032
G01 X46.1021 Y25.4083
G01 X46.0136 Y25.4233
G01 X45.9910 Y25.4259
G01 X45.8900 Y25.4312
G01 X45.7777 Y25.4249
G01 X45.6668 Y25.4060
G01 X45.5695 Y25.3784
G01 X45.5480 Y25.3708
G01 X45.4651 Y25.3365
G01 X45.4446 Y25.3266
G01 X45.3563 Y25.2774
G01 X45.2645 Y25.2123
G01 X45.1806 Y25.1374
G01 X45.1130 Y25.0622
G00 Z2.5400
G00 X46.8929 Y20.4166
G01 F76.20
G01 Z-0.2000
G01 F76.20
G01 X46.8929 Y20.4394
G01 X46.8879 Y20.5290
G01 X46.8853 Y20.5516
G01 X46.8680 Y20.6512
G01 X46.8404 Y20.7485
G01 X46.8328 Y20.7700
G01 X46.7939 Y20.8633
G01 X46.7394 Y20.9617
G01 X46.6743 Y21.0535
G01 X46.5994 Y21.1374
G01 X46.5155 Y21.2123
G01 X46.4332 Y21.2711
G01 X46.4139 Y21.2832
G01 X46.3354 Y21.3266
G01 X46.3149 Y21.3365
G01 X46.2213 Y21.3749
G01 X46.1132 Y21.4060
G01 X46.0023 Y21.4249
G01 X45.8900 Y21.4312
G01 X45.7777 Y21.4249
G01 X45.6779 Y21.4083
G01 X45.6557 Y21.4032
G01 X45.5695 Y21.3784
G01 X45.5480 Y21.3708
G01 X45.4547 Y21.3319
G01 X45.3563 Y21.2774
G01 X45.2645 Y21.2123
G01 X45.1806 Y21.1374
G01 X45.1057 Y21.0535
G01 X45.0469 Y20.9712
G01 X45.0348 Y20.9519
G01 X44.9914 Y20.8734
G01 X44.9815 Y20.8529
G01 X44.9431 Y20.7593
G01 X44.9120 Y20.6512
G01 X44.8931 Y20.5403
G01 X44.8868 Y20.4280
G01 X44.8931 Y20.3157
G01 X44.9097 Y20.2159
G01 X44.9148 Y20.1937
G01 X44.9396 Y20.1075
G01 X44.9472 Y20.0860
G01 X44.9861 Y19.9927
G01 X45.0406 Y19.8943
G01 X45.1057 Y19.8025
G01 X45.1806 Y19.7186
G01 X45.2645 Y19.6437
G01 X45.3468 Y19.5849
G01 X45.3661 Y19.5728
G01 X45.4446 Y19.5294
G01 X45.4651 Y19.5195
G01 X45.5587 Y19.4811
G01 X45.6668 Y19.4500
G01 X45.7777 Y19.4311
G01 X45.8900 Y19.4248
G01 X46.0023 Y19.4311
G01 X46.1021 Y19.4477
G01 X46.1243 Y19.4528
G01 X46.2105 Y19.4776
G01 X46.2320 Y19.4852
G01 X46.3253 Y19.5241
G01 X46.4237 Y19.5786
G01 X46.5155 Y19.6437
G01 X46.5994 Y19.7186
G01 X46.6743 Y19.8025
G01 X46.7331 Y19.8848
G01 X46.7452 Y19.9041
G01 X46.7886 Y19.9826
G01 X46.7985 Y20.0031
G01 X46.8369 Y20.0967
G01 X46.8680 Y20.2048
G01 X46.8869 Y20.3157
G01 X46.8929 Y20.4166
G00 Z2.5400
G00 X45.8273 Y7.4280
G01 F76.20
G01 Z-0.2000
G01 F76.20
G01 X45.7890 Y7.4259
G01 X45.7664 Y7.4233
G01 X45.6779 Y7.4083
G01 X45.6557 Y7.4032
G01 X45.5587 Y7.3749
G01 X45.4651 Y7.3365
G01 X45.4446 Y7.3266
G01 X45.3563 Y7.2774
G01 X45.2645 Y7.2123
G01 X45.1806 Y7.1374
G01 X45.1057 Y7.0535
G01 X45.0406 Y6.9617
G01 X44.9914 Y6.8734
G01 X44.9815 Y6.8529
G01 X44.9472 Y6.7700
G01 X44.9396 Y6.7485
G01 X44.9120 Y6.6512
G01 X44.8931 Y6.5403
G01 X44.8868 Y6.4280
G01 X44.8931 Y6.3157
G01 X44.9120 Y6.2048
G01 X44.9396 Y6.1075
G01 X44.9472 Y6.0860
G01 X44.9815 Y6.0031
G01 X44.9914 Y5.9826
G01 X45.0406 Y5.8943
G01 X45.1057 Y5.8025
G01 X45.1806 Y5.7186
G01 X45.2645 Y5.6437
G01 X45.3563 Y5.5786
G01 X45.4446 Y5.5294
G01 X45.4651 Y5.5195
G01 X45.5480 Y5.4852
G01 X45.5695 Y5.4776
G01 X45.6668 Y5.4500
G01 X45.7777 Y5.4311
G01 X45.8900 Y5.4248
G01 X46.0023 Y5.4311
G01 X46.1132 Y5.4500
G01 X46.2105 Y5.4776
G01 X46.2320 Y5.4852
G01 X46.3149 Y5.5195
G01 X46.3354 Y5.5294
G01 X46.4237 Y5.5786
G01 X46.5155 Y5.6437
G01 X46.5994 Y5.7186
G01 X46.6670 Y5.7938
G01 X46.6812 Y5.8116
G01 X46.7331 Y5.8848
G01 X46.7452 Y5.9041
G01 X46.7939 Y5.9927
G01 X46.8369 Y6.0967
G01 X46.8652 Y6.1937
G01 X46.8703 Y6.2159
G01 X46.8869 Y6.3157
G01 X46.8932 Y6.4280
G01 X46.8869 Y6.5403
G01 X46.8703 Y6.6401
G01 X46.8652 Y6.6623
G01 X46.8404 Y6.7485
G01 X46.8328 Y6.7700
G01 X46.7939 Y6.8633
G01 X46.7394 Y6.9617
G01 X46.6743 Y7.0535
G01 X46.6072 Y7.1291
G01 X46.5911 Y7.1452
G01 X46.5242 Y7.2050
G01 X46.5064 Y7.2192
G01 X46.4237 Y7.2774
G01 X46.3253 Y7.3319
G01 X46.2213 Y7.3749
G01 X46.1243 Y7.4032
G01 X46.1021 Y7.4083
G01 X46.0136 Y7.4233
G01 X45.9910 Y7.4259
G01 X45.9527 Y7.4280
G01 X45.9910 Y7.4301
G01 X46.0136 Y7.4327
G01 X46.1021 Y7.4477
G01 X46.1243 Y7.4528
G01 X46.2213 Y7.4811
G01 X46.3253 Y7.5241
G01 X46.4237 Y7.5786
G01 X46.5064 Y7.6368
G01 X46.5242 Y7.6510
G01 X46.5911 Y7.7108
G01 X46.6072 Y7.7269
G01 X46.6743 Y7.8025
G01 X46.7394 Y7.8943
G01 X46.7939 Y7.9927
G01 X46.8328 Y8.0860
G01 X46.8404 Y8.1075
G01 X46.8652 Y8.1937
G01 X46.8703 Y8.2159
G01 X46.8869 Y8.3157
G01 X46.8932 Y8.4280
G01 X46.8869 Y8.5403
G01 X46.8703 Y8.6401
G01 X46.8652 Y8.6623
G01 X46.8404 Y8.7485
G01 X46.8328 Y8.7700
G01 X46.7939 Y8.8633
G01 X46.7394 Y8.9617
G01 X46.6743 Y9.0535
G01 X46.6072 Y9.1291
G01 X46.5911 Y9.1452
G01 X46.5242 Y9.2050
G01 X46.5064 Y9.2192
G01 X46.4237 Y9.2774
G01 X46.3253 Y9.3319
G01 X46.2213 Y9.3749
G01 X46.1243 Y9.4032
G01 X46.1021 Y9.4083
G01 X46.0136 Y9.4233
G01 X45.9910 Y9.4259
G01 X45.9527 Y9.4280
G01 X45.9910 Y9.4301
G01 X46.0136 Y9.4327
G01 X46.1021 Y9.4477
G01 X46.1243 Y9.4528
G01 X46.2213 Y9.4811
G01 X46.3253 Y9.5241
G01 X46.4237 Y9.5786
G01 X46.5064 Y9.6368
G01 X46.5242 Y9.6510
G01 X46.5911 Y9.7108
G01 X46.6072 Y9.7269
G01 X46.6743 Y9.8025
G01 X46.7394 Y9.8943
G01 X46.7939 Y9.9927
G01 X46.8328 Y10.0860
G01 X46.8404 Y10.1075
G01 X46.8652 Y10.1937
G01 X46.8703 Y10.2159
G01 X46.8869 Y10.3157
G01 X46.8932 Y10.4280
G01 X46.8869 Y10.5403
G01 X46.8703 Y10.6401
G01 X46.8652 Y10.6623
G01 X46.8404 Y10.7485
G01 X46.8328 Y10.7700
G01 X46.7939 Y10.8633
G01 X46.7394 Y10.9617
G01 X46.6743 Y11.0535
G01 X46.5994 Y11.1374
G01 X46.5155 Y11.2123
G01 X46.4332 Y11.2711
G01 X46.4139 Y11.2832
G01 X46.3354 Y11.3266
G01 X46.3149 Y11.3365
G01 X46.2213 Y11.3749
G01 X46.1132 Y11.4060
G01 X46.0023 Y11.4249
G01 X45.8900 Y11.4312
G01 X45.7777 Y11.4249
G01 X45.6779 Y11.4083
G01 X45.6557 Y11.4032
G01 X45.5695 Y11.3784
G01 X45.5480 Y11.3708
G01 X45.4547 Y11.3319
G01 X45.3563 Y11.2774
G01 X45.2645 Y11.2123
G01 X45.1806 Y11.1374
G01 X45.1057 Y11.0535
G01 X45.0469 Y10.9712
G01 X45.0348 Y10.9519
G01 X44.9914 Y10.8734
G01 X44.9815 Y10.8529
G01 X44.9431 Y10.7593
G01 X44.9120 Y10.6512
G01 X44.8931 Y10.5403
G01 X44.8868 Y10.4280
G01 X44.8931 Y10.3157
G01 X44.9097 Y10.2159
G01 X44.9148 Y10.1937
G01 X44.9396 Y10.1075
G01 X44.9472 Y10.0860
G01 X44.9861 Y9.9927
G01 X45.0406 Y9.8943
G01 X45.1057 Y9.8025
G01 X45.1728 Y9.7269
G01 X45.1889 Y9.7108
G01 X45.2558 Y9.6510
G01 X45.2736 Y9.6368
G01 X45.3563 Y9.5786
G01 X45.4547 Y9.5241
G01 X45.5587 Y9.4811
G01 X45.6557 Y9.4528
G01 X45.6779 Y9.4477
G01 X45.7664 Y9.4327
G01 X45.7890 Y9.4301
G01 X45.8273 Y9.4280
G01 X45.7777 Y9.4249
G01 X45.6779 Y9.4083
G01 X45.6557 Y9.4032
G01 X45.5695 Y9.3784
G01 X45.5480 Y9.3708
G01 X45.4547 Y9.3319
G01 X45.3661 Y9.2832
G01 X45.3468 Y9.2711
G01 X45.2645 Y9.2123
G01 X45.1806 Y9.1374
G01 X45.1057 Y9.0535
G01 X45.0469 Y8.9712
G01 X45.0348 Y8.9519
G01 X44.9861 Y8.8633
G01 X44.9431 Y8.7593
G01 X44.9120 Y8.6512
G01 X44.8931 Y8.5403
G01 X44.8868 Y8.4280
G01 X44.8931 Y8.3157
G01 X44.9120 Y8.2048
G01 X44.9396 Y8.1075
G01 X44.9472 Y8.0860
G01 X44.9861 Y7.9927
G01 X45.0348 Y7.9041
G01 X45.0469 Y7.8848
G01 X45.1057 Y7.8025
G01 X45.1728 Y7.7269
G01 X45.1889 Y7.7108
G01 X45.2645 Y7.6437
G01 X45.3468 Y7.5849
G01 X45.3661 Y7.5728
G01 X45.4547 Y7.5241
G01 X45.5480 Y7.4852
G01 X45.5695 Y7.4776
G01 X45.6668 Y7.4500
G01 X45.7777 Y7.4311
G01 X45.8273 Y7.4280
G00 Z2.5400
G00 X12.3421 Y35.6774
G01 F76.20
G01 Z-0.2000
G01 F76.20
G01 X12.3421 Y35.7002
G01 X12.3348 Y35.8235
G01 X12.3145 Y35.9454
G01 X12.3094 Y35.9676
G01 X12.2783 Y36.0753
G01 X12.2708 Y36.0968
G01 X12.2232 Y36.2108
G01 X12.1580 Y36.3289
G01 X12.0799 Y36.4390
G01 X11.9900 Y36.5396
G01 X11.8894 Y36.6295
G01 X11.7888 Y36.7012
G01 X11.7695 Y36.7134
G01 X11.6714 Y36.7676
G01 X11.6508 Y36.7775
G01 X11.5366 Y36.8245
G01 X11.4069 Y36.8618
G01 X11.2739 Y36.8844
G01 X11.1392 Y36.8920
G01 X11.0045 Y36.8844
G01 X10.8826 Y36.8641
G01 X10.8604 Y36.8590
G01 X10.7527 Y36.8279
G01 X10.7312 Y36.8204
G01 X10.6172 Y36.7728
G01 X10.4991 Y36.7076
G01 X10.3890 Y36.6295
G01 X10.2884 Y36.5396
G01 X10.1985 Y36.4390
G01 X10.1268 Y36.3384
G01 X10.1146 Y36.3191
G01 X10.0604 Y36.2210
G01 X10.0505 Y36.2004
G01 X10.0035 Y36.0862
G01 X9.9662 Y35.9565
G01 X9.9436 Y35.8235
G01 X9.9360 Y35.6888
G01 X9.9436 Y35.5541
G01 X9.9639 Y35.4322
G01 X9.9690 Y35.4100
G01 X10.0001 Y35.3023
G01 X10.0076 Y35.2808
G01 X10.0552 Y35.1668
G01 X10.1204 Y35.0487
G01 X10.1985 Y34.9386
G01 X10.2884 Y34.8380
G01 X10.3890 Y34.7481
G01 X10.4896 Y34.6764
G01 X10.5089 Y34.6642
G01 X10.6070 Y34.6100
G01 X10.6276 Y34.6001
G01 X10.7418 Y34.5531
G01 X10.8715 Y34.5158
G01 X11.0045 Y34.4932
G01 X11.1392 Y34.4856
G01 X11.2739 Y34.4932
G01 X11.3958 Y34.5135
G01 X11.4180 Y34.5186
G01 X11.5257 Y34.5497
G01 X11.5472 Y34.5572
G01 X11.6612 Y34.6048
G01 X11.7793 Y34.6700
G01 X11.8894 Y34.7481
G01 X11.9900 Y34.8380
G01 X12.0799 Y34.9386
G01 X12.1516 Y35.0392
G01 X12.1638 Y35.0585
G01 X12.2180 Y35.1566
G01 X12.2279 Y35.1772
G01 X12.2749 Y35.2914
G01 X12.3122 Y35.4211
G01 X12.3348 Y35.5541
G01 X12.3421 Y35.6774
G00 Z2.5400
G00 X9.8021 Y35.6774
G01 F76.20
G01 Z-0.2000
G01 F76.20
G01 X9.8021 Y35.7002
G01 X9.7948 Y35.8235
G01 X9.7745 Y35.9454
G01 X9.7694 Y35.9676
G01 X9.7383 Y36.0753
G01 X9.7308 Y36.0968
G01 X9.6832 Y36.2108
G01 X9.6180 Y36.3289
G01 X9.5399 Y36.4390
G01 X9.4500 Y36.5396
G01 X9.3494 Y36.6295
G01 X9.2488 Y36.7012
G01 X9.2295 Y36.7134
G01 X9.1314 Y36.7676
G01 X9.1108 Y36.7775
G01 X8.9966 Y36.8245
G01 X8.8669 Y36.8618
G01 X8.7339 Y36.8844
G01 X8.5992 Y36.8920
G01 X8.4645 Y36.8844
G01 X8.3426 Y36.8641
G01 X8.3204 Y36.8590
G01 X8.2127 Y36.8279
G01 X8.1912 Y36.8204
G01 X8.0772 Y36.7728
G01 X7.9591 Y36.7076
G01 X7.8490 Y36.6295
G01 X7.7484 Y36.5396
G01 X7.6585 Y36.4390
G01 X7.5868 Y36.3384
G01 X7.5746 Y36.3191
G01 X7.5204 Y36.2210
G01 X7.5105 Y36.2004
G01 X7.4635 Y36.0862
G01 X7.4262 Y35.9565
G01 X7.4036 Y35.8235
G01 X7.3960 Y35.6888
G01 X7.4036 Y35.5541
G01 X7.4239 Y35.4322
G01 X7.4290 Y35.4100
G01 X7.4601 Y35.3023
G01 X7.4676 Y35.2808
G01 X7.5152 Y35.1668
G01 X7.5804 Y35.0487
G01 X7.6585 Y34.9386
G01 X7.7484 Y34.8380
G01 X7.8490 Y34.7481
G01 X7.9496 Y34.6764
G01 X7.9689 Y34.6642
G01 X8.0670 Y34.6100
G01 X8.0876 Y34.6001
G01 X8.2018 Y34.5531
G01 X8.3315 Y34.5158
G01 X8.4645 Y34.4932
G01 X8.5992 Y34.4856
G01 X8.7339 Y34.4932
G01 X8.8558 Y34.5135
G01 X8.8780 Y34.5186
G01 X8.9857 Y34.5497
G01 X9.0072 Y34.5572
G01 X9.1212 Y34.6048
G01 X9.2393 Y34.6700
G01 X9.3494 Y34.7481
G01 X9.4500 Y34.8380
G01 X9.5399 Y34.9386
G01 X9.6116 Y35.0392
G01 X9.6238 Y35.0585
G01 X9.6780 Y35.1566
G01 X9.6879 Y35.1772
G01 X9.7349 Y35.2914
G01 X9.7722 Y35.4211
G01 X9.7948 Y35.5541
G01 X9.8021 Y35.6774
G00 Z2.5400
G00 X7.2621 Y35.6774
G01 F76.20
G01 Z-0.2000
G01 F76.20
G01 X7.2621 Y35.7002
G01 X7.2548 Y35.8235
G01 X7.2345 Y35.9454
G01 X7.2294 Y35.9676
G01 X7.1983 Y36.0753
G01 X7.1908 Y36.0968
G01 X7.1432 Y36.2108
G01 X7.0780 Y36.3289
G01 X6.9999 Y36.4390
G01 X6.9100 Y36.5396
G01 X6.8094 Y36.6295
G01 X6.7088 Y36.7012
G01 X6.6895 Y36.7134
G01 X6.5914 Y36.7676
G01 X6.5708 Y36.7775
G01 X6.4566 Y36.8245
G01 X6.3269 Y36.8618
G01 X6.1939 Y36.8844
G01 X6.0592 Y36.8920
G01 X5.9245 Y36.8844
G01 X5.8026 Y36.8641
G01 X5.7804 Y36.8590
G01 X5.6727 Y36.8279
G01 X5.6512 Y36.8204
G01 X5.5372 Y36.7728
G01 X5.4191 Y36.7076
G01 X5.3090 Y36.6295
G01 X5.2084 Y36.5396
G01 X5.1185 Y36.4390
G01 X5.0468 Y36.3384
G01 X5.0346 Y36.3191
G01 X4.9804 Y36.2210
G01 X4.9705 Y36.2004
G01 X4.9235 Y36.0862
G01 X4.8862 Y35.9565
G01 X4.8636 Y35.8235
G01 X4.8560 Y35.6888
G01 X4.8636 Y35.5541
G01 X4.8839 Y35.4322
G01 X4.8890 Y35.4100
G01 X4.9201 Y35.3023
G01 X4.9276 Y35.2808
G01 X4.9752 Y35.1668
G01 X5.0404 Y35.0487
G01 X5.1185 Y34.9386
G01 X5.2084 Y34.8380
G01 X5.3090 Y34.7481
G01 X5.4096 Y34.6764
G01 X5.4289 Y34.6642
G01 X5.5270 Y34.6100
G01 X5.5476 Y34.6001
G01 X5.6618 Y34.5531
G01 X5.7915 Y34.5158
G01 X5.9245 Y34.4932
G01 X6.0592 Y34.4856
G01 X6.1939 Y34.4932
G01 X6.3158 Y34.5135
G01 X6.3380 Y34.5186
G01 X6.4457 Y34.5497
G01 X6.4672 Y34.5572
G01 X6.5812 Y34.6048
G01 X6.6993 Y34.6700
G01 X6.8094 Y34.7481
G01 X6.9100 Y34.8380
G01 X6.9999 Y34.9386
G01 X7.0716 Y35.0392
G01 X7.0838 Y35.0585
G01 X7.1380 Y35.1566
G01 X7.1479 Y35.1772
G01 X7.1949 Y35.2914
G01 X7.2322 Y35.4211
G01 X7.2548 Y35.5541
G01 X7.2621 Y35.6774
G00 Z2.5400
G00 X1.0631 Y30.6342
G01 F76.20
G01 Z-0.2000
G01 F76.20
G01 X1.0676 Y30.5554
G01 X1.0786 Y30.4888
G01 X1.0836 Y30.4666
G01 X1.1026 Y30.4019
G01 X1.1282 Y30.3394
G01 X1.1380 Y30.3189
G01 X1.1710 Y30.2599
G01 X1.2166 Y30.1956
G01 X1.2614 Y30.1451
G01 X1.2775 Y30.1290
G01 X1.3280 Y30.0842
G01 X1.3923 Y30.0386
G01 X1.4513 Y30.0056
G01 X1.4718 Y29.9958
G01 X1.5343 Y29.9702
G01 X1.5990 Y29.9512
G01 X1.6212 Y29.9462
G01 X1.6878 Y29.9352
G01 X1.7666 Y29.9307
G01 X3.5072 Y29.9307
G01 X5.3557 Y28.0822
G01 X5.3557 Y27.3159
G01 X5.3090 Y27.2823
G01 X5.2167 Y27.2002
G01 X5.2006 Y27.1841
G01 X5.1185 Y27.0918
G01 X5.0404 Y26.9817
G01 X4.9752 Y26.8636
G01 X4.9235 Y26.7390
G01 X4.8862 Y26.6093
G01 X4.8636 Y26.4763
G01 X4.8560 Y26.3416
G01 X4.8636 Y26.2069
G01 X4.8862 Y26.0739
G01 X4.9235 Y25.9442
G01 X4.9705 Y25.8300
G01 X4.9804 Y25.8094
G01 X5.0404 Y25.7015
G01 X5.1185 Y25.5914
G01 X5.2006 Y25.4991
G01 X5.2167 Y25.4830
G01 X5.3090 Y25.4009
G01 X5.3557 Y25.3673
G01 X5.3557 Y25.1598
G01 X3.0754 Y22.8795
G01 X1.8879 Y22.8794
G01 X1.8148 Y22.8750
G01 X1.7482 Y22.8640
G01 X1.7260 Y22.8590
G01 X1.6613 Y22.8400
G01 X1.5884 Y22.8098
G01 X1.5292 Y22.7774
G01 X1.5099 Y22.7653
G01 X1.4550 Y22.7260
G01 X1.4045 Y22.6812
G01 X1.3884 Y22.6651
G01 X1.3436 Y22.6146
G01 X1.2980 Y22.5503
G01 X1.2650 Y22.4913
G01 X1.2552 Y22.4708
G01 X1.2296 Y22.4083
G01 X1.2106 Y22.3436
G01 X1.2056 Y22.3214
G01 X1.1962 Y22.2660
G01 X1.1936 Y22.2434
G01 X1.1901 Y22.1760
G01 X1.1901 Y4.4559
G01 X1.1434 Y4.4223
G01 X1.0511 Y4.3402
G01 X1.0350 Y4.3241
G01 X0.9529 Y4.2318
G01 X0.8748 Y4.1217
G01 X0.8096 Y4.0036
G01 X0.7579 Y3.8790
G01 X0.7206 Y3.7493
G01 X0.6980 Y3.6163
G01 X0.6904 Y3.4816
G01 X0.6980 Y3.3469
G01 X0.7206 Y3.2139
G01 X0.7579 Y3.0842
G01 X0.8096 Y2.9596
G01 X0.8748 Y2.8415
G01 X0.9529 Y2.7314
G01 X1.0350 Y2.6391
G01 X1.0511 Y2.6230
G01 X1.1434 Y2.5409
G01 X1.1901 Y2.5073
G01 X1.1901 Y2.0674
G01 X1.1946 Y1.9886
G01 X1.2078 Y1.9109
G01 X1.2296 Y1.8350
G01 X1.2598 Y1.7622
G01 X1.2922 Y1.7029
G01 X1.3043 Y1.6837
G01 X1.3436 Y1.6288
G01 X1.3962 Y1.5700
G01 X2.8859 Y0.0808
G01 X2.9364 Y0.0360
G01 X2.9913 Y-0.0033
G01 X3.0105 Y-0.0154
G01 X3.0698 Y-0.0478
G01 X3.1320 Y-0.0739
G01 X3.1535 Y-0.0814
G01 X3.2185 Y-0.0998
G01 X3.2962 Y-0.1130
G01 X3.3750 Y-0.1175
G01 X6.2116 Y-0.1175
G01 X6.2904 Y-0.1130
G01 X6.3681 Y-0.0998
G01 X6.4439 Y-0.0780
G01 X6.5168 Y-0.0478
G01 X6.5859 Y-0.0096
G01 X6.6502 Y0.0360
G01 X6.7007 Y0.0808
G01 X6.8466 Y0.2262
G01 X6.9883 Y0.0846
G01 X7.0430 Y0.0360
G01 X7.1073 Y-0.0096
G01 X7.1663 Y-0.0426
G01 X7.1868 Y-0.0524
G01 X7.2493 Y-0.0780
G01 X7.3251 Y-0.0998
G01 X7.4028 Y-0.1130
G01 X7.4759 Y-0.1174
G01 X13.8430 Y-0.1171
G01 X13.9104 Y-0.1130
G01 X13.9881 Y-0.0998
G01 X14.0639 Y-0.0780
G01 X14.1264 Y-0.0524
G01 X14.1469 Y-0.0426
G01 X14.2059 Y-0.0096
G01 X14.2702 Y0.0360
G01 X14.3249 Y0.0846
G01 X14.4666 Y0.2262
G01 X14.6125 Y0.0808
G01 X14.6630 Y0.0360
G01 X14.7273 Y-0.0096
G01 X14.7964 Y-0.0478
G01 X14.8693 Y-0.0780
G01 X14.9451 Y-0.0998
G01 X15.0116 Y-0.1114
G01 X15.0342 Y-0.1140
G01 X15.1016 Y-0.1175
G01 X18.9116 Y-0.1175
G01 X18.9904 Y-0.1130
G01 X19.0570 Y-0.1020
G01 X19.0792 Y-0.0970
G01 X19.1439 Y-0.0780
G01 X19.2168 Y-0.0478
G01 X19.2859 Y-0.0096
G01 X19.3411 Y0.0292
G01 X19.3589 Y0.0434
G01 X19.4090 Y0.0886
G01 X20.1710 Y0.8506
G01 X20.2236 Y0.9094
G01 X20.2629 Y0.9643
G01 X20.2750 Y0.9836
G01 X20.3074 Y1.0428
G01 X20.3335 Y1.1050
G01 X20.3410 Y1.1265
G01 X20.3566 Y1.1804
G01 X20.3616 Y1.2026
G01 X20.3726 Y1.2693
G01 X20.3770 Y1.3423
G01 X20.3771 Y2.5073
G01 X20.4238 Y2.5409
G01 X20.5161 Y2.6230
G01 X20.5322 Y2.6391
G01 X20.6143 Y2.7314
G01 X20.6924 Y2.8415
G01 X20.7576 Y2.9596
G01 X20.8093 Y3.0842
G01 X20.8466 Y3.2139
G01 X20.8692 Y3.3469
G01 X20.8768 Y3.4816
G01 X20.8692 Y3.6163
G01 X20.8466 Y3.7493
G01 X20.8093 Y3.8790
G01 X20.7576 Y4.0036
G01 X20.6924 Y4.1217
G01 X20.6143 Y4.2318
G01 X20.5322 Y4.3241
G01 X20.5161 Y4.3402
G01 X20.4238 Y4.4223
G01 X20.3771 Y4.4559
G01 X20.3771 Y4.8666
G01 X21.2350 Y5.7245
G01 X23.1750 Y5.7245
G01 X23.1889 Y5.7108
G01 X23.2645 Y5.6437
G01 X23.3563 Y5.5786
G01 X23.4547 Y5.5241
G01 X23.5587 Y5.4811
G01 X23.6668 Y5.4500
G01 X23.7777 Y5.4311
G01 X23.8900 Y5.4248
G01 X23.9910 Y5.4301
G01 X24.0136 Y5.4327
G01 X24.1132 Y5.4500
G01 X24.2213 Y5.4811
G01 X24.3253 Y5.5241
G01 X24.4139 Y5.5728
G01 X24.4332 Y5.5849
G01 X24.5155 Y5.6437
G01 X24.5911 Y5.7108
G01 X24.6072 Y5.7269
G01 X24.6670 Y5.7938
G01 X24.6812 Y5.8116
G01 X24.7394 Y5.8943
G01 X24.7939 Y5.9927
G01 X24.8369 Y6.0967
G01 X24.8680 Y6.2048
G01 X24.8869 Y6.3157
G01 X24.8929 Y6.4166
G01 X24.8929 Y6.4394
G01 X24.8869 Y6.5403
G01 X24.8703 Y6.6401
G01 X24.8652 Y6.6623
G01 X24.8369 Y6.7593
G01 X24.7985 Y6.8529
G01 X24.7886 Y6.8734
G01 X24.7452 Y6.9519
G01 X24.7331 Y6.9712
G01 X24.6743 Y7.0535
G01 X24.5994 Y7.1374
G01 X24.5155 Y7.2123
G01 X24.4237 Y7.2774
G01 X24.3253 Y7.3319
G01 X24.2213 Y7.3749
G01 X24.1243 Y7.4032
G01 X24.1021 Y7.4083
G01 X24.0023 Y7.4249
G01 X23.9527 Y7.4280
G01 X23.9910 Y7.4301
G01 X24.0136 Y7.4327
G01 X24.1021 Y7.4477
G01 X24.1243 Y7.4528
G01 X24.2213 Y7.4811
G01 X24.3149 Y7.5195
G01 X24.3354 Y7.5294
G01 X24.4237 Y7.5786
G01 X24.5155 Y7.6437
G01 X24.5994 Y7.7186
G01 X24.6670 Y7.7938
G01 X24.6812 Y7.8116
G01 X24.7394 Y7.8943
G01 X24.7939 Y7.9927
G01 X24.8369 Y8.0967
G01 X24.8680 Y8.2048
G01 X24.8869 Y8.3157
G01 X24.8932 Y8.4280
G01 X24.8869 Y8.5403
G01 X24.8680 Y8.6512
G01 X24.8369 Y8.7593
G01 X24.7985 Y8.8529
G01 X24.7886 Y8.8734
G01 X24.7394 Y8.9617
G01 X24.6812 Y9.0444
G01 X24.6670 Y9.0622
G01 X24.5994 Y9.1374
G01 X24.5242 Y9.2050
G01 X24.5064 Y9.2192
G01 X24.4332 Y9.2711
G01 X24.4139 Y9.2832
G01 X24.3253 Y9.3319
G01 X24.2320 Y9.3708
G01 X24.2105 Y9.3784
G01 X24.1132 Y9.4060
G01 X24.0023 Y9.4249
G01 X23.9527 Y9.4280
G01 X23.9910 Y9.4301
G01 X24.0136 Y9.4327
G01 X24.1021 Y9.4477
G01 X24.1243 Y9.4528
G01 X24.2213 Y9.4811
G01 X24.3253 Y9.5241
G01 X24.4237 Y9.5786
G01 X24.5064 Y9.6368
G01 X24.5242 Y9.6510
G01 X24.5911 Y9.7108
G01 X24.6050 Y9.7245
G01 X25.0271 Y9.7246
G01 X25.1001 Y9.7290
G01 X25.1779 Y9.7422
G01 X25.2537 Y9.7640
G01 X25.3162 Y9.7896
G01 X25.3367 Y9.7994
G01 X25.3956 Y9.8324
G01 X25.4509 Y9.8712
G01 X25.4687 Y9.8854
G01 X25.5147 Y9.9266
G01 X49.1390 Y33.5508
G01 X49.1916 Y33.6096
G01 X49.2309 Y33.6645
G01 X49.2430 Y33.6838
G01 X49.2754 Y33.7430
G01 X49.3015 Y33.8052
G01 X49.3090 Y33.8267
G01 X49.3274 Y33.8917
G01 X49.3390 Y33.9582
G01 X49.3416 Y33.9808
G01 X49.3450 Y34.0482
G01 X49.3450 Y43.8760
G01 X49.3406 Y43.9548
G01 X49.3296 Y44.0214
G01 X49.3246 Y44.0436
G01 X49.3090 Y44.0975
G01 X49.3015 Y44.1190
G01 X49.2754 Y44.1812
G01 X49.2430 Y44.2405
G01 X49.2309 Y44.2597
G01 X49.1916 Y44.3146
G01 X49.1430 Y44.3693
G01 X47.3440 Y46.1684
G01 X47.2852 Y46.2210
G01 X47.2303 Y46.2603
G01 X47.2110 Y46.2724
G01 X47.1518 Y46.3048
G01 X47.0896 Y46.3309
G01 X47.0681 Y46.3384
G01 X47.0031 Y46.3568
G01 X46.9254 Y46.3700
G01 X46.8466 Y46.3745
G01 X41.1309 Y46.3744
G01 X41.0578 Y46.3700
G01 X40.9801 Y46.3568
G01 X40.9043 Y46.3350
G01 X40.8314 Y46.3048
G01 X40.7623 Y46.2666
G01 X40.6980 Y46.2210
G01 X40.6392 Y46.1684
G01 X40.5940 Y46.1183
G01 X40.5798 Y46.1005
G01 X40.5410 Y46.0453
G01 X40.5080 Y45.9863
G01 X40.4982 Y45.9658
G01 X40.4767 Y45.9140
G01 X40.4692 Y45.8925
G01 X40.4508 Y45.8275
G01 X40.4392 Y45.7610
G01 X40.4366 Y45.7384
G01 X40.4331 Y45.6710
G01 X40.4376 Y45.5923
G01 X40.4508 Y45.5145
G01 X40.4692 Y45.4495
G01 X40.4767 Y45.4280
G01 X40.5028 Y45.3658
G01 X40.5410 Y45.2967
G01 X40.5866 Y45.2324
G01 X40.6392 Y45.1736
G01 X40.6980 Y45.1210
G01 X40.7623 Y45.0754
G01 X40.8314 Y45.0372
G01 X40.9043 Y45.0070
G01 X40.9690 Y44.9880
G01 X40.9912 Y44.9830
G01 X41.0578 Y44.9720
G01 X41.1366 Y44.9675
G01 X46.5552 Y44.9675
G01 X47.9381 Y43.5846
G01 X47.9381 Y34.3396
G01 X24.7300 Y11.1315
G01 X24.6050 Y11.1315
G01 X24.5911 Y11.1452
G01 X24.5155 Y11.2123
G01 X24.4237 Y11.2774
G01 X24.3253 Y11.3319
G01 X24.2213 Y11.3749
G01 X24.1243 Y11.4032
G01 X24.1021 Y11.4083
G01 X24.0023 Y11.4249
G01 X23.8900 Y11.4312
G01 X23.7777 Y11.4249
G01 X23.6779 Y11.4083
G01 X23.6557 Y11.4032
G01 X23.5695 Y11.3784
G01 X23.5480 Y11.3708
G01 X23.4547 Y11.3319
G01 X23.3563 Y11.2774
G01 X23.2645 Y11.2123
G01 X23.1806 Y11.1374
G01 X23.1057 Y11.0535
G01 X23.0469 Y10.9712
G01 X23.0348 Y10.9519
G01 X22.9861 Y10.8633
G01 X22.9472 Y10.7700
G01 X22.9396 Y10.7485
G01 X22.9120 Y10.6512
G01 X22.8947 Y10.5516
G01 X22.8921 Y10.5290
G01 X22.8868 Y10.4280
G01 X22.8921 Y10.3270
G01 X22.8947 Y10.3044
G01 X22.9120 Y10.2048
G01 X22.9431 Y10.0967
G01 X22.9861 Y9.9927
G01 X23.0348 Y9.9041
G01 X23.0469 Y9.8848
G01 X23.1057 Y9.8025
G01 X23.1728 Y9.7269
G01 X23.1889 Y9.7108
G01 X23.2645 Y9.6437
G01 X23.3468 Y9.5849
G01 X23.3661 Y9.5728
G01 X23.4547 Y9.5241
G01 X23.5480 Y9.4852
G01 X23.5695 Y9.4776
G01 X23.6668 Y9.4500
G01 X23.7777 Y9.4311
G01 X23.8273 Y9.4280
G01 X23.7890 Y9.4259
G01 X23.7664 Y9.4233
G01 X23.6779 Y9.4083
G01 X23.6557 Y9.4032
G01 X23.5587 Y9.3749
G01 X23.4547 Y9.3319
G01 X23.3563 Y9.2774
G01 X23.2736 Y9.2192
G01 X23.2558 Y9.2050
G01 X23.1889 Y9.1452
G01 X23.1750 Y9.1315
G01 X22.3531 Y9.1315
G01 X22.3531 Y18.3380
G01 X22.3486 Y18.4167
G01 X22.3376 Y18.4834
G01 X22.3326 Y18.5056
G01 X22.3136 Y18.5703
G01 X22.2834 Y18.6432
G01 X22.2452 Y18.7123
G01 X22.1996 Y18.7766
G01 X22.1510 Y18.8313
G01 X19.2690 Y21.7134
G01 X19.2102 Y21.7660
G01 X19.1553 Y21.8053
G01 X19.1360 Y21.8174
G01 X19.0768 Y21.8498
G01 X19.0039 Y21.8800
G01 X18.9392 Y21.8990
G01 X18.9170 Y21.9040
G01 X18.8504 Y21.9150
G01 X18.7773 Y21.9194
G01 X9.6416 Y21.9195
G01 X9.5628 Y21.9150
G01 X9.4851 Y21.9018
G01 X9.4093 Y21.8800
G01 X9.3364 Y21.8498
G01 X9.2673 Y21.8116
G01 X9.2030 Y21.7660
G01 X9.1442 Y21.7134
G01 X9.0990 Y21.6633
G01 X9.0848 Y21.6455
G01 X9.0460 Y21.5903
G01 X9.0130 Y21.5313
G01 X9.0032 Y21.5108
G01 X8.9817 Y21.4590
G01 X8.9742 Y21.4375
G01 X8.9558 Y21.3725
G01 X8.9426 Y21.2948
G01 X8.9381 Y21.2160
G01 X8.9416 Y21.1486
G01 X8.9442 Y21.1260
G01 X8.9536 Y21.0706
G01 X8.9586 Y21.0484
G01 X8.9776 Y20.9837
G01 X9.0032 Y20.9212
G01 X9.0130 Y20.9007
G01 X9.0460 Y20.8417
G01 X9.0916 Y20.7774
G01 X9.1442 Y20.7186
G01 X9.1943 Y20.6734
G01 X9.2121 Y20.6592
G01 X9.2579 Y20.6267
G01 X9.2772 Y20.6146
G01 X9.3364 Y20.5822
G01 X9.3986 Y20.5561
G01 X9.4201 Y20.5486
G01 X9.4851 Y20.5302
G01 X9.5628 Y20.5170
G01 X9.6416 Y20.5125
G01 X18.4802 Y20.5125
G01 X20.9461 Y18.0466
G01 X20.9461 Y8.4280
G01 X20.9506 Y8.3493
G01 X20.9616 Y8.2826
G01 X20.9666 Y8.2604
G01 X20.9856 Y8.1957
G01 X21.0112 Y8.1332
G01 X21.0210 Y8.1127
G01 X21.0540 Y8.0537
G01 X21.0928 Y7.9985
G01 X21.1070 Y7.9807
G01 X21.1444 Y7.9389
G01 X21.1605 Y7.9228
G01 X21.2110 Y7.8780
G01 X21.2753 Y7.8324
G01 X21.3444 Y7.7942
G01 X21.4066 Y7.7681
G01 X21.4281 Y7.7606
G01 X21.4931 Y7.7422
G01 X21.5596 Y7.7306
G01 X21.5822 Y7.7280
G01 X21.6439 Y7.7246
G01 X23.1750 Y7.7245
G01 X23.1889 Y7.7108
G01 X23.2558 Y7.6510
G01 X23.2736 Y7.6368
G01 X23.3563 Y7.5786
G01 X23.4547 Y7.5241
G01 X23.5587 Y7.4811
G01 X23.6557 Y7.4528
G01 X23.6779 Y7.4477
G01 X23.7664 Y7.4327
G01 X23.7890 Y7.4301
G01 X23.8273 Y7.4280
G01 X23.7890 Y7.4259
G01 X23.7664 Y7.4233
G01 X23.6779 Y7.4083
G01 X23.6557 Y7.4032
G01 X23.5587 Y7.3749
G01 X23.4547 Y7.3319
G01 X23.3563 Y7.2774
G01 X23.2736 Y7.2192
G01 X23.2558 Y7.2050
G01 X23.1889 Y7.1452
G01 X23.1750 Y7.1315
G01 X20.9379 Y7.1314
G01 X20.8648 Y7.1270
G01 X20.7982 Y7.1160
G01 X20.7760 Y7.1110
G01 X20.7221 Y7.0954
G01 X20.7006 Y7.0879
G01 X20.6384 Y7.0618
G01 X20.5693 Y7.0236
G01 X20.5050 Y6.9780
G01 X20.4503 Y6.9294
G01 X19.1762 Y5.6554
G01 X19.1310 Y5.6053
G01 X19.1168 Y5.5875
G01 X19.0780 Y5.5323
G01 X19.0450 Y5.4733
G01 X19.0352 Y5.4528
G01 X19.0096 Y5.3903
G01 X18.9906 Y5.3256
G01 X18.9856 Y5.3034
G01 X18.9746 Y5.2367
G01 X18.9701 Y5.1580
G01 X18.9701 Y4.4559
G01 X18.9325 Y4.4292
G01 X18.9147 Y4.4149
G01 X18.8311 Y4.3402
G01 X18.8150 Y4.3241
G01 X18.7329 Y4.2318
G01 X18.6612 Y4.1312
G01 X18.6490 Y4.1119
G01 X18.5896 Y4.0036
G01 X18.5379 Y3.8790
G01 X18.5006 Y3.7493
G01 X18.4780 Y3.6163
G01 X18.4704 Y3.4816
G01 X18.4770 Y3.3582
G01 X18.4796 Y3.3356
G01 X18.5006 Y3.2139
G01 X18.5345 Y3.0951
G01 X18.5420 Y3.0736
G01 X18.5849 Y2.9700
G01 X18.5948 Y2.9494
G01 X18.6548 Y2.8415
G01 X18.7329 Y2.7314
G01 X18.8150 Y2.6391
G01 X18.8311 Y2.6230
G01 X18.9234 Y2.5409
G01 X18.9701 Y2.5073
G01 X18.9701 Y1.6394
G01 X18.6202 Y1.2895
G01 X15.3930 Y1.2895
G01 X15.2971 Y1.3854
G01 X15.2971 Y2.5073
G01 X15.3438 Y2.5409
G01 X15.4444 Y2.6308
G01 X15.5269 Y2.7227
G01 X15.5412 Y2.7405
G01 X15.6124 Y2.8415
G01 X15.6724 Y2.9494
G01 X15.6823 Y2.9700
G01 X15.7293 Y3.0842
G01 X15.7666 Y3.2139
G01 X15.7876 Y3.3356
G01 X15.7902 Y3.3582
G01 X15.7968 Y3.4816
G01 X15.7902 Y3.6050
G01 X15.7876 Y3.6276
G01 X15.7666 Y3.7493
G01 X15.7327 Y3.8681
G01 X15.7252 Y3.8896
G01 X15.6776 Y4.0036
G01 X15.6124 Y4.1217
G01 X15.5412 Y4.2227
G01 X15.5269 Y4.2405
G01 X15.4444 Y4.3324
G01 X15.3525 Y4.4149
G01 X15.3347 Y4.4292
G01 X15.2432 Y4.4940
G01 X15.2239 Y4.5062
G01 X15.1156 Y4.5656
G01 X15.0016 Y4.6132
G01 X14.9801 Y4.6207
G01 X14.8613 Y4.6546
G01 X14.7396 Y4.6756
G01 X14.7170 Y4.6782
G01 X14.5936 Y4.6848
G01 X14.4702 Y4.6782
G01 X14.4476 Y4.6756
G01 X14.3259 Y4.6546
G01 X14.2071 Y4.6207
G01 X14.1856 Y4.6132
G01 X14.0716 Y4.5656
G01 X13.9535 Y4.5004
G01 X13.8525 Y4.4292
G01 X13.8347 Y4.4149
G01 X13.7428 Y4.3324
G01 X13.6529 Y4.2318
G01 X13.5812 Y4.1312
G01 X13.5690 Y4.1119
G01 X13.5096 Y4.0036
G01 X13.4579 Y3.8790
G01 X13.4234 Y3.7604
G01 X13.4183 Y3.7382
G01 X13.3980 Y3.6163
G01 X13.3904 Y3.4816
G01 X13.3970 Y3.3582
G01 X13.3996 Y3.3356
G01 X13.4206 Y3.2139
G01 X13.4545 Y3.0951
G01 X13.4620 Y3.0736
G01 X13.5049 Y2.9700
G01 X13.5148 Y2.9494
G01 X13.5748 Y2.8415
G01 X13.6460 Y2.7405
G01 X13.6603 Y2.7227
G01 X13.7428 Y2.6308
G01 X13.8434 Y2.5409
G01 X13.8901 Y2.5073
G01 X13.8901 Y1.6394
G01 X13.5402 Y1.2895
G01 X7.7730 Y1.2895
G01 X7.6771 Y1.3854
G01 X7.6771 Y2.5073
G01 X7.7238 Y2.5409
G01 X7.8161 Y2.6230
G01 X7.8322 Y2.6391
G01 X7.9143 Y2.7314
G01 X7.9860 Y2.8320
G01 X7.9982 Y2.8513
G01 X8.0576 Y2.9596
G01 X8.1052 Y3.0736
G01 X8.1127 Y3.0951
G01 X8.1466 Y3.2139
G01 X8.1676 Y3.3356
G01 X8.1702 Y3.3582
G01 X8.1765 Y3.4702
G01 X8.1765 Y3.4930
G01 X8.1692 Y3.6163
G01 X8.1489 Y3.7382
G01 X8.1438 Y3.7604
G01 X8.1093 Y3.8790
G01 X8.0623 Y3.9932
G01 X8.0524 Y4.0138
G01 X7.9924 Y4.1217
G01 X7.9212 Y4.2227
G01 X7.9069 Y4.2405
G01 X7.8322 Y4.3241
G01 X7.8161 Y4.3402
G01 X7.7238 Y4.4223
G01 X7.6232 Y4.4940
G01 X7.6039 Y4.5062
G01 X7.4956 Y4.5656
G01 X7.3816 Y4.6132
G01 X7.3601 Y4.6207
G01 X7.2413 Y4.6546
G01 X7.1083 Y4.6772
G01 X6.9736 Y4.6848
G01 X6.8502 Y4.6782
G01 X6.8276 Y4.6756
G01 X6.7059 Y4.6546
G01 X6.5871 Y4.6207
G01 X6.5656 Y4.6132
G01 X6.4516 Y4.5656
G01 X6.3335 Y4.5004
G01 X6.2325 Y4.4292
G01 X6.2147 Y4.4149
G01 X6.1228 Y4.3324
G01 X6.0329 Y4.2318
G01 X5.9612 Y4.1312
G01 X5.9490 Y4.1119
G01 X5.8896 Y4.0036
G01 X5.8379 Y3.8790
G01 X5.8034 Y3.7604
G01 X5.7983 Y3.7382
G01 X5.7780 Y3.6163
G01 X5.7704 Y3.4816
G01 X5.7770 Y3.3582
G01 X5.7796 Y3.3356
G01 X5.8006 Y3.2139
G01 X5.8345 Y3.0951
G01 X5.8420 Y3.0736
G01 X5.8849 Y2.9700
G01 X5.8948 Y2.9494
G01 X5.9548 Y2.8415
G01 X6.0260 Y2.7405
G01 X6.0403 Y2.7227
G01 X6.1228 Y2.6308
G01 X6.2234 Y2.5409
G01 X6.2701 Y2.5073
G01 X6.2701 Y1.6394
G01 X5.9202 Y1.2895
G01 X3.6664 Y1.2895
G01 X2.5971 Y2.3588
G01 X2.5971 Y2.5073
G01 X2.6438 Y2.5409
G01 X2.7361 Y2.6230
G01 X2.7522 Y2.6391
G01 X2.8343 Y2.7314
G01 X2.9124 Y2.8415
G01 X2.9724 Y2.9494
G01 X2.9823 Y2.9700
G01 X3.0293 Y3.0842
G01 X3.0666 Y3.2139
G01 X3.0892 Y3.3469
G01 X3.0968 Y3.4816
G01 X3.0892 Y3.6163
G01 X3.0666 Y3.7493
G01 X3.0293 Y3.8790
G01 X2.9776 Y4.0036
G01 X2.9124 Y4.1217
G01 X2.8343 Y4.2318
G01 X2.7522 Y4.3241
G01 X2.7361 Y4.3402
G01 X2.6438 Y4.4223
G01 X2.5971 Y4.4559
G01 X2.5971 Y21.4725
G01 X3.3668 Y21.4725
G01 X3.4456 Y21.4770
G01 X3.5233 Y21.4902
G01 X3.5883 Y21.5086
G01 X3.6098 Y21.5161
G01 X3.6616 Y21.5376
G01 X3.6821 Y21.5474
G01 X3.7411 Y21.5804
G01 X3.7963 Y21.6192
G01 X3.8141 Y21.6334
G01 X3.8642 Y21.6786
G01 X6.5606 Y24.3751
G01 X6.6018 Y24.4211
G01 X6.6160 Y24.4389
G01 X6.6548 Y24.4941
G01 X6.6878 Y24.5531
G01 X6.6976 Y24.5736
G01 X6.7232 Y24.6361
G01 X6.7450 Y24.7119
G01 X6.7582 Y24.7896
G01 X6.7626 Y24.8627
G01 X6.7627 Y25.3673
G01 X6.8094 Y25.4009
G01 X6.9017 Y25.4830
G01 X6.9178 Y25.4991
G01 X6.9999 Y25.5914
G01 X7.0780 Y25.7015
G01 X7.1432 Y25.8196
G01 X7.1949 Y25.9442
G01 X7.2322 Y26.0739
G01 X7.2548 Y26.2069
G01 X7.2624 Y26.3416
G01 X7.2548 Y26.4763
G01 X7.2322 Y26.6093
G01 X7.1949 Y26.7390
G01 X7.1432 Y26.8636
G01 X7.0780 Y26.9817
G01 X6.9999 Y27.0918
G01 X6.9178 Y27.1841
G01 X6.9017 Y27.2002
G01 X6.8094 Y27.2823
G01 X6.7627 Y27.3159
G01 X6.7627 Y28.3736
G01 X6.7582 Y28.4524
G01 X6.7472 Y28.5190
G01 X6.7422 Y28.5412
G01 X6.7232 Y28.6059
G01 X6.6930 Y28.6788
G01 X6.6606 Y28.7380
G01 X6.6485 Y28.7573
G01 X6.6092 Y28.8122
G01 X6.5606 Y28.8669
G01 X4.2960 Y31.1316
G01 X4.2372 Y31.1842
G01 X4.1729 Y31.2298
G01 X4.1038 Y31.2680
G01 X4.0309 Y31.2982
G01 X3.9551 Y31.3200
G01 X3.8886 Y31.3316
G01 X3.8660 Y31.3342
G01 X3.7986 Y31.3377
G01 X2.4701 Y31.3377
G01 X2.4701 Y39.7756
G01 X5.3506 Y42.6561
G01 X5.8560 Y42.6561
G01 X5.8562 Y42.4860
G01 X5.8587 Y42.4632
G01 X5.8637 Y42.4407
G01 X5.8712 Y42.4189
G01 X5.8811 Y42.3982
G01 X5.8933 Y42.3787
G01 X5.9076 Y42.3607
G01 X5.9239 Y42.3444
G01 X5.9419 Y42.3301
G01 X5.9614 Y42.3179
G01 X5.9821 Y42.3080
G01 X6.0039 Y42.3005
G01 X6.0264 Y42.2955
G01 X6.0492 Y42.2930
G01 X8.1012 Y42.2930
G01 X8.1240 Y42.2955
G01 X8.1465 Y42.3005
G01 X8.1683 Y42.3080
G01 X8.1890 Y42.3179
G01 X8.2085 Y42.3301
G01 X8.2265 Y42.3444
G01 X8.2428 Y42.3607
G01 X8.2571 Y42.3787
G01 X8.2693 Y42.3982
G01 X8.2792 Y42.4189
G01 X8.2867 Y42.4407
G01 X8.2895 Y42.4529
G01 X11.7397 Y42.4529
G01 X11.7733 Y42.4062
G01 X11.8632 Y42.3056
G01 X11.9551 Y42.2231
G01 X11.9729 Y42.2088
G01 X12.0739 Y42.1376
G01 X12.1818 Y42.0776
G01 X12.2024 Y42.0677
G01 X12.3060 Y42.0248
G01 X12.3275 Y42.0173
G01 X12.4463 Y41.9834
G01 X12.5680 Y41.9624
G01 X12.5906 Y41.9598
G01 X12.7140 Y41.9532
G01 X12.8487 Y41.9608
G01 X12.9706 Y41.9811
G01 X12.9928 Y41.9862
G01 X13.1005 Y42.0173
G01 X13.1220 Y42.0248
G01 X13.2360 Y42.0724
G01 X13.3443 Y42.1318
G01 X13.3636 Y42.1440
G01 X13.4551 Y42.2088
G01 X13.4729 Y42.2231
G01 X13.5648 Y42.3056
G01 X13.6473 Y42.3975
G01 X13.6616 Y42.4153
G01 X13.7328 Y42.5163
G01 X13.7980 Y42.6344
G01 X13.8497 Y42.7590
G01 X13.8870 Y42.8887
G01 X13.9096 Y43.0217
G01 X13.9169 Y43.1450
G01 X13.9169 Y43.1678
G01 X13.9106 Y43.2798
G01 X13.9080 Y43.3024
G01 X13.8870 Y43.4241
G01 X13.8531 Y43.5429
G01 X13.8456 Y43.5644
G01 X13.7980 Y43.6784
G01 X13.7328 Y43.7965
G01 X13.6547 Y43.9066
G01 X13.5726 Y43.9989
G01 X13.5565 Y44.0150
G01 X13.4642 Y44.0971
G01 X13.3541 Y44.1752
G01 X13.2360 Y44.2404
G01 X13.1220 Y44.2880
G01 X13.1005 Y44.2955
G01 X12.9928 Y44.3266
G01 X12.9706 Y44.3317
G01 X12.8487 Y44.3520
G01 X12.7254 Y44.3593
G01 X12.7026 Y44.3593
G01 X12.5793 Y44.3520
G01 X12.4463 Y44.3294
G01 X12.3166 Y44.2921
G01 X12.2024 Y44.2451
G01 X12.1818 Y44.2352
G01 X12.0739 Y44.1752
G01 X11.9729 Y44.1040
G01 X11.9551 Y44.0897
G01 X11.8715 Y44.0150
G01 X11.8554 Y43.9989
G01 X11.7733 Y43.9066
G01 X11.7397 Y43.8599
G01 X8.2944 Y43.8599
G01 X8.2944 Y44.2232
G01 X8.2942 Y44.2332
G01 X8.2917 Y44.2560
G01 X8.2867 Y44.2785
G01 X8.2792 Y44.3003
G01 X8.2693 Y44.3210
G01 X8.2571 Y44.3405
G01 X8.2428 Y44.3585
G01 X8.2265 Y44.3748
G01 X8.2085 Y44.3891
G01 X8.1890 Y44.4013
G01 X8.1683 Y44.4112
G01 X8.1465 Y44.4187
G01 X8.1240 Y44.4237
G01 X8.1012 Y44.4262
G01 X8.0912 Y44.4264
G01 X6.0592 Y44.4264
G01 X6.0492 Y44.4262
G01 X6.0264 Y44.4237
G01 X6.0039 Y44.4187
G01 X5.9821 Y44.4112
G01 X5.9614 Y44.4013
G01 X5.9419 Y44.3891
G01 X5.9239 Y44.3748
G01 X5.9076 Y44.3585
G01 X5.8933 Y44.3405
G01 X5.8811 Y44.3210
G01 X5.8712 Y44.3003
G01 X5.8637 Y44.2785
G01 X5.8587 Y44.2560
G01 X5.8562 Y44.2332
G01 X5.8560 Y44.0631
G01 X5.0592 Y44.0631
G01 X4.9804 Y44.0586
G01 X4.9027 Y44.0454
G01 X4.8377 Y44.0270
G01 X4.8162 Y44.0195
G01 X4.7540 Y43.9934
G01 X4.6948 Y43.9610
G01 X4.6755 Y43.9489
G01 X4.6206 Y43.9096
G01 X4.5618 Y43.8570
G01 X1.2652 Y40.5603
G01 X1.2166 Y40.5056
G01 X1.1773 Y40.4507
G01 X1.1652 Y40.4314
G01 X1.1380 Y40.3823
G01 X1.1282 Y40.3618
G01 X1.1026 Y40.2993
G01 X1.0808 Y40.2235
G01 X1.0676 Y40.1458
G01 X1.0632 Y40.0727
G01 X1.0631 Y30.6342
G00 Z2.5400
G00 X6.9228 Y46.9664
G01 F76.20
G01 Z-0.2000
G01 F76.20
G01 X6.8034 Y46.9597
G01 X6.6966 Y46.9419
G01 X6.6744 Y46.9368
G01 X6.5813 Y46.9100
G01 X6.5598 Y46.9025
G01 X6.4599 Y46.8608
G01 X6.3552 Y46.8029
G01 X6.2577 Y46.7337
G01 X6.1685 Y46.6539
G01 X6.0887 Y46.5647
G01 X6.0258 Y46.4766
G01 X6.0137 Y46.4574
G01 X5.9669 Y46.3726
G01 X5.9570 Y46.3521
G01 X5.9159 Y46.2519
G01 X5.8827 Y46.1370
G01 X5.8627 Y46.0190
G01 X5.8563 Y45.9110
G01 X5.8563 Y45.8882
G01 X5.8617 Y45.7915
G01 X5.8643 Y45.7689
G01 X5.8827 Y45.6622
G01 X5.9159 Y45.5473
G01 X5.9616 Y45.4367
G01 X6.0137 Y45.3418
G01 X6.0258 Y45.3226
G01 X6.0819 Y45.2436
G01 X6.0961 Y45.2258
G01 X6.1685 Y45.1453
G01 X6.2577 Y45.0655
G01 X6.3552 Y44.9963
G01 X6.4498 Y44.9437
G01 X6.4703 Y44.9338
G01 X6.5598 Y44.8967
G01 X6.5813 Y44.8892
G01 X6.6854 Y44.8595
G01 X6.8034 Y44.8395
G01 X6.9228 Y44.8328
G01 X7.2276 Y44.8328
G01 X7.3357 Y44.8385
G01 X7.3583 Y44.8411
G01 X7.4650 Y44.8595
G01 X7.5691 Y44.8892
G01 X7.5906 Y44.8967
G01 X7.6905 Y44.9384
G01 X7.7854 Y44.9905
G01 X7.8046 Y45.0026
G01 X7.8836 Y45.0587
G01 X7.9014 Y45.0729
G01 X7.9819 Y45.1453
G01 X8.0278 Y45.1961
G01 X11.6206 Y45.1961
G01 X11.6300 Y45.1744
G01 X11.6352 Y45.1642
G01 X11.6952 Y45.0563
G01 X11.7664 Y44.9553
G01 X11.7807 Y44.9375
G01 X11.8632 Y44.8456
G01 X11.9551 Y44.7631
G01 X11.9729 Y44.7488
G01 X12.0739 Y44.6776
G01 X12.1920 Y44.6124
G01 X12.3060 Y44.5648
G01 X12.3275 Y44.5573
G01 X12.4463 Y44.5234
G01 X12.5680 Y44.5024
G01 X12.5906 Y44.4998
G01 X12.7140 Y44.4932
G01 X12.8487 Y44.5008
G01 X12.9817 Y44.5234
G01 X13.1114 Y44.5607
G01 X13.2360 Y44.6124
G01 X13.3541 Y44.6776
G01 X13.4642 Y44.7557
G01 X13.5565 Y44.8378
G01 X13.5726 Y44.8539
G01 X13.6547 Y44.9462
G01 X13.6883 Y44.9929
G01 X29.5458 Y44.9929
G01 X29.6246 Y44.9974
G01 X29.6912 Y45.0084
G01 X29.7134 Y45.0134
G01 X29.7782 Y45.0324
G01 X29.8406 Y45.0580
G01 X29.8612 Y45.0678
G01 X29.9103 Y45.0950
G01 X29.9296 Y45.1071
G01 X29.9844 Y45.1464
G01 X30.0432 Y45.1990
G01 X36.5794 Y51.7352
G01 X36.6320 Y51.7940
G01 X36.6713 Y51.8488
G01 X36.6834 Y51.8681
G01 X36.7158 Y51.9274
G01 X36.7419 Y51.9896
G01 X36.7494 Y52.0111
G01 X36.7678 Y52.0761
G01 X36.7810 Y52.1538
G01 X36.7855 Y52.2326
G01 X36.7855 Y53.2836
G01 X36.8621 Y53.3525
G01 X36.9372 Y53.4360
G01 X36.9514 Y53.4539
G01 X37.0161 Y53.5456
G01 X37.0760 Y53.6539
G01 X37.1192 Y53.7576
G01 X37.1268 Y53.7791
G01 X37.1547 Y53.8761
G01 X37.1598 Y53.8983
G01 X37.1783 Y54.0091
G01 X37.1851 Y54.1269
G01 X37.1852 Y54.5322
G01 X37.1783 Y54.6557
G01 X37.1598 Y54.7665
G01 X37.1547 Y54.7887
G01 X37.1268 Y54.8857
G01 X37.1192 Y54.9072
G01 X37.0760 Y55.0109
G01 X37.0219 Y55.1093
G01 X37.0098 Y55.1286
G01 X36.9445 Y55.2201
G01 X36.8621 Y55.3123
G01 X36.7698 Y55.3947
G01 X36.6784 Y55.4600
G01 X36.6591 Y55.4721
G01 X36.5607 Y55.5262
G01 X36.4570 Y55.5694
G01 X36.4355 Y55.5770
G01 X36.3385 Y55.6049
G01 X36.3163 Y55.6100
G01 X36.2055 Y55.6285
G01 X36.0934 Y55.6351
G01 X36.0706 Y55.6351
G01 X35.9585 Y55.6285
G01 X35.8477 Y55.6100
G01 X35.8255 Y55.6049
G01 X35.7285 Y55.5770
G01 X35.7070 Y55.5694
G01 X35.6033 Y55.5262
G01 X35.4951 Y55.4663
G01 X35.3942 Y55.3947
G01 X35.3102 Y55.3201
G01 X35.2941 Y55.3040
G01 X35.2195 Y55.2201
G01 X35.1542 Y55.1286
G01 X35.1421 Y55.1093
G01 X35.0880 Y55.0109
G01 X35.0448 Y54.9072
G01 X35.0372 Y54.8857
G01 X35.0093 Y54.7887
G01 X35.0042 Y54.7665
G01 X34.9857 Y54.6557
G01 X34.9791 Y54.5436
G01 X34.9789 Y54.1269
G01 X34.9857 Y54.0091
G01 X35.0065 Y53.8871
G01 X35.0407 Y53.7682
G01 X35.0880 Y53.6539
G01 X35.1479 Y53.5456
G01 X35.2195 Y53.4447
G01 X35.3019 Y53.3525
G01 X35.3785 Y53.2836
G01 X35.3785 Y52.5240
G01 X29.2544 Y46.3999
G01 X13.6883 Y46.3999
G01 X13.6616 Y46.4375
G01 X13.6473 Y46.4553
G01 X13.5726 Y46.5389
G01 X13.5565 Y46.5550
G01 X13.4642 Y46.6371
G01 X13.3636 Y46.7088
G01 X13.3443 Y46.7210
G01 X13.2360 Y46.7804
G01 X13.1114 Y46.8321
G01 X12.9817 Y46.8694
G01 X12.8600 Y46.8904
G01 X12.8374 Y46.8930
G01 X12.7140 Y46.8996
G01 X12.5793 Y46.8920
G01 X12.4463 Y46.8694
G01 X12.3275 Y46.8355
G01 X12.3060 Y46.8280
G01 X12.1920 Y46.7804
G01 X12.0837 Y46.7210
G01 X12.0644 Y46.7088
G01 X11.9729 Y46.6440
G01 X11.9551 Y46.6297
G01 X11.9252 Y46.6031
G01 X8.0278 Y46.6031
G01 X7.9819 Y46.6539
G01 X7.9014 Y46.7263
G01 X7.8836 Y46.7405
G01 X7.8046 Y46.7966
G01 X7.7854 Y46.8087
G01 X7.6905 Y46.8608
G01 X7.5799 Y46.9065
G01 X7.4650 Y46.9397
G01 X7.3470 Y46.9597
G01 X7.2333 Y46.9663
G01 X6.9228 Y46.9664
G00 Z2.5400
G00 X6.9228 Y49.5064
G01 F76.20
G01 Z-0.2000
G01 F76.20
G01 X6.8034 Y49.4997
G01 X6.6854 Y49.4797
G01 X6.5705 Y49.4465
G01 X6.4599 Y49.4008
G01 X6.3552 Y49.3429
G01 X6.2577 Y49.2737
G01 X6.1685 Y49.1939
G01 X6.0887 Y49.1047
G01 X6.0195 Y49.0072
G01 X5.9616 Y48.9025
G01 X5.9159 Y48.7919
G01 X5.8827 Y48.6770
G01 X5.8627 Y48.5590
G01 X5.8560 Y48.4396
G01 X5.8627 Y48.3202
G01 X5.8805 Y48.2134
G01 X5.8856 Y48.1912
G01 X5.9159 Y48.0873
G01 X5.9616 Y47.9767
G01 X6.0195 Y47.8720
G01 X6.0887 Y47.7745
G01 X6.1685 Y47.6853
G01 X6.2577 Y47.6055
G01 X6.3552 Y47.5363
G01 X6.4599 Y47.4784
G01 X6.5705 Y47.4327
G01 X6.6744 Y47.4024
G01 X6.6966 Y47.3973
G01 X6.7921 Y47.3811
G01 X6.8147 Y47.3785
G01 X6.9228 Y47.3728
G01 X7.2333 Y47.3729
G01 X7.3470 Y47.3795
G01 X7.4538 Y47.3973
G01 X7.4760 Y47.4024
G01 X7.5799 Y47.4327
G01 X7.6905 Y47.4784
G01 X7.7952 Y47.5363
G01 X7.8836 Y47.5987
G01 X7.9014 Y47.6129
G01 X7.9737 Y47.6774
G01 X7.9898 Y47.6935
G01 X8.0617 Y47.7745
G01 X8.1309 Y47.8720
G01 X8.1888 Y47.9767
G01 X8.2345 Y48.0873
G01 X8.2677 Y48.2022
G01 X8.2861 Y48.3089
G01 X8.2887 Y48.3315
G01 X8.2941 Y48.4282
G01 X8.2941 Y48.4510
G01 X8.2877 Y48.5590
G01 X8.2699 Y48.6658
G01 X8.2648 Y48.6880
G01 X8.2345 Y48.7919
G01 X8.1888 Y48.9025
G01 X8.1309 Y49.0072
G01 X8.0685 Y49.0956
G01 X8.0543 Y49.1134
G01 X7.9898 Y49.1857
G01 X7.9737 Y49.2018
G01 X7.8927 Y49.2737
G01 X7.7952 Y49.3429
G01 X7.6905 Y49.4008
G01 X7.5906 Y49.4425
G01 X7.5691 Y49.4500
G01 X7.4760 Y49.4768
G01 X7.4538 Y49.4819
G01 X7.3470 Y49.4997
G01 X7.2390 Y49.5061
G01 X6.9228 Y49.5064
G00 Z2.5400
G00 X6.9228 Y52.0464
G01 F76.20
G01 Z-0.2000
G01 F76.20
G01 X6.8034 Y52.0397
G01 X6.6966 Y52.0219
G01 X6.6744 Y52.0168
G01 X6.5813 Y51.9900
G01 X6.5598 Y51.9825
G01 X6.4599 Y51.9408
G01 X6.3552 Y51.8829
G01 X6.2577 Y51.8137
G01 X6.1767 Y51.7418
G01 X6.1606 Y51.7257
G01 X6.0961 Y51.6534
G01 X6.0819 Y51.6356
G01 X6.0195 Y51.5472
G01 X5.9616 Y51.4425
G01 X5.9159 Y51.3319
G01 X5.8856 Y51.2280
G01 X5.8805 Y51.2058
G01 X5.8627 Y51.0990
G01 X5.8560 Y50.9796
G01 X5.8617 Y50.8715
G01 X5.8643 Y50.8489
G01 X5.8805 Y50.7534
G01 X5.8856 Y50.7312
G01 X5.9159 Y50.6273
G01 X5.9616 Y50.5167
G01 X6.0195 Y50.4120
G01 X6.0819 Y50.3236
G01 X6.0961 Y50.3058
G01 X6.1606 Y50.2335
G01 X6.1767 Y50.2174
G01 X6.2577 Y50.1455
G01 X6.3552 Y50.0763
G01 X6.4498 Y50.0237
G01 X6.4703 Y50.0138
G01 X6.5705 Y49.9727
G01 X6.6854 Y49.9395
G01 X6.8034 Y49.9195
G01 X6.9228 Y49.9128
G01 X7.2390 Y49.9131
G01 X7.3470 Y49.9195
G01 X7.4650 Y49.9395
G01 X7.5799 Y49.9727
G01 X7.6801 Y50.0138
G01 X7.7006 Y50.0237
G01 X7.7952 Y50.0763
G01 X7.8836 Y50.1387
G01 X7.9014 Y50.1529
G01 X7.9819 Y50.2253
G01 X8.0278 Y50.2761
G01 X17.1216 Y50.2761
G01 X18.4183 Y48.9796
G01 X18.4730 Y48.9310
G01 X18.5373 Y48.8854
G01 X18.6064 Y48.8472
G01 X18.6686 Y48.8211
G01 X18.6901 Y48.8136
G01 X18.7440 Y48.7980
G01 X18.7662 Y48.7930
G01 X18.8328 Y48.7820
G01 X18.9002 Y48.7779
G01 X18.9230 Y48.7779
G01 X18.9904 Y48.7820
G01 X19.0681 Y48.7952
G01 X19.1439 Y48.8170
G01 X19.2064 Y48.8426
G01 X19.2269 Y48.8524
G01 X19.2859 Y48.8854
G01 X19.3502 Y48.9310
G01 X19.4090 Y48.9836
G01 X19.4616 Y49.0424
G01 X19.5072 Y49.1067
G01 X19.5454 Y49.1758
G01 X19.5756 Y49.2487
G01 X19.5974 Y49.3245
G01 X19.6106 Y49.4023
G01 X19.6151 Y49.4810
G01 X19.6106 Y49.5597
G01 X19.5974 Y49.6375
G01 X19.5756 Y49.7133
G01 X19.5454 Y49.7862
G01 X19.5072 Y49.8553
G01 X19.4684 Y49.9105
G01 X19.4542 Y49.9283
G01 X19.4090 Y49.9784
G01 X17.9063 Y51.4810
G01 X17.8603 Y51.5222
G01 X17.8425 Y51.5364
G01 X17.7873 Y51.5752
G01 X17.7283 Y51.6082
G01 X17.7078 Y51.6180
G01 X17.6453 Y51.6436
G01 X17.5695 Y51.6654
G01 X17.4918 Y51.6786
G01 X17.4130 Y51.6831
G01 X8.0278 Y51.6831
G01 X7.9819 Y51.7339
G01 X7.9014 Y51.8063
G01 X7.8836 Y51.8205
G01 X7.8046 Y51.8766
G01 X7.7854 Y51.8887
G01 X7.6905 Y51.9408
G01 X7.5799 Y51.9865
G01 X7.4650 Y52.0197
G01 X7.3470 Y52.0397
G01 X7.2333 Y52.0463
G01 X6.9228 Y52.0464
G00 Z2.5400
G00 X17.4468 Y55.2288
G01 F76.20
G01 Z-0.2000
G01 F76.20
G01 X17.4326 Y55.2109
G01 X17.3742 Y55.1286
G01 X17.3621 Y55.1093
G01 X17.3080 Y55.0109
G01 X17.2607 Y54.8966
G01 X17.2293 Y54.7887
G01 X17.2242 Y54.7665
G01 X17.2057 Y54.6557
G01 X17.1988 Y54.5322
G01 X17.1991 Y54.1212
G01 X17.2057 Y54.0091
G01 X17.2265 Y53.8871
G01 X17.2607 Y53.7682
G01 X17.3080 Y53.6539
G01 X17.3679 Y53.5456
G01 X17.4395 Y53.4447
G01 X17.5219 Y53.3525
G01 X17.6055 Y53.2774
G01 X17.6233 Y53.2632
G01 X17.7056 Y53.2048
G01 X17.7249 Y53.1927
G01 X17.8233 Y53.1386
G01 X17.9376 Y53.0913
G01 X18.0565 Y53.0570
G01 X18.1785 Y53.0363
G01 X18.3020 Y53.0294
G01 X18.4142 Y53.0354
G01 X18.4368 Y53.0379
G01 X18.5363 Y53.0548
G01 X18.5585 Y53.0599
G01 X18.6664 Y53.0913
G01 X18.7807 Y53.1386
G01 X18.8889 Y53.1985
G01 X18.9898 Y53.2701
G01 X19.0821 Y53.3525
G01 X19.1645 Y53.4447
G01 X19.2361 Y53.5456
G01 X19.2907 Y53.6438
G01 X19.3006 Y53.6643
G01 X19.3392 Y53.7576
G01 X19.3468 Y53.7791
G01 X19.3775 Y53.8871
G01 X19.3983 Y54.0091
G01 X19.4052 Y54.1326
G01 X19.4051 Y54.5379
G01 X19.3983 Y54.6557
G01 X19.3798 Y54.7665
G01 X19.3747 Y54.7887
G01 X19.3433 Y54.8966
G01 X19.2960 Y55.0109
G01 X19.2361 Y55.1192
G01 X19.1645 Y55.2201
G01 X19.0821 Y55.3123
G01 X18.9898 Y55.3947
G01 X18.8889 Y55.4663
G01 X18.7807 Y55.5262
G01 X18.6664 Y55.5735
G01 X18.5475 Y55.6078
G01 X18.4255 Y55.6285
G01 X18.3020 Y55.6354
G01 X18.1785 Y55.6285
G01 X18.0565 Y55.6078
G01 X17.9376 Y55.5735
G01 X17.8233 Y55.5262
G01 X17.7151 Y55.4663
G01 X17.6142 Y55.3947
G01 X17.5219 Y55.3123
G01 X17.4468 Y55.2288
G00 Z2.5400
G00 X19.9868 Y55.2288
G01 F76.20
G01 Z-0.2000
G01 F76.20
G01 X19.9726 Y55.2109
G01 X19.9142 Y55.1286
G01 X19.9021 Y55.1093
G01 X19.8480 Y55.0109
G01 X19.8007 Y54.8966
G01 X19.7693 Y54.7887
G01 X19.7642 Y54.7665
G01 X19.7457 Y54.6557
G01 X19.7388 Y54.5322
G01 X19.7391 Y54.1212
G01 X19.7457 Y54.0091
G01 X19.7665 Y53.8871
G01 X19.8007 Y53.7682
G01 X19.8480 Y53.6539
G01 X19.9079 Y53.5456
G01 X19.9795 Y53.4447
G01 X20.0619 Y53.3525
G01 X20.1455 Y53.2774
G01 X20.1633 Y53.2632
G01 X20.2456 Y53.2048
G01 X20.2649 Y53.1927
G01 X20.3633 Y53.1386
G01 X20.4776 Y53.0913
G01 X20.5965 Y53.0570
G01 X20.7185 Y53.0363
G01 X20.8420 Y53.0294
G01 X20.9542 Y53.0354
G01 X20.9768 Y53.0379
G01 X21.0763 Y53.0548
G01 X21.0985 Y53.0599
G01 X21.2064 Y53.0913
G01 X21.3207 Y53.1386
G01 X21.4289 Y53.1985
G01 X21.5298 Y53.2701
G01 X21.6221 Y53.3525
G01 X21.7045 Y53.4447
G01 X21.7761 Y53.5456
G01 X21.8307 Y53.6438
G01 X21.8406 Y53.6643
G01 X21.8792 Y53.7576
G01 X21.8868 Y53.7791
G01 X21.9175 Y53.8871
G01 X21.9383 Y54.0091
G01 X21.9452 Y54.1326
G01 X21.9451 Y54.5379
G01 X21.9383 Y54.6557
G01 X21.9198 Y54.7665
G01 X21.9147 Y54.7887
G01 X21.8833 Y54.8966
G01 X21.8360 Y55.0109
G01 X21.7761 Y55.1192
G01 X21.7045 Y55.2201
G01 X21.6221 Y55.3123
G01 X21.5298 Y55.3947
G01 X21.4289 Y55.4663
G01 X21.3207 Y55.5262
G01 X21.2064 Y55.5735
G01 X21.0875 Y55.6078
G01 X20.9655 Y55.6285
G01 X20.8420 Y55.6354
G01 X20.7185 Y55.6285
G01 X20.5965 Y55.6078
G01 X20.4776 Y55.5735
G01 X20.3633 Y55.5262
G01 X20.2551 Y55.4663
G01 X20.1542 Y55.3947
G01 X20.0619 Y55.3123
G01 X19.9868 Y55.2288
G00 Z2.5400
G00 X22.5268 Y55.2288
G01 F76.20
G01 Z-0.2000
G01 F76.20
G01 X22.5126 Y55.2109
G01 X22.4542 Y55.1286
G01 X22.4421 Y55.1093
G01 X22.3880 Y55.0109
G01 X22.3407 Y54.8966
G01 X22.3093 Y54.7887
G01 X22.3042 Y54.7665
G01 X22.2857 Y54.6557
G01 X22.2788 Y54.5322
G01 X22.2791 Y54.1212
G01 X22.2857 Y54.0091
G01 X22.3065 Y53.8871
G01 X22.3407 Y53.7682
G01 X22.3880 Y53.6539
G01 X22.4479 Y53.5456
G01 X22.5195 Y53.4447
G01 X22.6019 Y53.3525
G01 X22.6855 Y53.2774
G01 X22.7033 Y53.2632
G01 X22.7856 Y53.2048
G01 X22.8049 Y53.1927
G01 X22.9033 Y53.1386
G01 X23.0176 Y53.0913
G01 X23.1365 Y53.0570
G01 X23.2585 Y53.0363
G01 X23.3820 Y53.0294
G01 X23.4942 Y53.0354
G01 X23.5168 Y53.0379
G01 X23.6163 Y53.0548
G01 X23.6385 Y53.0599
G01 X23.7464 Y53.0913
G01 X23.8607 Y53.1386
G01 X23.9689 Y53.1985
G01 X24.0698 Y53.2701
G01 X24.1621 Y53.3525
G01 X24.2445 Y53.4447
G01 X24.3161 Y53.5456
G01 X24.3707 Y53.6438
G01 X24.3806 Y53.6643
G01 X24.4192 Y53.7576
G01 X24.4268 Y53.7791
