(G-CODE GENERATED BY FLATCAM v8.912 - www.flatcam.org - Version Date: 2019/03/17)

(Name: capa verde_cnc)
(Type: G-code from Geometry)
(Units: MM)

(Created on Tuesday, 16 April 2019 at 09:27)

(TOOL DIAMETER: 0.41 mm)
(Feedrate: 76.2 mm/min)
(Feedrate_Z: 76.2 mm/min)
(Feedrate rapids 76.2 mm/min)

(Z_Cut: -0.2 mm)
(Z_Move: 2.54 mm)
(Z Toolchange: 25.4 mm)
(X,Y Toolchange: 0.0000, 0.0000 mm)
(Z Start: None mm)
(Z End: 50.8 mm)
(Steps per circle: 64)
(Postprocessor Geometry: default)

(X range:    0.6904 ...   47.3452  mm)
(Y range:    2.2784 ...   57.2961  mm)

(Spindle Speed: None RPM)

G21
G90
G94

G01 F76.20
G00 Z2.5400

M03
G00 X0.6974 Y3.3583
G01 F76.20
G01 Z-0.2000
G01 F76.20
G01 X0.6996 Y3.3356
G01 X0.7183 Y3.2250
G01 X0.7234 Y3.2028
G01 X0.7545 Y3.0951
G01 X0.7620 Y3.0736
G01 X0.8054 Y2.9689
G01 X0.8148 Y2.9494
G01 X0.8690 Y2.8513
G01 X0.8812 Y2.8320
G01 X0.9460 Y2.7405
G01 X0.9603 Y2.7227
G01 X1.0350 Y2.6391
G01 X1.0511 Y2.6230
G01 X1.1347 Y2.5483
G01 X1.1525 Y2.5340
G01 X1.2463 Y2.4675
G01 X1.2633 Y2.4570
G01 X1.3614 Y2.4028
G01 X1.3820 Y2.3929
G01 X1.4856 Y2.3500
G01 X1.5071 Y2.3425
G01 X1.6148 Y2.3114
G01 X1.6370 Y2.3063
G01 X1.7476 Y2.2876
G01 X1.7702 Y2.2850
G01 X1.8936 Y2.2784
G01 X2.0170 Y2.2850
G01 X2.0396 Y2.2876
G01 X2.1502 Y2.3063
G01 X2.1724 Y2.3114
G01 X2.2801 Y2.3425
G01 X2.3016 Y2.3500
G01 X2.4063 Y2.3934
G01 X2.4258 Y2.4028
G01 X2.5239 Y2.4570
G01 X2.5432 Y2.4692
G01 X2.6347 Y2.5340
G01 X2.6525 Y2.5483
G01 X2.7361 Y2.6230
G01 X2.7522 Y2.6391
G01 X2.8269 Y2.7227
G01 X2.8412 Y2.7405
G01 X2.9077 Y2.8343
G01 X2.9182 Y2.8513
G01 X2.9724 Y2.9494
G01 X2.9823 Y2.9700
G01 X3.0252 Y3.0736
G01 X3.0327 Y3.0951
G01 X3.0638 Y3.2028
G01 X3.0689 Y3.2250
G01 X3.0876 Y3.3356
G01 X3.0902 Y3.3582
G01 X3.0968 Y3.4816
G01 X3.0902 Y3.6050
G01 X3.0876 Y3.6276
G01 X3.0689 Y3.7382
G01 X3.0638 Y3.7604
G01 X3.0327 Y3.8681
G01 X3.0252 Y3.8896
G01 X2.9818 Y3.9943
G01 X2.9724 Y4.0138
G01 X2.9182 Y4.1119
G01 X2.9060 Y4.1312
G01 X2.8412 Y4.2227
G01 X2.8269 Y4.2405
G01 X2.7522 Y4.3241
G01 X2.7361 Y4.3402
G01 X2.6525 Y4.4149
G01 X2.6347 Y4.4292
G01 X2.5409 Y4.4957
G01 X2.5239 Y4.5062
G01 X2.4258 Y4.5604
G01 X2.4052 Y4.5703
G01 X2.3016 Y4.6132
G01 X2.2801 Y4.6207
G01 X2.1724 Y4.6518
G01 X2.1502 Y4.6569
G01 X2.0396 Y4.6756
G01 X2.0170 Y4.6782
G01 X1.8936 Y4.6848
G01 X1.7702 Y4.6782
G01 X1.7476 Y4.6756
G01 X1.6370 Y4.6569
G01 X1.6148 Y4.6518
G01 X1.5071 Y4.6207
G01 X1.4856 Y4.6132
G01 X1.3809 Y4.5698
G01 X1.3614 Y4.5604
G01 X1.2633 Y4.5062
G01 X1.2440 Y4.4940
G01 X1.1525 Y4.4292
G01 X1.1347 Y4.4149
G01 X1.0511 Y4.3402
G01 X1.0350 Y4.3241
G01 X0.9603 Y4.2405
G01 X0.9460 Y4.2227
G01 X0.8795 Y4.1289
G01 X0.8690 Y4.1119
G01 X0.8148 Y4.0138
G01 X0.8049 Y3.9932
G01 X0.7620 Y3.8896
G01 X0.7545 Y3.8681
G01 X0.7234 Y3.7604
G01 X0.7183 Y3.7382
G01 X0.6996 Y3.6276
G01 X0.6970 Y3.6050
G01 X0.6904 Y3.4816
G01 X0.6974 Y3.3583
G00 Z2.5400
G00 X3.2374 Y3.3583
G01 F76.20
G01 Z-0.2000
G01 F76.20
G01 X3.2396 Y3.3356
G01 X3.2592 Y3.2205
G01 X3.2634 Y3.2028
G01 X3.2945 Y3.0951
G01 X3.3020 Y3.0736
G01 X3.3454 Y2.9689
G01 X3.3548 Y2.9494
G01 X3.4090 Y2.8513
G01 X3.4212 Y2.8320
G01 X3.4860 Y2.7405
G01 X3.5003 Y2.7227
G01 X3.5750 Y2.6391
G01 X3.5911 Y2.6230
G01 X3.6747 Y2.5483
G01 X3.6925 Y2.5340
G01 X3.7863 Y2.4675
G01 X3.8033 Y2.4570
G01 X3.9014 Y2.4028
G01 X3.9220 Y2.3929
G01 X4.0256 Y2.3500
G01 X4.0471 Y2.3425
G01 X4.1548 Y2.3114
G01 X4.1770 Y2.3063
G01 X4.2876 Y2.2876
G01 X4.3102 Y2.2850
G01 X4.4222 Y2.2787
G01 X4.4450 Y2.2787
G01 X4.5570 Y2.2850
G01 X4.5796 Y2.2876
G01 X4.6947 Y2.3072
G01 X4.7124 Y2.3114
G01 X4.8201 Y2.3425
G01 X4.8416 Y2.3500
G01 X4.9463 Y2.3934
G01 X4.9658 Y2.4028
G01 X5.0639 Y2.4570
G01 X5.0832 Y2.4692
G01 X5.1747 Y2.5340
G01 X5.1925 Y2.5483
G01 X5.2761 Y2.6230
G01 X5.2922 Y2.6391
G01 X5.3669 Y2.7227
G01 X5.3812 Y2.7405
G01 X5.4477 Y2.8343
G01 X5.4582 Y2.8513
G01 X5.5124 Y2.9494
G01 X5.5223 Y2.9700
G01 X5.5652 Y3.0736
G01 X5.5727 Y3.0951
G01 X5.6038 Y3.2028
G01 X5.6089 Y3.2250
G01 X5.6276 Y3.3356
G01 X5.6302 Y3.3582
G01 X5.6365 Y3.4702
G01 X5.6365 Y3.4930
G01 X5.6302 Y3.6050
G01 X5.6276 Y3.6276
G01 X5.6080 Y3.7427
G01 X5.6038 Y3.7604
G01 X5.5727 Y3.8681
G01 X5.5652 Y3.8896
G01 X5.5218 Y3.9943
G01 X5.5124 Y4.0138
G01 X5.4582 Y4.1119
G01 X5.4460 Y4.1312
G01 X5.3812 Y4.2227
G01 X5.3669 Y4.2405
G01 X5.2922 Y4.3241
G01 X5.2761 Y4.3402
G01 X5.1925 Y4.4149
G01 X5.1747 Y4.4292
G01 X5.1371 Y4.4559
G01 X5.1371 Y6.1366
G01 X5.2330 Y6.2325
G01 X8.4602 Y6.2325
G01 X8.8101 Y5.8826
G01 X8.8101 Y4.4559
G01 X8.7725 Y4.4292
G01 X8.7547 Y4.4149
G01 X8.6711 Y4.3402
G01 X8.6550 Y4.3241
G01 X8.5803 Y4.2405
G01 X8.5660 Y4.2227
G01 X8.4995 Y4.1289
G01 X8.4890 Y4.1119
G01 X8.4348 Y4.0138
G01 X8.4249 Y3.9932
G01 X8.3820 Y3.8896
G01 X8.3745 Y3.8681
G01 X8.3434 Y3.7604
G01 X8.3383 Y3.7382
G01 X8.3196 Y3.6276
G01 X8.3170 Y3.6050
G01 X8.3107 Y3.4930
G01 X8.3107 Y3.4702
G01 X8.3170 Y3.3582
G01 X8.3196 Y3.3356
G01 X8.3392 Y3.2205
G01 X8.3434 Y3.2028
G01 X8.3745 Y3.0951
G01 X8.3820 Y3.0736
G01 X8.4254 Y2.9689
G01 X8.4348 Y2.9494
G01 X8.4890 Y2.8513
G01 X8.5012 Y2.8320
G01 X8.5660 Y2.7405
G01 X8.5803 Y2.7227
G01 X8.6550 Y2.6391
G01 X8.6711 Y2.6230
G01 X8.7547 Y2.5483
G01 X8.7725 Y2.5340
G01 X8.8663 Y2.4675
G01 X8.8833 Y2.4570
G01 X8.9814 Y2.4028
G01 X9.0020 Y2.3929
G01 X9.1056 Y2.3500
G01 X9.1271 Y2.3425
G01 X9.2348 Y2.3114
G01 X9.2570 Y2.3063
G01 X9.3676 Y2.2876
G01 X9.3902 Y2.2850
G01 X9.5136 Y2.2784
G01 X9.6370 Y2.2850
G01 X9.6596 Y2.2876
G01 X9.7747 Y2.3072
G01 X9.7924 Y2.3114
G01 X9.9001 Y2.3425
G01 X9.9216 Y2.3500
G01 X10.0263 Y2.3934
G01 X10.0458 Y2.4028
G01 X10.1439 Y2.4570
G01 X10.1632 Y2.4692
G01 X10.2547 Y2.5340
G01 X10.2725 Y2.5483
G01 X10.3561 Y2.6230
G01 X10.3722 Y2.6391
G01 X10.4469 Y2.7227
G01 X10.4612 Y2.7405
G01 X10.4879 Y2.7781
G01 X11.0793 Y2.7781
G01 X11.1060 Y2.7405
G01 X11.1203 Y2.7227
G01 X11.1950 Y2.6391
G01 X11.2111 Y2.6230
G01 X11.2947 Y2.5483
G01 X11.3125 Y2.5340
G01 X11.4063 Y2.4675
G01 X11.4233 Y2.4570
G01 X11.5214 Y2.4028
G01 X11.5420 Y2.3929
G01 X11.6456 Y2.3500
G01 X11.6671 Y2.3425
G01 X11.7748 Y2.3114
G01 X11.7970 Y2.3063
G01 X11.9076 Y2.2876
G01 X11.9302 Y2.2850
G01 X12.0536 Y2.2784
G01 X12.1770 Y2.2850
G01 X12.1996 Y2.2876
G01 X12.3147 Y2.3072
G01 X12.3324 Y2.3114
G01 X12.4401 Y2.3425
G01 X12.4616 Y2.3500
G01 X12.5663 Y2.3934
G01 X12.5858 Y2.4028
G01 X12.6839 Y2.4570
G01 X12.7032 Y2.4692
G01 X12.7947 Y2.5340
G01 X12.8125 Y2.5483
G01 X12.8961 Y2.6230
G01 X12.9122 Y2.6391
G01 X12.9869 Y2.7227
G01 X13.0012 Y2.7405
G01 X13.0660 Y2.8320
G01 X13.0782 Y2.8513
G01 X13.1324 Y2.9494
G01 X13.1423 Y2.9700
G01 X13.1852 Y3.0736
G01 X13.1927 Y3.0951
G01 X13.2238 Y3.2028
G01 X13.2289 Y3.2250
G01 X13.2476 Y3.3356
G01 X13.2502 Y3.3582
G01 X13.2568 Y3.4816
G01 X13.2502 Y3.6050
G01 X13.2476 Y3.6276
G01 X13.2280 Y3.7427
G01 X13.2238 Y3.7604
G01 X13.1927 Y3.8681
G01 X13.1852 Y3.8896
G01 X13.1418 Y3.9943
G01 X13.1324 Y4.0138
G01 X13.0782 Y4.1119
G01 X13.0660 Y4.1312
G01 X13.0012 Y4.2227
G01 X12.9869 Y4.2405
G01 X12.9122 Y4.3241
G01 X12.8961 Y4.3402
G01 X12.8125 Y4.4149
G01 X12.7947 Y4.4292
G01 X12.7571 Y4.4559
G01 X12.7571 Y6.1366
G01 X12.8530 Y6.2325
G01 X16.0802 Y6.2325
G01 X16.4301 Y5.8826
G01 X16.4301 Y4.4559
G01 X16.3925 Y4.4292
G01 X16.3747 Y4.4149
G01 X16.2911 Y4.3402
G01 X16.2750 Y4.3241
G01 X16.2003 Y4.2405
G01 X16.1860 Y4.2227
G01 X16.1195 Y4.1289
G01 X16.1090 Y4.1119
G01 X16.0548 Y4.0138
G01 X16.0449 Y3.9932
G01 X16.0020 Y3.8896
G01 X15.9945 Y3.8681
G01 X15.9634 Y3.7604
G01 X15.9583 Y3.7382
G01 X15.9396 Y3.6276
G01 X15.9370 Y3.6050
G01 X15.9304 Y3.4816
G01 X15.9370 Y3.3582
G01 X15.9396 Y3.3356
G01 X15.9592 Y3.2205
G01 X15.9634 Y3.2028
G01 X15.9945 Y3.0951
G01 X16.0020 Y3.0736
G01 X16.0449 Y2.9700
G01 X16.0548 Y2.9494
G01 X16.1090 Y2.8513
G01 X16.1212 Y2.8320
G01 X16.1860 Y2.7405
G01 X16.2003 Y2.7227
G01 X16.2750 Y2.6391
G01 X16.2911 Y2.6230
G01 X16.3747 Y2.5483
G01 X16.3925 Y2.5340
G01 X16.4863 Y2.4675
G01 X16.5033 Y2.4570
G01 X16.6014 Y2.4028
G01 X16.6220 Y2.3929
G01 X16.7256 Y2.3500
G01 X16.7471 Y2.3425
G01 X16.8548 Y2.3114
G01 X16.8770 Y2.3063
G01 X16.9876 Y2.2876
G01 X17.0102 Y2.2850
G01 X17.1336 Y2.2784
G01 X17.2570 Y2.2850
G01 X17.2796 Y2.2876
G01 X17.3947 Y2.3072
G01 X17.4124 Y2.3114
G01 X17.5201 Y2.3425
G01 X17.5416 Y2.3500
G01 X17.6463 Y2.3934
G01 X17.6658 Y2.4028
G01 X17.7639 Y2.4570
G01 X17.7832 Y2.4692
G01 X17.8747 Y2.5340
G01 X17.8925 Y2.5483
G01 X17.9761 Y2.6230
G01 X17.9922 Y2.6391
G01 X18.0669 Y2.7227
G01 X18.0812 Y2.7405
G01 X18.1477 Y2.8343
G01 X18.1582 Y2.8513
G01 X18.2124 Y2.9494
G01 X18.2223 Y2.9700
G01 X18.2652 Y3.0736
G01 X18.2727 Y3.0951
G01 X18.3038 Y3.2028
G01 X18.3089 Y3.2250
G01 X18.3276 Y3.3356
G01 X18.3302 Y3.3582
G01 X18.3368 Y3.4816
G01 X18.3302 Y3.6050
G01 X18.3276 Y3.6276
G01 X18.3080 Y3.7427
G01 X18.3038 Y3.7604
G01 X18.2727 Y3.8681
G01 X18.2652 Y3.8896
G01 X18.2218 Y3.9943
G01 X18.2124 Y4.0138
G01 X18.1582 Y4.1119
G01 X18.1460 Y4.1312
G01 X18.0812 Y4.2227
G01 X18.0669 Y4.2405
G01 X17.9922 Y4.3241
G01 X17.9761 Y4.3402
G01 X17.8925 Y4.4149
G01 X17.8747 Y4.4292
G01 X17.8371 Y4.4559
G01 X17.8371 Y6.1740
G01 X17.8336 Y6.2414
G01 X17.8310 Y6.2640
G01 X17.8208 Y6.3239
G01 X17.8166 Y6.3416
G01 X17.8010 Y6.3955
G01 X17.7935 Y6.4170
G01 X17.7716 Y6.4699
G01 X17.7622 Y6.4893
G01 X17.7350 Y6.5384
G01 X17.7229 Y6.5577
G01 X17.6904 Y6.6035
G01 X17.6762 Y6.6213
G01 X17.6388 Y6.6631
G01 X16.8690 Y7.4334
G01 X16.8189 Y7.4786
G01 X16.8011 Y7.4928
G01 X16.7553 Y7.5253
G01 X16.7360 Y7.5374
G01 X16.6869 Y7.5646
G01 X16.6664 Y7.5744
G01 X16.6146 Y7.5959
G01 X16.5931 Y7.6034
G01 X16.5392 Y7.6190
G01 X16.5170 Y7.6240
G01 X16.4616 Y7.6334
G01 X16.4390 Y7.6360
G01 X16.3830 Y7.6391
G01 X12.8530 Y7.6395
G01 X11.6395 Y8.8530
G01 X11.6395 Y16.1725
G01 X11.6771 Y16.1992
G01 X11.6949 Y16.2135
G01 X11.7785 Y16.2882
G01 X11.7946 Y16.3043
G01 X11.8693 Y16.3879
G01 X11.8836 Y16.4057
G01 X11.9501 Y16.4995
G01 X11.9606 Y16.5165
G01 X12.0148 Y16.6146
G01 X12.0247 Y16.6352
G01 X12.0676 Y16.7388
G01 X12.0751 Y16.7603
G01 X12.1062 Y16.8680
G01 X12.1113 Y16.8902
G01 X12.1300 Y17.0008
G01 X12.1326 Y17.0234
G01 X12.1392 Y17.1468
G01 X12.1326 Y17.2702
G01 X12.1300 Y17.2928
G01 X12.1104 Y17.4079
G01 X12.1062 Y17.4256
G01 X12.0751 Y17.5333
G01 X12.0676 Y17.5548
G01 X12.0242 Y17.6595
G01 X12.0148 Y17.6790
G01 X11.9606 Y17.7771
G01 X11.9484 Y17.7964
G01 X11.8836 Y17.8879
G01 X11.8693 Y17.9057
G01 X11.7946 Y17.9893
G01 X11.7785 Y18.0054
G01 X11.6949 Y18.0801
G01 X11.6771 Y18.0944
G01 X11.6395 Y18.1211
G01 X11.6395 Y18.5590
G01 X12.8330 Y19.7525
G01 X15.9330 Y19.7529
G01 X15.9890 Y19.7560
G01 X16.0116 Y19.7586
G01 X16.0715 Y19.7688
G01 X16.0892 Y19.7730
G01 X16.1431 Y19.7886
G01 X16.1646 Y19.7961
G01 X16.2175 Y19.8180
G01 X16.2369 Y19.8274
G01 X16.2860 Y19.8546
G01 X16.3053 Y19.8667
G01 X16.3511 Y19.8992
G01 X16.3689 Y19.9134
G01 X16.4190 Y19.9586
G01 X20.1850 Y23.7245
G01 X23.1752 Y23.7245
G01 X23.1889 Y23.7108
G01 X23.2558 Y23.6510
G01 X23.2736 Y23.6368
G01 X23.3491 Y23.5833
G01 X23.3661 Y23.5728
G01 X23.4446 Y23.5294
G01 X23.4651 Y23.5195
G01 X23.5480 Y23.4852
G01 X23.5695 Y23.4776
G01 X23.6557 Y23.4528
G01 X23.6779 Y23.4477
G01 X23.7664 Y23.4327
G01 X23.7890 Y23.4301
G01 X23.8900 Y23.4248
G01 X23.9910 Y23.4301
G01 X24.0136 Y23.4327
G01 X24.1066 Y23.4485
G01 X24.1243 Y23.4528
G01 X24.2105 Y23.4776
G01 X24.2320 Y23.4852
G01 X24.3160 Y23.5199
G01 X24.3354 Y23.5294
G01 X24.4139 Y23.5728
G01 X24.4332 Y23.5849
G01 X24.5064 Y23.6368
G01 X24.5242 Y23.6510
G01 X24.5911 Y23.7108
G01 X24.6072 Y23.7269
G01 X24.6670 Y23.7938
G01 X24.6812 Y23.8116
G01 X24.7347 Y23.8871
G01 X24.7452 Y23.9041
G01 X24.7886 Y23.9826
G01 X24.7985 Y24.0031
G01 X24.8328 Y24.0860
G01 X24.8404 Y24.1075
G01 X24.8652 Y24.1937
G01 X24.8703 Y24.2159
G01 X24.8853 Y24.3044
G01 X24.8879 Y24.3270
G01 X24.8932 Y24.4280
G01 X24.8879 Y24.5290
G01 X24.8853 Y24.5516
G01 X24.8695 Y24.6446
G01 X24.8652 Y24.6623
G01 X24.8404 Y24.7485
G01 X24.8328 Y24.7700
G01 X24.7981 Y24.8540
G01 X24.7886 Y24.8734
G01 X24.7452 Y24.9519
G01 X24.7331 Y24.9712
G01 X24.6812 Y25.0444
G01 X24.6670 Y25.0622
G01 X24.6072 Y25.1291
G01 X24.5935 Y25.1428
G01 X24.5935 Y26.7976
G01 X24.5900 Y26.8650
G01 X24.5874 Y26.8876
G01 X24.5772 Y26.9475
G01 X24.5730 Y26.9652
G01 X24.5574 Y27.0191
G01 X24.5499 Y27.0406
G01 X24.5280 Y27.0935
G01 X24.5186 Y27.1129
G01 X24.4914 Y27.1620
G01 X24.4793 Y27.1813
G01 X24.4468 Y27.2271
G01 X24.4326 Y27.2449
G01 X24.3952 Y27.2867
G01 X24.3207 Y27.3612
G01 X24.2789 Y27.3986
G01 X24.2611 Y27.4128
G01 X24.2130 Y27.4469
G01 X24.1960 Y27.4574
G01 X24.1469 Y27.4846
G01 X24.1264 Y27.4944
G01 X24.0746 Y27.5159
G01 X24.0531 Y27.5234
G01 X23.9992 Y27.5390
G01 X23.9770 Y27.5440
G01 X23.9216 Y27.5534
G01 X23.8990 Y27.5560
G01 X23.8316 Y27.5595
G01 X21.7930 Y27.5595
G01 X21.5455 Y27.8070
G01 X21.5455 Y38.0436
G01 X21.6138 Y38.1047
G01 X21.6299 Y38.1208
G01 X21.6972 Y38.1960
G01 X21.7114 Y38.2139
G01 X21.7714 Y38.2985
G01 X21.7819 Y38.3155
G01 X21.8307 Y38.4038
G01 X21.8406 Y38.4243
G01 X21.8792 Y38.5176
G01 X21.8868 Y38.5391
G01 X21.9147 Y38.6361
G01 X21.9198 Y38.6583
G01 X21.9367 Y38.7578
G01 X21.9392 Y38.7804
G01 X21.9452 Y38.8926
G01 X21.9452 Y39.2922
G01 X21.9392 Y39.4044
G01 X21.9367 Y39.4270
G01 X21.9189 Y39.5310
G01 X21.9147 Y39.5487
G01 X21.8868 Y39.6457
G01 X21.8792 Y39.6672
G01 X21.8401 Y39.7616
G01 X21.8307 Y39.7810
G01 X21.7819 Y39.8693
G01 X21.7698 Y39.8886
G01 X21.7114 Y39.9709
G01 X21.6972 Y39.9888
G01 X21.6299 Y40.0640
G01 X21.6138 Y40.0801
G01 X21.5455 Y40.1412
G01 X21.5455 Y47.5506
G01 X21.5420 Y47.6180
G01 X21.5394 Y47.6406
G01 X21.5300 Y47.6960
G01 X21.5250 Y47.7182
G01 X21.5094 Y47.7721
G01 X21.5019 Y47.7936
G01 X21.4800 Y47.8465
G01 X21.4706 Y47.8659
G01 X21.4434 Y47.9150
G01 X21.4313 Y47.9343
G01 X21.3988 Y47.9801
G01 X21.3846 Y47.9979
G01 X21.3394 Y48.0480
G01 X19.4090 Y49.9784
G01 X19.3589 Y50.0236
G01 X19.3411 Y50.0378
G01 X19.2930 Y50.0719
G01 X19.2760 Y50.0824
G01 X19.2269 Y50.1096
G01 X19.2064 Y50.1194
G01 X19.1546 Y50.1409
G01 X19.1331 Y50.1484
G01 X19.0792 Y50.1640
G01 X19.0570 Y50.1690
G01 X19.0016 Y50.1784
G01 X18.9790 Y50.1810
G01 X18.9230 Y50.1841
G01 X18.9002 Y50.1841
G01 X18.8442 Y50.1810
G01 X18.8216 Y50.1784
G01 X18.7662 Y50.1690
G01 X18.7440 Y50.1640
G01 X18.6901 Y50.1484
G01 X18.6686 Y50.1409
G01 X18.6157 Y50.1190
G01 X18.5963 Y50.1096
G01 X18.5472 Y50.0824
G01 X18.5279 Y50.0703
G01 X18.4821 Y50.0378
G01 X18.4643 Y50.0236
G01 X18.4225 Y49.9862
G01 X18.4064 Y49.9701
G01 X18.3690 Y49.9283
G01 X18.3548 Y49.9105
G01 X18.3207 Y49.8624
G01 X18.3102 Y49.8454
G01 X18.2830 Y49.7963
G01 X18.2732 Y49.7758
G01 X18.2517 Y49.7240
G01 X18.2442 Y49.7025
G01 X18.2286 Y49.6486
G01 X18.2236 Y49.6264
G01 X18.2142 Y49.5710
G01 X18.2116 Y49.5484
G01 X18.2085 Y49.4924
G01 X18.2085 Y49.4696
G01 X18.2116 Y49.4136
G01 X18.2142 Y49.3910
G01 X18.2244 Y49.3311
G01 X18.2286 Y49.3134
G01 X18.2442 Y49.2595
G01 X18.2517 Y49.2380
G01 X18.2736 Y49.1851
G01 X18.2830 Y49.1657
G01 X18.3102 Y49.1166
G01 X18.3223 Y49.0973
G01 X18.3548 Y49.0515
G01 X18.3690 Y49.0337
G01 X18.4142 Y48.9836
G01 X20.1385 Y47.2592
G01 X20.1385 Y40.1412
G01 X20.0702 Y40.0801
G01 X20.0541 Y40.0640
G01 X19.9868 Y39.9888
G01 X19.9726 Y39.9709
G01 X19.9126 Y39.8863
G01 X19.9021 Y39.8693
G01 X19.8533 Y39.7810
G01 X19.8434 Y39.7605
G01 X19.8048 Y39.6672
G01 X19.7972 Y39.6457
G01 X19.7693 Y39.5487
G01 X19.7642 Y39.5265
G01 X19.7473 Y39.4270
G01 X19.7448 Y39.4044
G01 X19.7388 Y39.2922
G01 X19.7388 Y38.8926
G01 X19.7448 Y38.7804
G01 X19.7473 Y38.7578
G01 X19.7651 Y38.6538
G01 X19.7693 Y38.6361
G01 X19.7972 Y38.5391
G01 X19.8048 Y38.5176
G01 X19.8439 Y38.4232
G01 X19.8533 Y38.4038
G01 X19.9021 Y38.3155
G01 X19.9142 Y38.2962
G01 X19.9726 Y38.2139
G01 X19.9868 Y38.1960
G01 X20.0541 Y38.1208
G01 X20.0702 Y38.1047
G01 X20.1385 Y38.0436
G01 X20.1385 Y27.5156
G01 X20.1420 Y27.4482
G01 X20.1446 Y27.4256
G01 X20.1548 Y27.3657
G01 X20.1590 Y27.3480
G01 X20.1746 Y27.2941
G01 X20.1821 Y27.2726
G01 X20.2040 Y27.2197
G01 X20.2134 Y27.2003
G01 X20.2406 Y27.1512
G01 X20.2527 Y27.1319
G01 X20.2852 Y27.0861
G01 X20.2994 Y27.0683
G01 X20.3446 Y27.0182
G01 X21.0125 Y26.3508
G01 X21.0543 Y26.3134
G01 X21.0721 Y26.2992
G01 X21.1202 Y26.2651
G01 X21.1372 Y26.2546
G01 X21.1863 Y26.2274
G01 X21.2068 Y26.2176
G01 X21.2586 Y26.1961
G01 X21.2801 Y26.1886
G01 X21.3340 Y26.1730
G01 X21.3562 Y26.1680
G01 X21.4116 Y26.1586
G01 X21.4342 Y26.1560
G01 X21.4902 Y26.1529
G01 X23.1865 Y26.1525
G01 X23.1865 Y25.1428
G01 X23.1752 Y25.1315
G01 X19.8936 Y25.1315
G01 X19.8262 Y25.1280
G01 X19.8036 Y25.1254
G01 X19.7438 Y25.1152
G01 X19.7260 Y25.1110
G01 X19.6721 Y25.0954
G01 X19.6506 Y25.0879
G01 X19.5977 Y25.0660
G01 X19.5783 Y25.0566
G01 X19.5292 Y25.0294
G01 X19.5099 Y25.0173
G01 X19.4641 Y24.9848
G01 X19.4463 Y24.9706
G01 X19.3962 Y24.9254
G01 X15.6302 Y21.1595
G01 X12.5416 Y21.1595
G01 X12.4742 Y21.1560
G01 X12.4516 Y21.1534
G01 X12.3962 Y21.1440
G01 X12.3740 Y21.1390
G01 X12.3201 Y21.1234
G01 X12.2986 Y21.1159
G01 X12.2457 Y21.0940
G01 X12.2263 Y21.0846
G01 X12.1772 Y21.0574
G01 X12.1579 Y21.0453
G01 X12.1121 Y21.0128
G01 X12.0943 Y20.9986
G01 X12.0442 Y20.9534
G01 X10.4308 Y19.3395
G01 X10.3934 Y19.2977
G01 X10.3792 Y19.2799
G01 X10.3467 Y19.2341
G01 X10.3346 Y19.2148
G01 X10.3074 Y19.1657
G01 X10.2976 Y19.1452
G01 X10.2761 Y19.0934
G01 X10.2686 Y19.0719
G01 X10.2530 Y19.0180
G01 X10.2480 Y18.9958
G01 X10.2386 Y18.9404
G01 X10.2360 Y18.9178
G01 X10.2325 Y18.8504
G01 X10.2325 Y18.1211
G01 X10.1949 Y18.0944
G01 X10.1771 Y18.0801
G01 X10.0935 Y18.0054
G01 X10.0774 Y17.9893
G01 X10.0027 Y17.9057
G01 X9.9884 Y17.8879
G01 X9.9219 Y17.7941
G01 X9.9114 Y17.7771
G01 X9.8572 Y17.6790
G01 X9.8473 Y17.6584
G01 X9.8044 Y17.5548
G01 X9.7969 Y17.5333
G01 X9.7658 Y17.4256
G01 X9.7607 Y17.4034
G01 X9.7420 Y17.2928
G01 X9.7394 Y17.2702
G01 X9.7328 Y17.1468
G01 X9.7394 Y17.0234
G01 X9.7420 Y17.0008
G01 X9.7616 Y16.8857
G01 X9.7658 Y16.8680
G01 X9.7969 Y16.7603
G01 X9.8044 Y16.7388
G01 X9.8478 Y16.6341
G01 X9.8572 Y16.6146
G01 X9.9114 Y16.5165
G01 X9.9236 Y16.4972
G01 X9.9884 Y16.4057
G01 X10.0027 Y16.3879
G01 X10.0774 Y16.3043
G01 X10.0935 Y16.2882
G01 X10.1771 Y16.2135
G01 X10.1949 Y16.1992
G01 X10.2325 Y16.1725
G01 X10.2325 Y8.5616
G01 X10.2360 Y8.4942
G01 X10.2386 Y8.4716
G01 X10.2488 Y8.4118
G01 X10.2530 Y8.3940
G01 X10.2686 Y8.3401
G01 X10.2761 Y8.3186
G01 X10.2980 Y8.2657
G01 X10.3074 Y8.2463
G01 X10.3346 Y8.1972
G01 X10.3467 Y8.1779
G01 X10.3792 Y8.1321
G01 X10.3934 Y8.1143
G01 X10.4386 Y8.0642
G01 X11.5668 Y6.9360
G01 X11.5484 Y6.9171
G01 X11.5110 Y6.8753
G01 X11.4968 Y6.8575
G01 X11.4627 Y6.8094
G01 X11.4522 Y6.7924
G01 X11.4250 Y6.7433
G01 X11.4152 Y6.7228
G01 X11.3937 Y6.6710
G01 X11.3862 Y6.6495
G01 X11.3706 Y6.5956
G01 X11.3656 Y6.5734
G01 X11.3562 Y6.5180
G01 X11.3536 Y6.4954
G01 X11.3501 Y6.4280
G01 X11.3501 Y4.4559
G01 X11.3125 Y4.4292
G01 X11.2947 Y4.4149
G01 X11.2111 Y4.3402
G01 X11.1950 Y4.3241
G01 X11.1203 Y4.2405
G01 X11.1060 Y4.2227
G01 X11.0793 Y4.1851
G01 X10.4879 Y4.1851
G01 X10.4612 Y4.2227
G01 X10.4469 Y4.2405
G01 X10.3722 Y4.3241
G01 X10.3561 Y4.3402
G01 X10.2725 Y4.4149
G01 X10.2547 Y4.4292
G01 X10.2171 Y4.4559
G01 X10.2171 Y6.1740
G01 X10.2136 Y6.2414
G01 X10.2110 Y6.2640
G01 X10.2016 Y6.3194
G01 X10.1966 Y6.3416
G01 X10.1810 Y6.3955
G01 X10.1735 Y6.4170
G01 X10.1516 Y6.4699
G01 X10.1422 Y6.4893
G01 X10.1150 Y6.5384
G01 X10.1029 Y6.5577
G01 X10.0704 Y6.6035
G01 X10.0562 Y6.6213
G01 X10.0110 Y6.6714
G01 X9.2490 Y7.4334
G01 X9.1989 Y7.4786
G01 X9.1811 Y7.4928
G01 X9.1330 Y7.5269
G01 X9.1160 Y7.5374
G01 X9.0669 Y7.5646
G01 X9.0464 Y7.5744
G01 X8.9946 Y7.5959
G01 X8.9731 Y7.6034
G01 X8.9192 Y7.6190
G01 X8.8970 Y7.6240
G01 X8.8416 Y7.6334
G01 X8.8190 Y7.6360
G01 X8.7516 Y7.6395
G01 X4.9416 Y7.6395
G01 X4.8742 Y7.6360
G01 X4.8516 Y7.6334
G01 X4.7917 Y7.6232
G01 X4.7740 Y7.6190
G01 X4.7201 Y7.6034
G01 X4.6986 Y7.5959
G01 X4.6457 Y7.5740
G01 X4.6263 Y7.5646
G01 X4.5772 Y7.5374
G01 X4.5579 Y7.5253
G01 X4.5121 Y7.4928
G01 X4.4943 Y7.4786
G01 X4.4442 Y7.4334
G01 X3.9362 Y6.9254
G01 X3.8910 Y6.8753
G01 X3.8768 Y6.8575
G01 X3.8443 Y6.8117
G01 X3.8322 Y6.7924
G01 X3.8050 Y6.7433
G01 X3.7952 Y6.7228
G01 X3.7737 Y6.6710
G01 X3.7662 Y6.6495
G01 X3.7506 Y6.5956
G01 X3.7456 Y6.5734
G01 X3.7362 Y6.5180
G01 X3.7336 Y6.4954
G01 X3.7301 Y6.4280
G01 X3.7301 Y4.4559
G01 X3.6925 Y4.4292
G01 X3.6747 Y4.4149
G01 X3.5911 Y4.3402
G01 X3.5750 Y4.3241
G01 X3.5003 Y4.2405
G01 X3.4860 Y4.2227
G01 X3.4195 Y4.1289
G01 X3.4090 Y4.1119
G01 X3.3548 Y4.0138
G01 X3.3449 Y3.9932
G01 X3.3020 Y3.8896
G01 X3.2945 Y3.8681
G01 X3.2634 Y3.7604
G01 X3.2583 Y3.7382
G01 X3.2396 Y3.6276
G01 X3.2370 Y3.6050
G01 X3.2304 Y3.4816
G01 X3.2374 Y3.3583
G00 Z2.5400
G00 X5.7774 Y3.3583
G01 F76.20
G01 Z-0.2000
G01 F76.20
G01 X5.7796 Y3.3356
G01 X5.7983 Y3.2250
G01 X5.8034 Y3.2028
G01 X5.8345 Y3.0951
G01 X5.8420 Y3.0736
G01 X5.8854 Y2.9689
G01 X5.8948 Y2.9494
G01 X5.9490 Y2.8513
G01 X5.9612 Y2.8320
G01 X6.0260 Y2.7405
G01 X6.0403 Y2.7227
G01 X6.1150 Y2.6391
G01 X6.1311 Y2.6230
G01 X6.2147 Y2.5483
G01 X6.2325 Y2.5340
G01 X6.3263 Y2.4675
G01 X6.3433 Y2.4570
G01 X6.4414 Y2.4028
G01 X6.4620 Y2.3929
G01 X6.5656 Y2.3500
G01 X6.5871 Y2.3425
G01 X6.6948 Y2.3114
G01 X6.7170 Y2.3063
G01 X6.8276 Y2.2876
G01 X6.8502 Y2.2850
G01 X6.9736 Y2.2784
G01 X7.0970 Y2.2850
G01 X7.1196 Y2.2876
G01 X7.2302 Y2.3063
G01 X7.2524 Y2.3114
G01 X7.3601 Y2.3425
G01 X7.3816 Y2.3500
G01 X7.4863 Y2.3934
G01 X7.5058 Y2.4028
G01 X7.6039 Y2.4570
G01 X7.6232 Y2.4692
G01 X7.7147 Y2.5340
G01 X7.7325 Y2.5483
G01 X7.8161 Y2.6230
G01 X7.8322 Y2.6391
G01 X7.9069 Y2.7227
G01 X7.9212 Y2.7405
G01 X7.9877 Y2.8343
G01 X7.9982 Y2.8513
G01 X8.0524 Y2.9494
G01 X8.0623 Y2.9700
G01 X8.1052 Y3.0736
G01 X8.1127 Y3.0951
G01 X8.1438 Y3.2028
G01 X8.1489 Y3.2250
G01 X8.1676 Y3.3356
G01 X8.1702 Y3.3582
G01 X8.1768 Y3.4816
G01 X8.1702 Y3.6050
G01 X8.1676 Y3.6276
G01 X8.1489 Y3.7382
G01 X8.1438 Y3.7604
G01 X8.1127 Y3.8681
G01 X8.1052 Y3.8896
G01 X8.0618 Y3.9943
G01 X8.0524 Y4.0138
G01 X7.9982 Y4.1119
G01 X7.9860 Y4.1312
G01 X7.9212 Y4.2227
G01 X7.9069 Y4.2405
G01 X7.8322 Y4.3241
G01 X7.8161 Y4.3402
G01 X7.7325 Y4.4149
G01 X7.7147 Y4.4292
G01 X7.6209 Y4.4957
G01 X7.6039 Y4.5062
G01 X7.5058 Y4.5604
G01 X7.4852 Y4.5703
G01 X7.3816 Y4.6132
G01 X7.3601 Y4.6207
G01 X7.2524 Y4.6518
G01 X7.2302 Y4.6569
G01 X7.1196 Y4.6756
G01 X7.0970 Y4.6782
G01 X6.9736 Y4.6848
G01 X6.8502 Y4.6782
G01 X6.8276 Y4.6756
G01 X6.7170 Y4.6569
G01 X6.6948 Y4.6518
G01 X6.5871 Y4.6207
G01 X6.5656 Y4.6132
G01 X6.4609 Y4.5698
G01 X6.4414 Y4.5604
G01 X6.3433 Y4.5062
G01 X6.3240 Y4.4940
G01 X6.2325 Y4.4292
G01 X6.2147 Y4.4149
G01 X6.1311 Y4.3402
G01 X6.1150 Y4.3241
G01 X6.0403 Y4.2405
G01 X6.0260 Y4.2227
G01 X5.9595 Y4.1289
G01 X5.9490 Y4.1119
G01 X5.8948 Y4.0138
G01 X5.8849 Y3.9932
G01 X5.8420 Y3.8896
G01 X5.8345 Y3.8681
G01 X5.8034 Y3.7604
G01 X5.7983 Y3.7382
G01 X5.7796 Y3.6276
G01 X5.7770 Y3.6050
G01 X5.7704 Y3.4816
G01 X5.7774 Y3.3583
G00 Z2.5400
G00 X13.3974 Y3.3583
G01 F76.20
G01 Z-0.2000
G01 F76.20
G01 X13.3996 Y3.3356
G01 X13.4183 Y3.2250
G01 X13.4234 Y3.2028
G01 X13.4545 Y3.0951
G01 X13.4620 Y3.0736
G01 X13.5054 Y2.9689
G01 X13.5148 Y2.9494
G01 X13.5690 Y2.8513
G01 X13.5812 Y2.8320
G01 X13.6460 Y2.7405
G01 X13.6603 Y2.7227
G01 X13.7350 Y2.6391
G01 X13.7511 Y2.6230
G01 X13.8347 Y2.5483
G01 X13.8525 Y2.5340
G01 X13.9463 Y2.4675
G01 X13.9633 Y2.4570
G01 X14.0614 Y2.4028
G01 X14.0820 Y2.3929
G01 X14.1856 Y2.3500
G01 X14.2071 Y2.3425
G01 X14.3148 Y2.3114
G01 X14.3370 Y2.3063
G01 X14.4476 Y2.2876
G01 X14.4702 Y2.2850
G01 X14.5936 Y2.2784
G01 X14.7170 Y2.2850
G01 X14.7396 Y2.2876
G01 X14.8502 Y2.3063
G01 X14.8724 Y2.3114
G01 X14.9801 Y2.3425
G01 X15.0016 Y2.3500
G01 X15.1063 Y2.3934
G01 X15.1258 Y2.4028
G01 X15.2239 Y2.4570
G01 X15.2432 Y2.4692
G01 X15.3347 Y2.5340
G01 X15.3525 Y2.5483
G01 X15.4361 Y2.6230
G01 X15.4522 Y2.6391
G01 X15.5269 Y2.7227
G01 X15.5412 Y2.7405
G01 X15.6077 Y2.8343
G01 X15.6182 Y2.8513
G01 X15.6724 Y2.9494
G01 X15.6823 Y2.9700
G01 X15.7252 Y3.0736
G01 X15.7327 Y3.0951
G01 X15.7638 Y3.2028
G01 X15.7689 Y3.2250
G01 X15.7876 Y3.3356
G01 X15.7902 Y3.3582
G01 X15.7968 Y3.4816
G01 X15.7902 Y3.6050
G01 X15.7876 Y3.6276
G01 X15.7689 Y3.7382
G01 X15.7638 Y3.7604
G01 X15.7327 Y3.8681
G01 X15.7252 Y3.8896
G01 X15.6818 Y3.9943
G01 X15.6724 Y4.0138
G01 X15.6182 Y4.1119
G01 X15.6060 Y4.1312
G01 X15.5412 Y4.2227
G01 X15.5269 Y4.2405
G01 X15.4522 Y4.3241
G01 X15.4361 Y4.3402
G01 X15.3525 Y4.4149
G01 X15.3347 Y4.4292
G01 X15.2409 Y4.4957
G01 X15.2239 Y4.5062
G01 X15.1258 Y4.5604
G01 X15.1052 Y4.5703
G01 X15.0016 Y4.6132
G01 X14.9801 Y4.6207
G01 X14.8724 Y4.6518
G01 X14.8502 Y4.6569
G01 X14.7396 Y4.6756
G01 X14.7170 Y4.6782
G01 X14.5936 Y4.6848
G01 X14.4702 Y4.6782
G01 X14.4476 Y4.6756
G01 X14.3370 Y4.6569
G01 X14.3148 Y4.6518
G01 X14.2071 Y4.6207
G01 X14.1856 Y4.6132
G01 X14.0809 Y4.5698
G01 X14.0614 Y4.5604
G01 X13.9633 Y4.5062
G01 X13.9440 Y4.4940
G01 X13.8525 Y4.4292
G01 X13.8347 Y4.4149
G01 X13.7511 Y4.3402
G01 X13.7350 Y4.3241
G01 X13.6603 Y4.2405
G01 X13.6460 Y4.2227
G01 X13.5795 Y4.1289
G01 X13.5690 Y4.1119
G01 X13.5148 Y4.0138
G01 X13.5049 Y3.9932
G01 X13.4620 Y3.8896
G01 X13.4545 Y3.8681
G01 X13.4234 Y3.7604
G01 X13.4183 Y3.7382
G01 X13.3996 Y3.6276
G01 X13.3970 Y3.6050
G01 X13.3904 Y3.4816
G01 X13.3974 Y3.3583
G00 Z2.5400
G00 X18.4774 Y3.3583
G01 F76.20
G01 Z-0.2000
G01 F76.20
G01 X18.4796 Y3.3356
G01 X18.4983 Y3.2250
G01 X18.5034 Y3.2028
G01 X18.5345 Y3.0951
G01 X18.5420 Y3.0736
G01 X18.5854 Y2.9689
G01 X18.5948 Y2.9494
G01 X18.6490 Y2.8513
G01 X18.6612 Y2.8320
G01 X18.7260 Y2.7405
G01 X18.7403 Y2.7227
G01 X18.8150 Y2.6391
G01 X18.8311 Y2.6230
G01 X18.9147 Y2.5483
G01 X18.9325 Y2.5340
G01 X19.0263 Y2.4675
G01 X19.0433 Y2.4570
G01 X19.1414 Y2.4028
G01 X19.1620 Y2.3929
G01 X19.2656 Y2.3500
G01 X19.2871 Y2.3425
G01 X19.3948 Y2.3114
G01 X19.4170 Y2.3063
G01 X19.5276 Y2.2876
G01 X19.5502 Y2.2850
G01 X19.6736 Y2.2784
G01 X19.7970 Y2.2850
G01 X19.8196 Y2.2876
G01 X19.9302 Y2.3063
G01 X19.9524 Y2.3114
G01 X20.0601 Y2.3425
G01 X20.0816 Y2.3500
G01 X20.1863 Y2.3934
G01 X20.2058 Y2.4028
G01 X20.3039 Y2.4570
G01 X20.3232 Y2.4692
G01 X20.4147 Y2.5340
G01 X20.4325 Y2.5483
G01 X20.5161 Y2.6230
G01 X20.5322 Y2.6391
G01 X20.6069 Y2.7227
G01 X20.6212 Y2.7405
G01 X20.6877 Y2.8343
G01 X20.6982 Y2.8513
G01 X20.7524 Y2.9494
G01 X20.7623 Y2.9700
G01 X20.8052 Y3.0736
G01 X20.8127 Y3.0951
G01 X20.8438 Y3.2028
G01 X20.8489 Y3.2250
G01 X20.8676 Y3.3356
G01 X20.8702 Y3.3582
G01 X20.8768 Y3.4816
G01 X20.8702 Y3.6050
G01 X20.8676 Y3.6276
G01 X20.8489 Y3.7382
G01 X20.8438 Y3.7604
G01 X20.8127 Y3.8681
G01 X20.8052 Y3.8896
G01 X20.7618 Y3.9943
G01 X20.7524 Y4.0138
G01 X20.6982 Y4.1119
G01 X20.6860 Y4.1312
G01 X20.6212 Y4.2227
G01 X20.6069 Y4.2405
G01 X20.5322 Y4.3241
G01 X20.5161 Y4.3402
G01 X20.4325 Y4.4149
G01 X20.4147 Y4.4292
G01 X20.3209 Y4.4957
G01 X20.3039 Y4.5062
G01 X20.2058 Y4.5604
G01 X20.1852 Y4.5703
G01 X20.0816 Y4.6132
G01 X20.0601 Y4.6207
G01 X19.9524 Y4.6518
G01 X19.9302 Y4.6569
G01 X19.8196 Y4.6756
G01 X19.7970 Y4.6782
G01 X19.6736 Y4.6848
G01 X19.5502 Y4.6782
G01 X19.5276 Y4.6756
G01 X19.4170 Y4.6569
G01 X19.3948 Y4.6518
G01 X19.2871 Y4.6207
G01 X19.2656 Y4.6132
G01 X19.1609 Y4.5698
G01 X19.1414 Y4.5604
G01 X19.0433 Y4.5062
G01 X19.0240 Y4.4940
G01 X18.9325 Y4.4292
G01 X18.9147 Y4.4149
G01 X18.8311 Y4.3402
G01 X18.8150 Y4.3241
G01 X18.7403 Y4.2405
G01 X18.7260 Y4.2227
G01 X18.6595 Y4.1289
G01 X18.6490 Y4.1119
G01 X18.5948 Y4.0138
G01 X18.5849 Y3.9932
G01 X18.5420 Y3.8896
G01 X18.5345 Y3.8681
G01 X18.5034 Y3.7604
G01 X18.4983 Y3.7382
G01 X18.4796 Y3.6276
G01 X18.4770 Y3.6050
G01 X18.4704 Y3.4816
G01 X18.4774 Y3.3583
G00 Z2.5400
G00 X22.8925 Y6.3271
G01 F76.20
G01 Z-0.2000
G01 F76.20
G01 X22.8947 Y6.3044
G01 X22.9105 Y6.2114
G01 X22.9148 Y6.1937
G01 X22.9396 Y6.1075
G01 X22.9472 Y6.0860
G01 X22.9819 Y6.0020
G01 X22.9914 Y5.9826
G01 X23.0348 Y5.9041
G01 X23.0469 Y5.8848
G01 X23.0988 Y5.8116
G01 X23.1130 Y5.7938
G01 X23.1728 Y5.7269
G01 X23.1889 Y5.7108
G01 X23.2558 Y5.6510
G01 X23.2736 Y5.6368
G01 X23.3491 Y5.5833
G01 X23.3661 Y5.5728
G01 X23.4446 Y5.5294
G01 X23.4651 Y5.5195
G01 X23.5480 Y5.4852
G01 X23.5695 Y5.4776
G01 X23.6557 Y5.4528
G01 X23.6779 Y5.4477
G01 X23.7664 Y5.4327
G01 X23.7890 Y5.4301
G01 X23.8900 Y5.4248
G01 X23.9910 Y5.4301
G01 X24.0136 Y5.4327
G01 X24.1066 Y5.4485
G01 X24.1243 Y5.4528
G01 X24.2105 Y5.4776
G01 X24.2320 Y5.4852
G01 X24.3160 Y5.5199
G01 X24.3354 Y5.5294
G01 X24.4139 Y5.5728
G01 X24.4332 Y5.5849
G01 X24.5064 Y5.6368
G01 X24.5242 Y5.6510
G01 X24.5911 Y5.7108
G01 X24.6072 Y5.7269
G01 X24.6670 Y5.7938
G01 X24.6812 Y5.8116
G01 X24.7347 Y5.8871
G01 X24.7452 Y5.9041
G01 X24.7886 Y5.9826
G01 X24.7985 Y6.0031
G01 X24.8328 Y6.0860
G01 X24.8404 Y6.1075
G01 X24.8652 Y6.1937
G01 X24.8703 Y6.2159
G01 X24.8853 Y6.3044
G01 X24.8879 Y6.3270
G01 X24.8932 Y6.4280
G01 X24.8879 Y6.5290
G01 X24.8853 Y6.5516
G01 X24.8695 Y6.6446
G01 X24.8652 Y6.6623
G01 X24.8404 Y6.7485
G01 X24.8328 Y6.7700
G01 X24.7981 Y6.8540
G01 X24.7886 Y6.8734
G01 X24.7452 Y6.9519
G01 X24.7331 Y6.9712
G01 X24.6812 Y7.0444
G01 X24.6670 Y7.0622
G01 X24.6072 Y7.1291
G01 X24.5911 Y7.1452
G01 X24.5242 Y7.2050
G01 X24.5064 Y7.2192
G01 X24.4309 Y7.2727
G01 X24.4139 Y7.2832
G01 X24.3354 Y7.3266
G01 X24.3149 Y7.3365
G01 X24.2320 Y7.3708
G01 X24.2105 Y7.3784
G01 X24.1243 Y7.4032
G01 X24.1021 Y7.4083
G01 X24.0136 Y7.4233
G01 X23.9910 Y7.4259
G01 X23.9527 Y7.4280
G01 X23.9910 Y7.4301
G01 X24.0136 Y7.4327
G01 X24.1066 Y7.4485
G01 X24.1243 Y7.4528
G01 X24.2105 Y7.4776
G01 X24.2320 Y7.4852
G01 X24.3160 Y7.5199
G01 X24.3354 Y7.5294
G01 X24.4139 Y7.5728
G01 X24.4332 Y7.5849
G01 X24.5064 Y7.6368
G01 X24.5242 Y7.6510
G01 X24.5911 Y7.7108
G01 X24.6072 Y7.7269
G01 X24.6670 Y7.7938
G01 X24.6812 Y7.8116
G01 X24.7347 Y7.8871
G01 X24.7452 Y7.9041
G01 X24.7886 Y7.9826
G01 X24.7985 Y8.0031
G01 X24.8328 Y8.0860
G01 X24.8404 Y8.1075
G01 X24.8652 Y8.1937
G01 X24.8703 Y8.2159
G01 X24.8853 Y8.3044
G01 X24.8879 Y8.3270
G01 X24.8929 Y8.4166
G01 X24.8929 Y8.4394
G01 X24.8879 Y8.5290
G01 X24.8853 Y8.5516
G01 X24.8703 Y8.6401
G01 X24.8652 Y8.6623
G01 X24.8404 Y8.7485
G01 X24.8328 Y8.7700
G01 X24.7981 Y8.8540
G01 X24.7886 Y8.8734
G01 X24.7452 Y8.9519
G01 X24.7331 Y8.9712
G01 X24.6812 Y9.0444
G01 X24.6670 Y9.0622
G01 X24.6072 Y9.1291
G01 X24.5911 Y9.1452
G01 X24.5242 Y9.2050
G01 X24.5064 Y9.2192
G01 X24.4309 Y9.2727
G01 X24.4139 Y9.2832
G01 X24.3354 Y9.3266
G01 X24.3149 Y9.3365
G01 X24.2320 Y9.3708
G01 X24.2105 Y9.3784
G01 X24.1243 Y9.4032
G01 X24.1021 Y9.4083
G01 X24.0136 Y9.4233
G01 X23.9910 Y9.4259
G01 X23.9527 Y9.4280
G01 X23.9910 Y9.4301
G01 X24.0136 Y9.4327
G01 X24.1066 Y9.4485
G01 X24.1243 Y9.4528
G01 X24.2105 Y9.4776
G01 X24.2320 Y9.4852
G01 X24.3160 Y9.5199
G01 X24.3354 Y9.5294
G01 X24.4139 Y9.5728
G01 X24.4332 Y9.5849
G01 X24.5064 Y9.6368
G01 X24.5242 Y9.6510
G01 X24.5911 Y9.7108
G01 X24.6072 Y9.7269
G01 X24.6670 Y9.7938
G01 X24.6812 Y9.8116
G01 X24.7347 Y9.8871
G01 X24.7452 Y9.9041
G01 X24.7886 Y9.9826
G01 X24.7985 Y10.0031
G01 X24.8328 Y10.0860
G01 X24.8404 Y10.1075
G01 X24.8652 Y10.1937
G01 X24.8703 Y10.2159
G01 X24.8853 Y10.3044
G01 X24.8879 Y10.3270
G01 X24.8932 Y10.4280
G01 X24.8879 Y10.5290
G01 X24.8853 Y10.5516
G01 X24.8695 Y10.6446
G01 X24.8652 Y10.6623
G01 X24.8404 Y10.7485
G01 X24.8328 Y10.7700
G01 X24.7981 Y10.8540
G01 X24.7886 Y10.8734
G01 X24.7452 Y10.9519
G01 X24.7331 Y10.9712
G01 X24.6812 Y11.0444
G01 X24.6670 Y11.0622
G01 X24.6072 Y11.1291
G01 X24.5911 Y11.1452
G01 X24.5242 Y11.2050
G01 X24.5064 Y11.2192
G01 X24.4309 Y11.2727
G01 X24.4139 Y11.2832
G01 X24.3354 Y11.3266
G01 X24.3149 Y11.3365
G01 X24.2320 Y11.3708
G01 X24.2105 Y11.3784
G01 X24.1243 Y11.4032
G01 X24.1021 Y11.4083
G01 X24.0136 Y11.4233
G01 X23.9910 Y11.4259
G01 X23.8900 Y11.4312
G01 X23.7890 Y11.4259
G01 X23.7664 Y11.4233
G01 X23.6734 Y11.4075
G01 X23.6557 Y11.4032
G01 X23.5695 Y11.3784
G01 X23.5480 Y11.3708
G01 X23.4640 Y11.3361
G01 X23.4446 Y11.3266
G01 X23.3661 Y11.2832
G01 X23.3468 Y11.2711
G01 X23.2736 Y11.2192
G01 X23.2558 Y11.2050
G01 X23.1889 Y11.1452
G01 X23.1728 Y11.1291
G01 X23.1130 Y11.0622
G01 X23.0988 Y11.0444
G01 X23.0453 Y10.9689
G01 X23.0348 Y10.9519
G01 X22.9914 Y10.8734
G01 X22.9815 Y10.8529
G01 X22.9472 Y10.7700
G01 X22.9396 Y10.7485
G01 X22.9148 Y10.6623
G01 X22.9097 Y10.6401
G01 X22.8947 Y10.5516
G01 X22.8921 Y10.5290
G01 X22.8868 Y10.4280
G01 X22.8921 Y10.3270
G01 X22.8947 Y10.3044
G01 X22.9105 Y10.2114
G01 X22.9148 Y10.1937
G01 X22.9396 Y10.1075
G01 X22.9472 Y10.0860
G01 X22.9819 Y10.0020
G01 X22.9914 Y9.9826
G01 X23.0348 Y9.9041
G01 X23.0469 Y9.8848
G01 X23.0988 Y9.8116
G01 X23.1130 Y9.7938
G01 X23.1728 Y9.7269
G01 X23.1889 Y9.7108
G01 X23.2558 Y9.6510
G01 X23.2736 Y9.6368
G01 X23.3491 Y9.5833
G01 X23.3661 Y9.5728
G01 X23.4446 Y9.5294
G01 X23.4651 Y9.5195
G01 X23.5480 Y9.4852
G01 X23.5695 Y9.4776
G01 X23.6557 Y9.4528
G01 X23.6779 Y9.4477
G01 X23.7664 Y9.4327
G01 X23.7890 Y9.4301
G01 X23.8273 Y9.4280
G01 X23.7890 Y9.4259
G01 X23.7664 Y9.4233
G01 X23.6734 Y9.4075
G01 X23.6557 Y9.4032
G01 X23.5695 Y9.3784
G01 X23.5480 Y9.3708
G01 X23.4640 Y9.3361
G01 X23.4446 Y9.3266
G01 X23.3661 Y9.2832
G01 X23.3468 Y9.2711
G01 X23.2736 Y9.2192
G01 X23.2558 Y9.2050
G01 X23.1889 Y9.1452
G01 X23.1728 Y9.1291
G01 X23.1130 Y9.0622
G01 X23.0988 Y9.0444
G01 X23.0453 Y8.9689
G01 X23.0348 Y8.9519
G01 X22.9914 Y8.8734
G01 X22.9815 Y8.8529
G01 X22.9472 Y8.7700
G01 X22.9396 Y8.7485
G01 X22.9148 Y8.6623
G01 X22.9097 Y8.6401
G01 X22.8947 Y8.5516
G01 X22.8921 Y8.5290
G01 X22.8868 Y8.4280
G01 X22.8921 Y8.3270
G01 X22.8947 Y8.3044
G01 X22.9105 Y8.2114
G01 X22.9148 Y8.1937
G01 X22.9396 Y8.1075
G01 X22.9472 Y8.0860
G01 X22.9819 Y8.0020
G01 X22.9914 Y7.9826
G01 X23.0348 Y7.9041
G01 X23.0469 Y7.8848
G01 X23.0988 Y7.8116
G01 X23.1130 Y7.7938
G01 X23.1728 Y7.7269
G01 X23.1889 Y7.7108
G01 X23.2558 Y7.6510
G01 X23.2736 Y7.6368
G01 X23.3491 Y7.5833
G01 X23.3661 Y7.5728
G01 X23.4446 Y7.5294
G01 X23.4651 Y7.5195
G01 X23.5480 Y7.4852
G01 X23.5695 Y7.4776
G01 X23.6557 Y7.4528
G01 X23.6779 Y7.4477
G01 X23.7664 Y7.4327
G01 X23.7890 Y7.4301
G01 X23.8273 Y7.4280
G01 X23.7890 Y7.4259
G01 X23.7664 Y7.4233
G01 X23.6734 Y7.4075
G01 X23.6557 Y7.4032
G01 X23.5695 Y7.3784
G01 X23.5480 Y7.3708
G01 X23.4640 Y7.3361
G01 X23.4446 Y7.3266
G01 X23.3661 Y7.2832
G01 X23.3468 Y7.2711
G01 X23.2736 Y7.2192
G01 X23.2558 Y7.2050
G01 X23.1889 Y7.1452
G01 X23.1728 Y7.1291
G01 X23.1130 Y7.0622
G01 X23.0988 Y7.0444
G01 X23.0453 Y6.9689
G01 X23.0348 Y6.9519
G01 X22.9914 Y6.8734
G01 X22.9815 Y6.8529
G01 X22.9472 Y6.7700
G01 X22.9396 Y6.7485
G01 X22.9148 Y6.6623
G01 X22.9097 Y6.6401
G01 X22.8947 Y6.5516
G01 X22.8921 Y6.5290
G01 X22.8868 Y6.4280
G01 X22.8925 Y6.3271
G00 Z2.5400
G00 X16.7854 Y17.1759
G01 F76.20
G01 Z-0.2000
G01 F76.20
G01 X16.7876 Y17.1532
G01 X16.8072 Y17.0381
G01 X16.8114 Y17.0204
G01 X16.8425 Y16.9127
G01 X16.8500 Y16.8912
G01 X16.8934 Y16.7865
G01 X16.9028 Y16.7670
G01 X16.9570 Y16.6689
G01 X16.9692 Y16.6496
G01 X17.0340 Y16.5581
G01 X17.0483 Y16.5403
G01 X17.1230 Y16.4567
G01 X17.1391 Y16.4406
G01 X17.2227 Y16.3659
G01 X17.2405 Y16.3516
G01 X17.3343 Y16.2851
G01 X17.3513 Y16.2746
G01 X17.4494 Y16.2204
G01 X17.4700 Y16.2105
G01 X17.5736 Y16.1676
G01 X17.5951 Y16.1601
G01 X17.7028 Y16.1290
G01 X17.7250 Y16.1239
G01 X17.8356 Y16.1052
G01 X17.8582 Y16.1026
G01 X17.9816 Y16.0960
G01 X18.1050 Y16.1026
G01 X18.1276 Y16.1052
G01 X18.2427 Y16.1248
G01 X18.2604 Y16.1290
G01 X18.3681 Y16.1601
G01 X18.3896 Y16.1676
G01 X18.4932 Y16.2105
G01 X18.5138 Y16.2204
G01 X18.6119 Y16.2746
G01 X18.6312 Y16.2868
G01 X18.7227 Y16.3516
G01 X18.7405 Y16.3659
G01 X18.8241 Y16.4406
G01 X18.8402 Y16.4567
G01 X18.9149 Y16.5403
G01 X18.9292 Y16.5581
G01 X18.9957 Y16.6519
G01 X19.0062 Y16.6689
G01 X19.0604 Y16.7670
G01 X19.0703 Y16.7876
G01 X19.1132 Y16.8912
G01 X19.1207 Y16.9127
G01 X19.1518 Y17.0204
G01 X19.1569 Y17.0426
G01 X19.1756 Y17.1532
G01 X19.1782 Y17.1758
G01 X19.1848 Y17.2992
G01 X19.1782 Y17.4226
G01 X19.1756 Y17.4452
G01 X19.1560 Y17.5603
G01 X19.1518 Y17.5780
G01 X19.1207 Y17.6857
G01 X19.1132 Y17.7072
G01 X19.0698 Y17.8119
G01 X19.0604 Y17.8314
G01 X19.0062 Y17.9295
G01 X18.9940 Y17.9488
G01 X18.9292 Y18.0403
G01 X18.9149 Y18.0581
G01 X18.8402 Y18.1417
G01 X18.8241 Y18.1578
G01 X18.7405 Y18.2325
G01 X18.7227 Y18.2468
G01 X18.6851 Y18.2735
G01 X18.6851 Y18.4220
G01 X19.9876 Y19.7245
G01 X45.1752 Y19.7245
G01 X45.1889 Y19.7108
G01 X45.2558 Y19.6510
G01 X45.2736 Y19.6368
G01 X45.3491 Y19.5833
G01 X45.3661 Y19.5728
G01 X45.4446 Y19.5294
G01 X45.4651 Y19.5195
G01 X45.5480 Y19.4852
G01 X45.5695 Y19.4776
G01 X45.6557 Y19.4528
G01 X45.6779 Y19.4477
G01 X45.7664 Y19.4327
G01 X45.7890 Y19.4301
G01 X45.8786 Y19.4251
G01 X45.9014 Y19.4251
G01 X45.9910 Y19.4301
G01 X46.0136 Y19.4327
G01 X46.1066 Y19.4485
G01 X46.1243 Y19.4528
G01 X46.2105 Y19.4776
G01 X46.2320 Y19.4852
G01 X46.3160 Y19.5199
G01 X46.3354 Y19.5294
G01 X46.4139 Y19.5728
G01 X46.4332 Y19.5849
G01 X46.5064 Y19.6368
G01 X46.5242 Y19.6510
G01 X46.5911 Y19.7108
G01 X46.6072 Y19.7269
G01 X46.6670 Y19.7938
G01 X46.6812 Y19.8116
G01 X46.7347 Y19.8871
G01 X46.7452 Y19.9041
G01 X46.7886 Y19.9826
G01 X46.7985 Y20.0031
G01 X46.8328 Y20.0860
G01 X46.8404 Y20.1075
G01 X46.8652 Y20.1937
G01 X46.8703 Y20.2159
G01 X46.8853 Y20.3044
G01 X46.8879 Y20.3270
G01 X46.8932 Y20.4280
G01 X46.8879 Y20.5290
G01 X46.8853 Y20.5516
G01 X46.8695 Y20.6446
G01 X46.8652 Y20.6623
G01 X46.8404 Y20.7485
G01 X46.8328 Y20.7700
G01 X46.7981 Y20.8540
G01 X46.7886 Y20.8734
G01 X46.7452 Y20.9519
G01 X46.7331 Y20.9712
G01 X46.6812 Y21.0444
G01 X46.6670 Y21.0622
G01 X46.6072 Y21.1291
G01 X46.5911 Y21.1452
G01 X46.5242 Y21.2050
G01 X46.5064 Y21.2192
G01 X46.4309 Y21.2727
G01 X46.4139 Y21.2832
G01 X46.3354 Y21.3266
G01 X46.3149 Y21.3365
G01 X46.2320 Y21.3708
G01 X46.2105 Y21.3784
G01 X46.1243 Y21.4032
G01 X46.1021 Y21.4083
G01 X46.0136 Y21.4233
G01 X45.9910 Y21.4259
G01 X45.8900 Y21.4312
G01 X45.7890 Y21.4259
G01 X45.7664 Y21.4233
G01 X45.6734 Y21.4075
G01 X45.6557 Y21.4032
G01 X45.5695 Y21.3784
G01 X45.5480 Y21.3708
G01 X45.4640 Y21.3361
G01 X45.4446 Y21.3266
G01 X45.3661 Y21.2832
G01 X45.3468 Y21.2711
G01 X45.2736 Y21.2192
G01 X45.2558 Y21.2050
G01 X45.1889 Y21.1452
G01 X45.1752 Y21.1315
G01 X19.6962 Y21.1315
G01 X19.6288 Y21.1280
G01 X19.6061 Y21.1254
G01 X19.5508 Y21.1160
G01 X19.5286 Y21.1110
G01 X19.4747 Y21.0954
G01 X19.4532 Y21.0879
G01 X19.4003 Y21.0660
G01 X19.3808 Y21.0566
G01 X19.3317 Y21.0294
G01 X19.3125 Y21.0173
G01 X19.2667 Y20.9848
G01 X19.2489 Y20.9706
G01 X19.2071 Y20.9332
G01 X17.4842 Y19.2108
G01 X17.4390 Y19.1607
G01 X17.4248 Y19.1429
G01 X17.3907 Y19.0948
G01 X17.3802 Y19.0779
G01 X17.3530 Y19.0288
G01 X17.3432 Y19.0082
G01 X17.3217 Y18.9564
G01 X17.3142 Y18.9349
G01 X17.2986 Y18.8810
G01 X17.2936 Y18.8588
G01 X17.2842 Y18.8035
G01 X17.2816 Y18.7808
G01 X17.2781 Y18.7134
G01 X17.2781 Y18.2735
G01 X17.2405 Y18.2468
G01 X17.2227 Y18.2325
G01 X17.1391 Y18.1578
G01 X17.1230 Y18.1417
G01 X17.0483 Y18.0581
G01 X17.0340 Y18.0403
G01 X16.9675 Y17.9465
G01 X16.9570 Y17.9295
G01 X16.9028 Y17.8314
G01 X16.8929 Y17.8108
G01 X16.8500 Y17.7072
G01 X16.8425 Y17.6857
G01 X16.8114 Y17.5780
G01 X16.8063 Y17.5558
G01 X16.7876 Y17.4452
G01 X16.7850 Y17.4226
G01 X16.7784 Y17.2992
G01 X16.7854 Y17.1759
G00 Z2.5400
G00 X14.2454 Y17.1759
G01 F76.20
G01 Z-0.2000
G01 F76.20
G01 X14.2476 Y17.1532
G01 X14.2663 Y17.0426
G01 X14.2714 Y17.0204
G01 X14.3025 Y16.9127
G01 X14.3100 Y16.8912
G01 X14.3534 Y16.7865
G01 X14.3628 Y16.7670
G01 X14.4170 Y16.6689
G01 X14.4292 Y16.6496
G01 X14.4940 Y16.5581
G01 X14.5083 Y16.5403
G01 X14.5830 Y16.4567
G01 X14.5991 Y16.4406
G01 X14.6827 Y16.3659
G01 X14.7005 Y16.3516
G01 X14.7943 Y16.2851
G01 X14.8113 Y16.2746
G01 X14.9094 Y16.2204
G01 X14.9300 Y16.2105
G01 X15.0336 Y16.1676
G01 X15.0551 Y16.1601
G01 X15.1628 Y16.1290
G01 X15.1850 Y16.1239
G01 X15.2956 Y16.1052
G01 X15.3182 Y16.1026
G01 X15.4416 Y16.0960
G01 X15.5650 Y16.1026
G01 X15.5876 Y16.1052
G01 X15.6982 Y16.1239
G01 X15.7204 Y16.1290
G01 X15.8281 Y16.1601
G01 X15.8496 Y16.1676
G01 X15.9543 Y16.2110
G01 X15.9738 Y16.2204
G01 X16.0719 Y16.2746
G01 X16.0912 Y16.2868
G01 X16.1827 Y16.3516
G01 X16.2005 Y16.3659
G01 X16.2841 Y16.4406
G01 X16.3002 Y16.4567
G01 X16.3749 Y16.5403
G01 X16.3892 Y16.5581
G01 X16.4557 Y16.6519
G01 X16.4662 Y16.6689
G01 X16.5204 Y16.7670
G01 X16.5303 Y16.7876
G01 X16.5732 Y16.8912
G01 X16.5807 Y16.9127
G01 X16.6118 Y17.0204
G01 X16.6169 Y17.0426
G01 X16.6356 Y17.1532
G01 X16.6382 Y17.1758
G01 X16.6448 Y17.2992
G01 X16.6382 Y17.4226
G01 X16.6356 Y17.4452
G01 X16.6169 Y17.5558
G01 X16.6118 Y17.5780
G01 X16.5807 Y17.6857
G01 X16.5732 Y17.7072
G01 X16.5298 Y17.8119
G01 X16.5204 Y17.8314
G01 X16.4662 Y17.9295
G01 X16.4540 Y17.9488
G01 X16.3892 Y18.0403
G01 X16.3749 Y18.0581
G01 X16.3002 Y18.1417
G01 X16.2841 Y18.1578
G01 X16.2005 Y18.2325
G01 X16.1827 Y18.2468
G01 X16.0889 Y18.3133
G01 X16.0719 Y18.3238
G01 X15.9738 Y18.3780
G01 X15.9532 Y18.3879
G01 X15.8496 Y18.4308
G01 X15.8281 Y18.4383
G01 X15.7204 Y18.4694
G01 X15.6982 Y18.4745
G01 X15.5876 Y18.4932
G01 X15.5650 Y18.4958
G01 X15.4416 Y18.5024
G01 X15.3182 Y18.4958
G01 X15.2956 Y18.4932
G01 X15.1850 Y18.4745
G01 X15.1628 Y18.4694
G01 X15.0551 Y18.4383
G01 X15.0336 Y18.4308
G01 X14.9289 Y18.3874
G01 X14.9094 Y18.3780
G01 X14.8113 Y18.3238
G01 X14.7920 Y18.3116
G01 X14.7005 Y18.2468
G01 X14.6827 Y18.2325
G01 X14.5991 Y18.1578
G01 X14.5830 Y18.1417
G01 X14.5083 Y18.0581
G01 X14.4940 Y18.0403
G01 X14.4275 Y17.9465
G01 X14.4170 Y17.9295
G01 X14.3628 Y17.8314
G01 X14.3529 Y17.8108
G01 X14.3100 Y17.7072
G01 X14.3025 Y17.6857
G01 X14.2714 Y17.5780
G01 X14.2663 Y17.5558
G01 X14.2476 Y17.4452
G01 X14.2450 Y17.4226
G01 X14.2384 Y17.2992
G01 X14.2454 Y17.1759
G00 Z2.5400
G00 X7.1998 Y17.0235
G01 F76.20
G01 Z-0.2000
G01 F76.20
G01 X7.2020 Y17.0008
G01 X7.2207 Y16.8902
G01 X7.2258 Y16.8680
G01 X7.2569 Y16.7603
G01 X7.2644 Y16.7388
G01 X7.3078 Y16.6341
G01 X7.3172 Y16.6146
G01 X7.3714 Y16.5165
G01 X7.3836 Y16.4972
G01 X7.4484 Y16.4057
G01 X7.4627 Y16.3879
G01 X7.5374 Y16.3043
G01 X7.5535 Y16.2882
G01 X7.6371 Y16.2135
G01 X7.6549 Y16.1992
G01 X7.7487 Y16.1327
G01 X7.7657 Y16.1222
G01 X7.8638 Y16.0680
G01 X7.8844 Y16.0581
G01 X7.9880 Y16.0152
G01 X8.0095 Y16.0077
G01 X8.1172 Y15.9766
G01 X8.1394 Y15.9715
G01 X8.2500 Y15.9528
G01 X8.2726 Y15.9502
G01 X8.3960 Y15.9436
G01 X8.5194 Y15.9502
G01 X8.5420 Y15.9528
G01 X8.6526 Y15.9715
G01 X8.6748 Y15.9766
G01 X8.7825 Y16.0077
G01 X8.8040 Y16.0152
G01 X8.9087 Y16.0586
G01 X8.9282 Y16.0680
G01 X9.0263 Y16.1222
G01 X9.0456 Y16.1344
G01 X9.1371 Y16.1992
G01 X9.1549 Y16.2135
G01 X9.2385 Y16.2882
G01 X9.2546 Y16.3043
G01 X9.3293 Y16.3879
G01 X9.3436 Y16.4057
G01 X9.4101 Y16.4995
G01 X9.4206 Y16.5165
G01 X9.4748 Y16.6146
G01 X9.4847 Y16.6352
G01 X9.5276 Y16.7388
G01 X9.5351 Y16.7603
G01 X9.5662 Y16.8680
G01 X9.5713 Y16.8902
G01 X9.5900 Y17.0008
G01 X9.5926 Y17.0234
G01 X9.5992 Y17.1468
G01 X9.5926 Y17.2702
G01 X9.5900 Y17.2928
G01 X9.5713 Y17.4034
G01 X9.5662 Y17.4256
G01 X9.5351 Y17.5333
G01 X9.5276 Y17.5548
G01 X9.4842 Y17.6595
G01 X9.4748 Y17.6790
G01 X9.4206 Y17.7771
G01 X9.4084 Y17.7964
G01 X9.3436 Y17.8879
G01 X9.3293 Y17.9057
G01 X9.2546 Y17.9893
G01 X9.2385 Y18.0054
G01 X9.1549 Y18.0801
G01 X9.1371 Y18.0944
G01 X9.0433 Y18.1609
G01 X9.0263 Y18.1714
G01 X8.9282 Y18.2256
G01 X8.9076 Y18.2355
G01 X8.8040 Y18.2784
G01 X8.7825 Y18.2859
G01 X8.6748 Y18.3170
G01 X8.6526 Y18.3221
G01 X8.5420 Y18.3408
G01 X8.5194 Y18.3434
G01 X8.3960 Y18.3500
G01 X8.2726 Y18.3434
G01 X8.2500 Y18.3408
G01 X8.1394 Y18.3221
G01 X8.1172 Y18.3170
G01 X8.0095 Y18.2859
G01 X7.9880 Y18.2784
G01 X7.8833 Y18.2350
G01 X7.8638 Y18.2256
G01 X7.7657 Y18.1714
G01 X7.7464 Y18.1592
G01 X7.6549 Y18.0944
G01 X7.6371 Y18.0801
G01 X7.5535 Y18.0054
G01 X7.5374 Y17.9893
G01 X7.4627 Y17.9057
G01 X7.4484 Y17.8879
G01 X7.3819 Y17.7941
G01 X7.3714 Y17.7771
G01 X7.3172 Y17.6790
G01 X7.3073 Y17.6584
G01 X7.2644 Y17.5548
G01 X7.2569 Y17.5333
G01 X7.2258 Y17.4256
G01 X7.2207 Y17.4034
G01 X7.2020 Y17.2928
G01 X7.1994 Y17.2702
G01 X7.1928 Y17.1468
G01 X7.1998 Y17.0235
G00 Z2.5400
G00 X4.6598 Y17.0235
G01 F76.20
G01 Z-0.2000
G01 F76.20
G01 X4.6620 Y17.0008
G01 X4.6807 Y16.8902
G01 X4.6858 Y16.8680
G01 X4.7169 Y16.7603
G01 X4.7244 Y16.7388
G01 X4.7678 Y16.6341
G01 X4.7772 Y16.6146
G01 X4.8314 Y16.5165
G01 X4.8436 Y16.4972
G01 X4.9084 Y16.4057
G01 X4.9227 Y16.3879
G01 X4.9974 Y16.3043
G01 X5.0135 Y16.2882
G01 X5.0971 Y16.2135
G01 X5.1149 Y16.1992
G01 X5.2087 Y16.1327
G01 X5.2257 Y16.1222
G01 X5.3238 Y16.0680
G01 X5.3444 Y16.0581
G01 X5.4480 Y16.0152
G01 X5.4695 Y16.0077
G01 X5.5772 Y15.9766
G01 X5.5994 Y15.9715
G01 X5.7100 Y15.9528
G01 X5.7326 Y15.9502
G01 X5.8560 Y15.9436
G01 X5.9794 Y15.9502
G01 X6.0020 Y15.9528
G01 X6.1126 Y15.9715
G01 X6.1348 Y15.9766
G01 X6.2425 Y16.0077
G01 X6.2640 Y16.0152
G01 X6.3687 Y16.0586
G01 X6.3882 Y16.0680
G01 X6.4863 Y16.1222
G01 X6.5056 Y16.1344
G01 X6.5971 Y16.1992
G01 X6.6149 Y16.2135
G01 X6.6985 Y16.2882
G01 X6.7146 Y16.3043
G01 X6.7893 Y16.3879
G01 X6.8036 Y16.4057
G01 X6.8701 Y16.4995
G01 X6.8806 Y16.5165
G01 X6.9348 Y16.6146
G01 X6.9447 Y16.6352
G01 X6.9876 Y16.7388
G01 X6.9951 Y16.7603
G01 X7.0262 Y16.8680
G01 X7.0313 Y16.8902
G01 X7.0500 Y17.0008
G01 X7.0526 Y17.0234
G01 X7.0592 Y17.1468
G01 X7.0526 Y17.2702
G01 X7.0500 Y17.2928
G01 X7.0313 Y17.4034
G01 X7.0262 Y17.4256
G01 X6.9951 Y17.5333
G01 X6.9876 Y17.5548
G01 X6.9442 Y17.6595
G01 X6.9348 Y17.6790
G01 X6.8806 Y17.7771
G01 X6.8684 Y17.7964
G01 X6.8036 Y17.8879
G01 X6.7893 Y17.9057
G01 X6.7146 Y17.9893
G01 X6.6985 Y18.0054
G01 X6.6149 Y18.0801
G01 X6.5971 Y18.0944
G01 X6.5033 Y18.1609
G01 X6.4863 Y18.1714
G01 X6.3882 Y18.2256
G01 X6.3676 Y18.2355
G01 X6.2640 Y18.2784
G01 X6.2425 Y18.2859
G01 X6.1348 Y18.3170
G01 X6.1126 Y18.3221
G01 X6.0020 Y18.3408
G01 X5.9794 Y18.3434
G01 X5.8560 Y18.3500
G01 X5.7326 Y18.3434
G01 X5.7100 Y18.3408
G01 X5.5994 Y18.3221
G01 X5.5772 Y18.3170
G01 X5.4695 Y18.2859
G01 X5.4480 Y18.2784
G01 X5.3433 Y18.2350
G01 X5.3238 Y18.2256
G01 X5.2257 Y18.1714
G01 X5.2064 Y18.1592
G01 X5.1149 Y18.0944
G01 X5.0971 Y18.0801
G01 X5.0135 Y18.0054
G01 X4.9974 Y17.9893
G01 X4.9227 Y17.9057
G01 X4.9084 Y17.8879
G01 X4.8419 Y17.7941
G01 X4.8314 Y17.7771
G01 X4.7772 Y17.6790
G01 X4.7673 Y17.6584
G01 X4.7244 Y17.5548
G01 X4.7169 Y17.5333
G01 X4.6858 Y17.4256
G01 X4.6807 Y17.4034
G01 X4.6620 Y17.2928
G01 X4.6594 Y17.2702
G01 X4.6528 Y17.1468
G01 X4.6598 Y17.0235
G00 Z2.5400
G00 X4.8630 Y26.2183
G01 F76.20
G01 Z-0.2000
G01 F76.20
G01 X4.8652 Y26.1956
G01 X4.8839 Y26.0850
G01 X4.8890 Y26.0628
G01 X4.9201 Y25.9551
G01 X4.9276 Y25.9336
G01 X4.9710 Y25.8289
G01 X4.9804 Y25.8094
G01 X5.0346 Y25.7113
G01 X5.0468 Y25.6920
G01 X5.1116 Y25.6005
G01 X5.1259 Y25.5827
G01 X5.2006 Y25.4991
G01 X5.2167 Y25.4830
G01 X5.3003 Y25.4083
G01 X5.3181 Y25.3940
G01 X5.4119 Y25.3275
G01 X5.4289 Y25.3170
G01 X5.5270 Y25.2628
G01 X5.5476 Y25.2529
G01 X5.6512 Y25.2100
G01 X5.6727 Y25.2025
G01 X5.7804 Y25.1714
G01 X5.8026 Y25.1663
G01 X5.9132 Y25.1476
G01 X5.9358 Y25.1450
G01 X6.0592 Y25.1384
G01 X6.1826 Y25.1450
G01 X6.2052 Y25.1476
G01 X6.3158 Y25.1663
G01 X6.3380 Y25.1714
G01 X6.4457 Y25.2025
G01 X6.4672 Y25.2100
G01 X6.5719 Y25.2534
G01 X6.5914 Y25.2628
G01 X6.6895 Y25.3170
G01 X6.7088 Y25.3292
G01 X6.8003 Y25.3940
G01 X6.8181 Y25.4083
G01 X6.9017 Y25.4830
G01 X6.9178 Y25.4991
G01 X6.9925 Y25.5827
G01 X7.0068 Y25.6005
G01 X7.0733 Y25.6943
G01 X7.0838 Y25.7113
G01 X7.1380 Y25.8094
G01 X7.1479 Y25.8300
G01 X7.1908 Y25.9336
G01 X7.1983 Y25.9551
G01 X7.2294 Y26.0628
G01 X7.2345 Y26.0850
G01 X7.2532 Y26.1956
G01 X7.2558 Y26.2182
G01 X7.2624 Y26.3416
G01 X7.2558 Y26.4650
G01 X7.2532 Y26.4876
G01 X7.2345 Y26.5982
G01 X7.2294 Y26.6204
G01 X7.1983 Y26.7281
G01 X7.1908 Y26.7496
G01 X7.1474 Y26.8543
G01 X7.1380 Y26.8738
G01 X7.0838 Y26.9719
G01 X7.0716 Y26.9912
G01 X7.0068 Y27.0827
G01 X6.9925 Y27.1005
G01 X6.9178 Y27.1841
G01 X6.9017 Y27.2002
G01 X6.8181 Y27.2749
G01 X6.8003 Y27.2892
G01 X6.7065 Y27.3557
G01 X6.6895 Y27.3662
G01 X6.5914 Y27.4204
G01 X6.5708 Y27.4303
G01 X6.4672 Y27.4732
G01 X6.4457 Y27.4807
G01 X6.3380 Y27.5118
G01 X6.3158 Y27.5169
G01 X6.2052 Y27.5356
G01 X6.1826 Y27.5382
G01 X6.0592 Y27.5448
G01 X5.9358 Y27.5382
G01 X5.9132 Y27.5356
G01 X5.8026 Y27.5169
G01 X5.7804 Y27.5118
G01 X5.6727 Y27.4807
G01 X5.6512 Y27.4732
G01 X5.5465 Y27.4298
G01 X5.5270 Y27.4204
G01 X5.4289 Y27.3662
G01 X5.4096 Y27.3540
G01 X5.3181 Y27.2892
G01 X5.3003 Y27.2749
G01 X5.2167 Y27.2002
G01 X5.2006 Y27.1841
G01 X5.1259 Y27.1005
G01 X5.1116 Y27.0827
G01 X5.0451 Y26.9889
G01 X5.0346 Y26.9719
G01 X4.9804 Y26.8738
G01 X4.9705 Y26.8532
G01 X4.9276 Y26.7496
G01 X4.9201 Y26.7281
G01 X4.8890 Y26.6204
G01 X4.8839 Y26.5982
G01 X4.8652 Y26.4876
G01 X4.8626 Y26.4650
G01 X4.8560 Y26.3416
G01 X4.8630 Y26.2183
G00 Z2.5400
G00 X7.4030 Y26.2183
G01 F76.20
G01 Z-0.2000
G01 F76.20
G01 X7.4052 Y26.1956
G01 X7.4248 Y26.0805
G01 X7.4290 Y26.0628
G01 X7.4601 Y25.9551
G01 X7.4676 Y25.9336
G01 X7.5110 Y25.8289
G01 X7.5204 Y25.8094
G01 X7.5746 Y25.7113
G01 X7.5868 Y25.6920
G01 X7.6516 Y25.6005
G01 X7.6659 Y25.5827
G01 X7.7406 Y25.4991
G01 X7.7567 Y25.4830
G01 X7.8403 Y25.4083
G01 X7.8581 Y25.3940
G01 X7.8957 Y25.3673
G01 X7.8957 Y24.9274
G01 X7.8992 Y24.8600
G01 X7.9018 Y24.8373
G01 X7.9120 Y24.7775
G01 X7.9162 Y24.7598
G01 X7.9318 Y24.7059
G01 X7.9393 Y24.6844
G01 X7.9612 Y24.6315
G01 X7.9706 Y24.6120
G01 X7.9978 Y24.5629
G01 X8.0099 Y24.5437
G01 X8.0424 Y24.4979
G01 X8.0566 Y24.4801
G01 X8.1018 Y24.4300
G01 X10.6732 Y21.8586
G01 X10.7233 Y21.8134
G01 X10.7411 Y21.7992
G01 X10.7892 Y21.7651
G01 X10.8062 Y21.7546
G01 X10.8553 Y21.7274
G01 X10.8758 Y21.7175
G01 X10.9276 Y21.6961
G01 X10.9491 Y21.6886
G01 X11.0030 Y21.6730
G01 X11.0252 Y21.6680
G01 X11.0805 Y21.6586
G01 X11.1032 Y21.6560
G01 X11.1592 Y21.6529
G01 X14.7379 Y21.6525
G01 X14.8053 Y21.6560
G01 X14.8279 Y21.6586
G01 X14.8832 Y21.6680
G01 X14.9054 Y21.6730
G01 X14.9593 Y21.6886
G01 X14.9808 Y21.6961
G01 X15.0338 Y21.7180
G01 X15.0532 Y21.7274
G01 X15.1023 Y21.7546
G01 X15.1216 Y21.7667
G01 X15.1673 Y21.7992
G01 X15.1852 Y21.8134
G01 X15.2353 Y21.8586
G01 X16.7674 Y23.3907
G01 X16.8126 Y23.4408
G01 X16.8268 Y23.4586
G01 X16.8609 Y23.5067
G01 X16.8714 Y23.5237
G01 X16.8986 Y23.5728
G01 X16.9084 Y23.5933
G01 X16.9299 Y23.6451
G01 X16.9374 Y23.6667
G01 X16.9530 Y23.7206
G01 X16.9580 Y23.7428
G01 X16.9674 Y23.7981
G01 X16.9700 Y23.8207
G01 X16.9735 Y23.8881
G01 X16.9735 Y25.3165
G01 X17.0111 Y25.3432
G01 X17.0289 Y25.3575
G01 X17.1125 Y25.4322
G01 X17.1286 Y25.4483
G01 X17.2033 Y25.5319
G01 X17.2176 Y25.5497
G01 X17.2841 Y25.6435
G01 X17.2946 Y25.6605
G01 X17.3488 Y25.7586
G01 X17.3587 Y25.7792
G01 X17.4016 Y25.8828
G01 X17.4091 Y25.9043
G01 X17.4402 Y26.0120
G01 X17.4453 Y26.0342
G01 X17.4640 Y26.1448
G01 X17.4666 Y26.1674
G01 X17.4732 Y26.2908
G01 X17.4666 Y26.4142
G01 X17.4640 Y26.4368
G01 X17.4444 Y26.5519
G01 X17.4402 Y26.5696
G01 X17.4091 Y26.6773
G01 X17.4016 Y26.6988
G01 X17.3582 Y26.8035
G01 X17.3488 Y26.8230
G01 X17.2946 Y26.9211
G01 X17.2824 Y26.9404
G01 X17.2176 Y27.0319
G01 X17.2033 Y27.0497
G01 X17.1286 Y27.1333
G01 X17.1125 Y27.1494
G01 X17.0289 Y27.2241
G01 X17.0111 Y27.2384
G01 X16.9173 Y27.3049
G01 X16.9003 Y27.3154
G01 X16.8022 Y27.3696
G01 X16.7816 Y27.3795
G01 X16.6780 Y27.4224
G01 X16.6565 Y27.4299
G01 X16.5488 Y27.4610
G01 X16.5266 Y27.4661
G01 X16.4160 Y27.4848
G01 X16.3934 Y27.4874
G01 X16.2700 Y27.4940
G01 X16.1466 Y27.4874
G01 X16.1240 Y27.4848
G01 X16.0089 Y27.4652
G01 X15.9912 Y27.4610
G01 X15.8835 Y27.4299
G01 X15.8620 Y27.4224
G01 X15.7573 Y27.3790
G01 X15.7378 Y27.3696
G01 X15.6397 Y27.3154
G01 X15.6204 Y27.3032
G01 X15.5289 Y27.2384
G01 X15.5111 Y27.2241
G01 X15.4275 Y27.1494
G01 X15.4114 Y27.1333
G01 X15.3367 Y27.0497
G01 X15.3224 Y27.0319
G01 X15.2559 Y26.9381
G01 X15.2454 Y26.9211
G01 X15.1912 Y26.8230
G01 X15.1813 Y26.8024
G01 X15.1384 Y26.6988
G01 X15.1309 Y26.6773
G01 X15.0998 Y26.5696
G01 X15.0947 Y26.5474
G01 X15.0760 Y26.4368
G01 X15.0734 Y26.4142
G01 X15.0671 Y26.3022
G01 X15.0671 Y26.2794
G01 X15.0734 Y26.1674
G01 X15.0760 Y26.1448
G01 X15.0956 Y26.0297
G01 X15.0998 Y26.0120
G01 X15.1309 Y25.9043
G01 X15.1384 Y25.8828
G01 X15.1818 Y25.7781
G01 X15.1912 Y25.7586
G01 X15.2454 Y25.6605
G01 X15.2576 Y25.6412
G01 X15.3224 Y25.5497
G01 X15.3367 Y25.5319
G01 X15.4114 Y25.4483
G01 X15.4275 Y25.4322
G01 X15.5111 Y25.3575
G01 X15.5289 Y25.3432
G01 X15.5665 Y25.3165
G01 X15.5665 Y24.1795
G01 X14.4465 Y23.0594
G01 X11.4620 Y23.0594
G01 X9.3027 Y25.2188
G01 X9.3027 Y25.3673
G01 X9.3403 Y25.3940
G01 X9.3581 Y25.4083
G01 X9.4417 Y25.4830
G01 X9.4578 Y25.4991
G01 X9.5325 Y25.5827
G01 X9.5468 Y25.6005
G01 X9.6133 Y25.6943
G01 X9.6238 Y25.7113
G01 X9.6780 Y25.8094
G01 X9.6879 Y25.8300
G01 X9.7308 Y25.9336
G01 X9.7383 Y25.9551
G01 X9.7694 Y26.0628
G01 X9.7745 Y26.0850
G01 X9.7932 Y26.1956
G01 X9.7958 Y26.2182
G01 X9.8024 Y26.3416
G01 X9.7958 Y26.4650
G01 X9.7932 Y26.4876
G01 X9.7736 Y26.6027
G01 X9.7694 Y26.6204
G01 X9.7383 Y26.7281
G01 X9.7308 Y26.7496
G01 X9.6874 Y26.8543
G01 X9.6780 Y26.8738
G01 X9.6238 Y26.9719
G01 X9.6116 Y26.9912
G01 X9.5468 Y27.0827
G01 X9.5325 Y27.1005
G01 X9.4578 Y27.1841
G01 X9.4417 Y27.2002
G01 X9.3581 Y27.2749
G01 X9.3403 Y27.2892
G01 X9.2465 Y27.3557
G01 X9.2295 Y27.3662
G01 X9.1314 Y27.4204
G01 X9.1108 Y27.4303
G01 X9.0072 Y27.4732
G01 X8.9857 Y27.4807
G01 X8.8780 Y27.5118
G01 X8.8558 Y27.5169
G01 X8.7452 Y27.5356
G01 X8.7226 Y27.5382
G01 X8.5992 Y27.5448
G01 X8.4758 Y27.5382
G01 X8.4532 Y27.5356
G01 X8.3381 Y27.5160
G01 X8.3204 Y27.5118
G01 X8.2127 Y27.4807
G01 X8.1912 Y27.4732
G01 X8.0876 Y27.4303
G01 X8.0670 Y27.4204
G01 X7.9689 Y27.3662
G01 X7.9496 Y27.3540
G01 X7.8581 Y27.2892
G01 X7.8403 Y27.2749
G01 X7.7567 Y27.2002
G01 X7.7406 Y27.1841
G01 X7.6659 Y27.1005
G01 X7.6516 Y27.0827
G01 X7.5851 Y26.9889
G01 X7.5746 Y26.9719
G01 X7.5204 Y26.8738
G01 X7.5105 Y26.8532
G01 X7.4676 Y26.7496
G01 X7.4601 Y26.7281
G01 X7.4290 Y26.6204
G01 X7.4239 Y26.5982
G01 X7.4052 Y26.4876
G01 X7.4026 Y26.4650
G01 X7.3960 Y26.3416
G01 X7.4030 Y26.2183
G00 Z2.5400
G00 X9.9430 Y26.2183
G01 F76.20
G01 Z-0.2000
G01 F76.20
G01 X9.9452 Y26.1956
G01 X9.9639 Y26.0850
G01 X9.9690 Y26.0628
G01 X10.0001 Y25.9551
G01 X10.0076 Y25.9336
G01 X10.0510 Y25.8289
G01 X10.0604 Y25.8094
G01 X10.1146 Y25.7113
G01 X10.1268 Y25.6920
G01 X10.1916 Y25.6005
G01 X10.2059 Y25.5827
G01 X10.2806 Y25.4991
G01 X10.2967 Y25.4830
G01 X10.3803 Y25.4083
G01 X10.3981 Y25.3940
G01 X10.4919 Y25.3275
G01 X10.5089 Y25.3170
G01 X10.6070 Y25.2628
G01 X10.6276 Y25.2529
G01 X10.7312 Y25.2100
G01 X10.7527 Y25.2025
G01 X10.8604 Y25.1714
G01 X10.8826 Y25.1663
G01 X10.9932 Y25.1476
G01 X11.0158 Y25.1450
G01 X11.1392 Y25.1384
G01 X11.2626 Y25.1450
G01 X11.2852 Y25.1476
G01 X11.3958 Y25.1663
G01 X11.4180 Y25.1714
G01 X11.5257 Y25.2025
G01 X11.5472 Y25.2100
G01 X11.6519 Y25.2534
G01 X11.6714 Y25.2628
G01 X11.7695 Y25.3170
G01 X11.7888 Y25.3292
G01 X11.8803 Y25.3940
G01 X11.8981 Y25.4083
G01 X11.9817 Y25.4830
G01 X11.9978 Y25.4991
G01 X12.0725 Y25.5827
G01 X12.0868 Y25.6005
G01 X12.1533 Y25.6943
G01 X12.1638 Y25.7113
G01 X12.2180 Y25.8094
G01 X12.2279 Y25.8300
G01 X12.2708 Y25.9336
G01 X12.2783 Y25.9551
G01 X12.3094 Y26.0628
G01 X12.3145 Y26.0850
G01 X12.3332 Y26.1956
G01 X12.3358 Y26.2182
G01 X12.3424 Y26.3416
G01 X12.3358 Y26.4650
G01 X12.3332 Y26.4876
G01 X12.3145 Y26.5982
G01 X12.3094 Y26.6204
G01 X12.2783 Y26.7281
G01 X12.2708 Y26.7496
G01 X12.2274 Y26.8543
G01 X12.2180 Y26.8738
G01 X12.1638 Y26.9719
G01 X12.1516 Y26.9912
G01 X12.0868 Y27.0827
G01 X12.0725 Y27.1005
G01 X11.9978 Y27.1841
G01 X11.9817 Y27.2002
G01 X11.8981 Y27.2749
G01 X11.8803 Y27.2892
G01 X11.7865 Y27.3557
G01 X11.7695 Y27.3662
G01 X11.6714 Y27.4204
G01 X11.6508 Y27.4303
G01 X11.5472 Y27.4732
G01 X11.5257 Y27.4807
G01 X11.4180 Y27.5118
G01 X11.3958 Y27.5169
G01 X11.2852 Y27.5356
G01 X11.2626 Y27.5382
G01 X11.1392 Y27.5448
G01 X11.0158 Y27.5382
G01 X10.9932 Y27.5356
G01 X10.8826 Y27.5169
G01 X10.8604 Y27.5118
G01 X10.7527 Y27.4807
G01 X10.7312 Y27.4732
G01 X10.6265 Y27.4298
G01 X10.6070 Y27.4204
G01 X10.5089 Y27.3662
G01 X10.4896 Y27.3540
G01 X10.3981 Y27.2892
G01 X10.3803 Y27.2749
G01 X10.2967 Y27.2002
G01 X10.2806 Y27.1841
G01 X10.2059 Y27.1005
G01 X10.1916 Y27.0827
G01 X10.1251 Y26.9889
G01 X10.1146 Y26.9719
G01 X10.0604 Y26.8738
G01 X10.0505 Y26.8532
G01 X10.0076 Y26.7496
G01 X10.0001 Y26.7281
G01 X9.9690 Y26.6204
G01 X9.9639 Y26.5982
G01 X9.9452 Y26.4876
G01 X9.9426 Y26.4650
G01 X9.9360 Y26.3416
G01 X9.9430 Y26.2183
G00 Z2.5400
G00 X17.6138 Y26.1675
G01 F76.20
G01 Z-0.2000
G01 F76.20
G01 X17.6160 Y26.1448
G01 X17.6347 Y26.0342
G01 X17.6398 Y26.0120
G01 X17.6709 Y25.9043
G01 X17.6784 Y25.8828
G01 X17.7218 Y25.7781
G01 X17.7312 Y25.7586
G01 X17.7854 Y25.6605
G01 X17.7976 Y25.6412
G01 X17.8624 Y25.5497
G01 X17.8767 Y25.5319
G01 X17.9514 Y25.4483
G01 X17.9675 Y25.4322
G01 X18.0511 Y25.3575
G01 X18.0689 Y25.3432
G01 X18.1627 Y25.2767
G01 X18.1797 Y25.2662
G01 X18.2778 Y25.2120
G01 X18.2984 Y25.2021
G01 X18.4020 Y25.1592
G01 X18.4235 Y25.1517
G01 X18.5312 Y25.1206
G01 X18.5534 Y25.1155
G01 X18.6640 Y25.0968
G01 X18.6866 Y25.0942
G01 X18.8100 Y25.0876
G01 X18.9334 Y25.0942
G01 X18.9560 Y25.0968
G01 X19.0666 Y25.1155
G01 X19.0888 Y25.1206
G01 X19.1965 Y25.1517
G01 X19.2180 Y25.1592
G01 X19.3227 Y25.2026
G01 X19.3422 Y25.2120
G01 X19.4403 Y25.2662
G01 X19.4596 Y25.2784
G01 X19.5511 Y25.3432
G01 X19.5689 Y25.3575
G01 X19.6525 Y25.4322
G01 X19.6686 Y25.4483
G01 X19.7433 Y25.5319
G01 X19.7576 Y25.5497
G01 X19.8241 Y25.6435
G01 X19.8346 Y25.6605
G01 X19.8888 Y25.7586
G01 X19.8987 Y25.7792
G01 X19.9416 Y25.8828
G01 X19.9491 Y25.9043
G01 X19.9802 Y26.0120
G01 X19.9853 Y26.0342
G01 X20.0040 Y26.1448
G01 X20.0066 Y26.1674
G01 X20.0132 Y26.2908
G01 X20.0066 Y26.4142
G01 X20.0040 Y26.4368
G01 X19.9844 Y26.5519
G01 X19.9802 Y26.5696
G01 X19.9491 Y26.6773
G01 X19.9416 Y26.6988
G01 X19.8982 Y26.8035
G01 X19.8888 Y26.8230
G01 X19.8346 Y26.9211
G01 X19.8224 Y26.9404
G01 X19.7576 Y27.0319
G01 X19.7433 Y27.0497
G01 X19.6686 Y27.1333
G01 X19.6525 Y27.1494
G01 X19.5689 Y27.2241
G01 X19.5511 Y27.2384
G01 X19.5135 Y27.2651
G01 X19.5135 Y34.6785
G01 X19.6019 Y34.7412
G01 X19.6197 Y34.7555
G01 X19.7033 Y34.8302
G01 X19.7194 Y34.8463
G01 X19.7941 Y34.9299
G01 X19.8084 Y34.9477
G01 X19.8749 Y35.0415
G01 X19.8854 Y35.0585
G01 X19.9396 Y35.1566
G01 X19.9495 Y35.1772
G01 X19.9924 Y35.2808
G01 X19.9999 Y35.3023
G01 X20.0310 Y35.4100
G01 X20.0361 Y35.4322
G01 X20.0548 Y35.5428
G01 X20.0574 Y35.5654
G01 X20.0640 Y35.6888
G01 X20.0574 Y35.8122
G01 X20.0548 Y35.8348
G01 X20.0361 Y35.9454
G01 X20.0310 Y35.9676
G01 X19.9999 Y36.0753
G01 X19.9924 Y36.0968
G01 X19.9490 Y36.2015
G01 X19.9396 Y36.2210
G01 X19.8854 Y36.3191
G01 X19.8732 Y36.3384
G01 X19.8084 Y36.4299
G01 X19.7941 Y36.4477
G01 X19.7194 Y36.5313
G01 X19.7033 Y36.5474
G01 X19.6197 Y36.6221
G01 X19.6019 Y36.6364
G01 X19.5081 Y36.7029
G01 X19.4911 Y36.7134
G01 X19.3930 Y36.7676
G01 X19.3724 Y36.7775
G01 X19.2688 Y36.8204
G01 X19.2473 Y36.8279
G01 X19.1396 Y36.8590
G01 X19.1174 Y36.8641
G01 X19.0068 Y36.8828
G01 X18.9842 Y36.8854
G01 X18.8608 Y36.8920
G01 X18.7374 Y36.8854
G01 X18.7148 Y36.8828
G01 X18.6042 Y36.8641
G01 X18.5820 Y36.8590
G01 X18.4743 Y36.8279
G01 X18.4528 Y36.8204
G01 X18.3481 Y36.7770
G01 X18.3286 Y36.7676
G01 X18.2305 Y36.7134
G01 X18.2112 Y36.7012
G01 X18.1197 Y36.6364
G01 X18.1019 Y36.6221
G01 X18.0183 Y36.5474
G01 X18.0022 Y36.5313
G01 X17.9275 Y36.4477
G01 X17.9132 Y36.4299
G01 X17.8467 Y36.3361
G01 X17.8362 Y36.3191
G01 X17.7820 Y36.2210
G01 X17.7721 Y36.2004
G01 X17.7292 Y36.0968
G01 X17.7217 Y36.0753
G01 X17.6906 Y35.9676
G01 X17.6855 Y35.9454
G01 X17.6668 Y35.8348
G01 X17.6642 Y35.8122
G01 X17.6576 Y35.6888
G01 X17.6642 Y35.5654
G01 X17.6668 Y35.5428
G01 X17.6864 Y35.4277
G01 X17.6906 Y35.4100
G01 X17.7217 Y35.3023
G01 X17.7292 Y35.2808
G01 X17.7726 Y35.1761
G01 X17.7820 Y35.1566
G01 X17.8362 Y35.0585
G01 X17.8484 Y35.0392
G01 X17.9132 Y34.9477
G01 X17.9275 Y34.9299
G01 X18.0022 Y34.8463
G01 X18.0183 Y34.8302
G01 X18.1019 Y34.7555
G01 X18.1065 Y34.7522
G01 X18.1065 Y27.2651
G01 X18.0689 Y27.2384
G01 X18.0511 Y27.2241
G01 X17.9675 Y27.1494
G01 X17.9514 Y27.1333
G01 X17.8767 Y27.0497
G01 X17.8624 Y27.0319
G01 X17.7959 Y26.9381
G01 X17.7854 Y26.9211
G01 X17.7312 Y26.8230
G01 X17.7213 Y26.8024
G01 X17.6784 Y26.6988
G01 X17.6709 Y26.6773
G01 X17.6398 Y26.5696
G01 X17.6347 Y26.5474
G01 X17.6160 Y26.4368
G01 X17.6134 Y26.4142
G01 X17.6068 Y26.2908
G01 X17.6138 Y26.1675
G00 Z2.5400
G00 X17.2052 Y38.7804
G01 F76.20
G01 Z-0.2000
G01 F76.20
G01 X17.2073 Y38.7578
G01 X17.2251 Y38.6538
G01 X17.2293 Y38.6361
G01 X17.2572 Y38.5391
G01 X17.2648 Y38.5176
G01 X17.3039 Y38.4232
G01 X17.3133 Y38.4038
G01 X17.3621 Y38.3155
G01 X17.3742 Y38.2962
G01 X17.4326 Y38.2139
G01 X17.4468 Y38.1960
G01 X17.5141 Y38.1208
G01 X17.5302 Y38.1047
G01 X17.6055 Y38.0374
G01 X17.6233 Y38.0232
G01 X17.7079 Y37.9632
G01 X17.7249 Y37.9527
G01 X17.8132 Y37.9039
G01 X17.8337 Y37.8940
G01 X17.9270 Y37.8554
G01 X17.9485 Y37.8478
G01 X18.0455 Y37.8199
G01 X18.0677 Y37.8148
G01 X18.1672 Y37.7979
G01 X18.1898 Y37.7954
G01 X18.2906 Y37.7897
G01 X18.3134 Y37.7897
G01 X18.4142 Y37.7954
G01 X18.4368 Y37.7979
G01 X18.5408 Y37.8156
G01 X18.5585 Y37.8199
G01 X18.6555 Y37.8478
G01 X18.6770 Y37.8554
G01 X18.7713 Y37.8944
G01 X18.7908 Y37.9039
G01 X18.8791 Y37.9527
G01 X18.8984 Y37.9648
G01 X18.9807 Y38.0232
G01 X18.9985 Y38.0374
G01 X19.0738 Y38.1047
G01 X19.0899 Y38.1208
G01 X19.1572 Y38.1960
G01 X19.1714 Y38.2139
G01 X19.2314 Y38.2985
G01 X19.2419 Y38.3155
G01 X19.2907 Y38.4038
G01 X19.3006 Y38.4243
G01 X19.3392 Y38.5176
G01 X19.3468 Y38.5391
G01 X19.3747 Y38.6361
G01 X19.3798 Y38.6583
G01 X19.3967 Y38.7578
G01 X19.3992 Y38.7804
G01 X19.4049 Y38.8812
G01 X19.4052 Y39.2922
G01 X19.3992 Y39.4044
G01 X19.3967 Y39.4270
G01 X19.3798 Y39.5265
G01 X19.3747 Y39.5487
G01 X19.3468 Y39.6457
G01 X19.3392 Y39.6672
G01 X19.3001 Y39.7616
G01 X19.2907 Y39.7810
G01 X19.2419 Y39.8693
G01 X19.2298 Y39.8886
G01 X19.1714 Y39.9709
G01 X19.1572 Y39.9888
G01 X19.0899 Y40.0640
G01 X19.0738 Y40.0801
G01 X18.9985 Y40.1474
G01 X18.9807 Y40.1616
G01 X18.8961 Y40.2216
G01 X18.8791 Y40.2321
G01 X18.7908 Y40.2809
G01 X18.7703 Y40.2908
G01 X18.6770 Y40.3294
G01 X18.6555 Y40.3370
G01 X18.5585 Y40.3649
G01 X18.5363 Y40.3700
G01 X18.4368 Y40.3869
G01 X18.4142 Y40.3894
G01 X18.3134 Y40.3951
G01 X18.2906 Y40.3951
G01 X18.1898 Y40.3894
G01 X18.1672 Y40.3869
G01 X18.0632 Y40.3692
G01 X18.0455 Y40.3649
G01 X17.9485 Y40.3370
G01 X17.9270 Y40.3294
G01 X17.8327 Y40.2904
G01 X17.8132 Y40.2809
G01 X17.7249 Y40.2321
G01 X17.7056 Y40.2200
G01 X17.6233 Y40.1616
G01 X17.6055 Y40.1474
G01 X17.5302 Y40.0801
G01 X17.5141 Y40.0640
G01 X17.4468 Y39.9888
G01 X17.4326 Y39.9709
G01 X17.3726 Y39.8863
G01 X17.3621 Y39.8693
G01 X17.3133 Y39.7810
G01 X17.3034 Y39.7605
G01 X17.2648 Y39.6672
G01 X17.2572 Y39.6457
G01 X17.2293 Y39.5487
G01 X17.2242 Y39.5265
G01 X17.2073 Y39.4270
G01 X17.2048 Y39.4044
G01 X17.1988 Y39.2922
G01 X17.1988 Y38.8926
G01 X17.2052 Y38.7804
G00 Z2.5400
G00 X22.2852 Y38.7804
G01 F76.20
G01 Z-0.2000
G01 F76.20
G01 X22.2873 Y38.7578
G01 X22.3051 Y38.6538
G01 X22.3093 Y38.6361
G01 X22.3372 Y38.5391
G01 X22.3448 Y38.5176
G01 X22.3839 Y38.4232
G01 X22.3933 Y38.4038
G01 X22.4421 Y38.3155
G01 X22.4542 Y38.2962
G01 X22.5126 Y38.2139
G01 X22.5268 Y38.1960
G01 X22.5941 Y38.1208
G01 X22.6102 Y38.1047
G01 X22.6855 Y38.0374
G01 X22.7033 Y38.0232
G01 X22.7879 Y37.9632
G01 X22.8049 Y37.9527
G01 X22.8932 Y37.9039
G01 X22.9137 Y37.8940
G01 X23.0070 Y37.8554
G01 X23.0285 Y37.8478
G01 X23.1255 Y37.8199
G01 X23.1477 Y37.8148
G01 X23.2472 Y37.7979
G01 X23.2698 Y37.7954
G01 X23.3706 Y37.7897
G01 X23.3934 Y37.7897
G01 X23.4942 Y37.7954
G01 X23.5168 Y37.7979
G01 X23.6208 Y37.8156
G01 X23.6385 Y37.8199
G01 X23.7355 Y37.8478
G01 X23.7570 Y37.8554
G01 X23.8513 Y37.8944
G01 X23.8708 Y37.9039
G01 X23.9591 Y37.9527
G01 X23.9784 Y37.9648
G01 X24.0607 Y38.0232
G01 X24.0785 Y38.0374
G01 X24.1538 Y38.1047
G01 X24.1699 Y38.1208
G01 X24.2372 Y38.1960
G01 X24.2514 Y38.2139
G01 X24.3114 Y38.2985
G01 X24.3219 Y38.3155
G01 X24.3707 Y38.4038
G01 X24.3806 Y38.4243
G01 X24.4192 Y38.5176
G01 X24.4268 Y38.5391
G01 X24.4547 Y38.6361
G01 X24.4598 Y38.6583
G01 X24.4767 Y38.7578
G01 X24.4792 Y38.7804
G01 X24.4849 Y38.8812
G01 X24.4852 Y39.2922
G01 X24.4792 Y39.4044
G01 X24.4767 Y39.4270
G01 X24.4598 Y39.5265
G01 X24.4547 Y39.5487
G01 X24.4268 Y39.6457
G01 X24.4192 Y39.6672
G01 X24.3801 Y39.7616
G01 X24.3707 Y39.7810
G01 X24.3219 Y39.8693
G01 X24.3098 Y39.8886
G01 X24.2514 Y39.9709
G01 X24.2372 Y39.9888
G01 X24.1699 Y40.0640
G01 X24.1538 Y40.0801
G01 X24.0785 Y40.1474
G01 X24.0607 Y40.1616
G01 X23.9761 Y40.2216
G01 X23.9591 Y40.2321
G01 X23.8708 Y40.2809
G01 X23.8503 Y40.2908
G01 X23.7570 Y40.3294
G01 X23.7355 Y40.3370
G01 X23.6385 Y40.3649
G01 X23.6163 Y40.3700
G01 X23.5168 Y40.3869
G01 X23.4942 Y40.3894
G01 X23.3934 Y40.3951
G01 X23.3706 Y40.3951
G01 X23.2698 Y40.3894
G01 X23.2472 Y40.3869
G01 X23.1432 Y40.3692
G01 X23.1255 Y40.3649
G01 X23.0285 Y40.3370
G01 X23.0070 Y40.3294
G01 X22.9127 Y40.2904
G01 X22.8932 Y40.2809
G01 X22.8049 Y40.2321
G01 X22.7856 Y40.2200
G01 X22.7033 Y40.1616
G01 X22.6855 Y40.1474
G01 X22.6102 Y40.0801
G01 X22.5941 Y40.0640
G01 X22.5268 Y39.9888
G01 X22.5126 Y39.9709
G01 X22.4526 Y39.8863
G01 X22.4421 Y39.8693
G01 X22.3933 Y39.7810
G01 X22.3834 Y39.7605
G01 X22.3448 Y39.6672
G01 X22.3372 Y39.6457
G01 X22.3093 Y39.5487
G01 X22.3042 Y39.5265
G01 X22.2873 Y39.4270
G01 X22.2848 Y39.4044
G01 X22.2788 Y39.2922
G01 X22.2788 Y38.8926
G01 X22.2852 Y38.7804
G00 Z2.5400
G00 X24.8252 Y38.7804
G01 F76.20
G01 Z-0.2000
G01 F76.20
G01 X24.8273 Y38.7578
G01 X24.8451 Y38.6538
G01 X24.8493 Y38.6361
G01 X24.8772 Y38.5391
G01 X24.8848 Y38.5176
G01 X24.9239 Y38.4232
G01 X24.9333 Y38.4038
G01 X24.9821 Y38.3155
G01 X24.9942 Y38.2962
G01 X25.0526 Y38.2139
G01 X25.0668 Y38.1960
G01 X25.1341 Y38.1208
G01 X25.1502 Y38.1047
G01 X25.2255 Y38.0374
G01 X25.2433 Y38.0232
G01 X25.3279 Y37.9632
G01 X25.3449 Y37.9527
G01 X25.4332 Y37.9039
G01 X25.4537 Y37.8940
G01 X25.5470 Y37.8554
G01 X25.5685 Y37.8478
G01 X25.6655 Y37.8199
G01 X25.6877 Y37.8148
G01 X25.7872 Y37.7979
G01 X25.8098 Y37.7954
G01 X25.9106 Y37.7897
G01 X25.9334 Y37.7897
G01 X26.0342 Y37.7954
G01 X26.0568 Y37.7979
G01 X26.1608 Y37.8156
G01 X26.1785 Y37.8199
G01 X26.2755 Y37.8478
G01 X26.2970 Y37.8554
G01 X26.3913 Y37.8944
G01 X26.4108 Y37.9039
G01 X26.4991 Y37.9527
G01 X26.5184 Y37.9648
G01 X26.6007 Y38.0232
G01 X26.6185 Y38.0374
G01 X26.6938 Y38.1047
G01 X26.7099 Y38.1208
G01 X26.7772 Y38.1960
G01 X26.7914 Y38.2139
G01 X26.8514 Y38.2985
G01 X26.8619 Y38.3155
G01 X26.9107 Y38.4038
G01 X26.9206 Y38.4243
G01 X26.9592 Y38.5176
G01 X26.9668 Y38.5391
G01 X26.9947 Y38.6361
G01 X26.9998 Y38.6583
G01 X27.0167 Y38.7578
G01 X27.0192 Y38.7804
G01 X27.0249 Y38.8812
G01 X27.0252 Y39.2922
G01 X27.0192 Y39.4044
G01 X27.0167 Y39.4270
G01 X26.9998 Y39.5265
G01 X26.9947 Y39.5487
G01 X26.9668 Y39.6457
G01 X26.9592 Y39.6672
G01 X26.9201 Y39.7616
G01 X26.9107 Y39.7810
G01 X26.8619 Y39.8693
G01 X26.8498 Y39.8886
G01 X26.7914 Y39.9709
G01 X26.7772 Y39.9888
G01 X26.7099 Y40.0640
G01 X26.6938 Y40.0801
G01 X26.6185 Y40.1474
G01 X26.6007 Y40.1616
G01 X26.5161 Y40.2216
G01 X26.4991 Y40.2321
G01 X26.4108 Y40.2809
G01 X26.3903 Y40.2908
G01 X26.2970 Y40.3294
G01 X26.2755 Y40.3370
G01 X26.1785 Y40.3649
G01 X26.1563 Y40.3700
G01 X26.0568 Y40.3869
G01 X26.0342 Y40.3894
G01 X25.9334 Y40.3951
G01 X25.9106 Y40.3951
G01 X25.8098 Y40.3894
G01 X25.7872 Y40.3869
G01 X25.6832 Y40.3692
G01 X25.6655 Y40.3649
G01 X25.5685 Y40.3370
G01 X25.5470 Y40.3294
G01 X25.4527 Y40.2904
G01 X25.4332 Y40.2809
G01 X25.3449 Y40.2321
G01 X25.3256 Y40.2200
G01 X25.2433 Y40.1616
G01 X25.2255 Y40.1474
G01 X25.1502 Y40.0801
G01 X25.1341 Y40.0640
G01 X25.0668 Y39.9888
G01 X25.0526 Y39.9709
G01 X24.9926 Y39.8863
G01 X24.9821 Y39.8693
G01 X24.9333 Y39.7810
G01 X24.9234 Y39.7605
G01 X24.8848 Y39.6672
G01 X24.8772 Y39.6457
G01 X24.8493 Y39.5487
G01 X24.8442 Y39.5265
G01 X24.8273 Y39.4270
G01 X24.8248 Y39.4044
G01 X24.8188 Y39.2922
G01 X24.8188 Y38.8926
G01 X24.8252 Y38.7804
G00 Z2.5400
G00 X27.3652 Y38.7804
G01 F76.20
G01 Z-0.2000
G01 F76.20
G01 X27.3673 Y38.7578
G01 X27.3851 Y38.6538
G01 X27.3893 Y38.6361
G01 X27.4172 Y38.5391
G01 X27.4248 Y38.5176
G01 X27.4639 Y38.4232
G01 X27.4733 Y38.4038
G01 X27.5221 Y38.3155
G01 X27.5342 Y38.2962
G01 X27.5926 Y38.2139
G01 X27.6068 Y38.1960
G01 X27.6741 Y38.1208
G01 X27.6902 Y38.1047
G01 X27.7655 Y38.0374
G01 X27.7833 Y38.0232
G01 X27.8679 Y37.9632
G01 X27.8849 Y37.9527
G01 X27.9732 Y37.9039
G01 X27.9937 Y37.8940
G01 X28.0870 Y37.8554
G01 X28.1085 Y37.8478
G01 X28.2055 Y37.8199
G01 X28.2277 Y37.8148
G01 X28.3272 Y37.7979
G01 X28.3498 Y37.7954
G01 X28.4506 Y37.7897
G01 X28.4734 Y37.7897
G01 X28.5742 Y37.7954
G01 X28.5968 Y37.7979
G01 X28.7008 Y37.8156
G01 X28.7185 Y37.8199
G01 X28.8155 Y37.8478
G01 X28.8370 Y37.8554
G01 X28.9313 Y37.8944
G01 X28.9508 Y37.9039
G01 X29.0391 Y37.9527
G01 X29.0584 Y37.9648
G01 X29.1407 Y38.0232
G01 X29.1585 Y38.0374
G01 X29.2338 Y38.1047
G01 X29.2499 Y38.1208
G01 X29.3172 Y38.1960
G01 X29.3314 Y38.2139
G01 X29.3914 Y38.2985
G01 X29.4019 Y38.3155
G01 X29.4507 Y38.4038
G01 X29.4606 Y38.4243
G01 X29.4992 Y38.5176
G01 X29.5068 Y38.5391
G01 X29.5347 Y38.6361
G01 X29.5398 Y38.6583
G01 X29.5567 Y38.7578
G01 X29.5592 Y38.7804
G01 X29.5649 Y38.8812
G01 X29.5652 Y39.2922
G01 X29.5592 Y39.4044
G01 X29.5567 Y39.4270
G01 X29.5398 Y39.5265
G01 X29.5347 Y39.5487
G01 X29.5068 Y39.6457
G01 X29.4992 Y39.6672
G01 X29.4601 Y39.7616
G01 X29.4507 Y39.7810
G01 X29.4019 Y39.8693
G01 X29.3898 Y39.8886
G01 X29.3314 Y39.9709
G01 X29.3172 Y39.9888
G01 X29.2499 Y40.0640
G01 X29.2338 Y40.0801
G01 X29.1585 Y40.1474
G01 X29.1407 Y40.1616
G01 X29.0561 Y40.2216
G01 X29.0391 Y40.2321
G01 X28.9508 Y40.2809
G01 X28.9303 Y40.2908
G01 X28.8370 Y40.3294
G01 X28.8155 Y40.3370
G01 X28.7185 Y40.3649
G01 X28.6963 Y40.3700
G01 X28.5968 Y40.3869
G01 X28.5742 Y40.3894
G01 X28.4734 Y40.3951
G01 X28.4506 Y40.3951
G01 X28.3498 Y40.3894
G01 X28.3272 Y40.3869
G01 X28.2232 Y40.3692
G01 X28.2055 Y40.3649
G01 X28.1085 Y40.3370
G01 X28.0870 Y40.3294
G01 X27.9927 Y40.2904
G01 X27.9732 Y40.2809
G01 X27.8849 Y40.2321
G01 X27.8656 Y40.2200
G01 X27.7833 Y40.1616
G01 X27.7655 Y40.1474
G01 X27.6902 Y40.0801
G01 X27.6741 Y40.0640
G01 X27.6068 Y39.9888
G01 X27.5926 Y39.9709
G01 X27.5326 Y39.8863
G01 X27.5221 Y39.8693
G01 X27.4733 Y39.7810
G01 X27.4634 Y39.7605
G01 X27.4248 Y39.6672
G01 X27.4172 Y39.6457
G01 X27.3893 Y39.5487
G01 X27.3842 Y39.5265
G01 X27.3673 Y39.4270
G01 X27.3648 Y39.4044
G01 X27.3588 Y39.2922
G01 X27.3588 Y38.8926
G01 X27.3652 Y38.7804
G00 Z2.5400
G00 X29.9052 Y38.7804
G01 F76.20
G01 Z-0.2000
G01 F76.20
G01 X29.9073 Y38.7578
G01 X29.9251 Y38.6538
G01 X29.9293 Y38.6361
G01 X29.9572 Y38.5391
G01 X29.9648 Y38.5176
G01 X30.0039 Y38.4232
G01 X30.0133 Y38.4038
G01 X30.0621 Y38.3155
G01 X30.0742 Y38.2962
G01 X30.1326 Y38.2139
G01 X30.1468 Y38.1960
G01 X30.2141 Y38.1208
G01 X30.2302 Y38.1047
G01 X30.3055 Y38.0374
G01 X30.3233 Y38.0232
G01 X30.4079 Y37.9632
G01 X30.4249 Y37.9527
G01 X30.5132 Y37.9039
G01 X30.5337 Y37.8940
G01 X30.6270 Y37.8554
G01 X30.6485 Y37.8478
G01 X30.7455 Y37.8199
G01 X30.7677 Y37.8148
G01 X30.8672 Y37.7979
G01 X30.8898 Y37.7954
G01 X30.9906 Y37.7897
G01 X31.0134 Y37.7897
G01 X31.1142 Y37.7954
G01 X31.1368 Y37.7979
G01 X31.2408 Y37.8156
G01 X31.2585 Y37.8199
G01 X31.3555 Y37.8478
G01 X31.3770 Y37.8554
G01 X31.4713 Y37.8944
G01 X31.4908 Y37.9039
G01 X31.5791 Y37.9527
G01 X31.5984 Y37.9648
G01 X31.6807 Y38.0232
G01 X31.6985 Y38.0374
G01 X31.7738 Y38.1047
G01 X31.7899 Y38.1208
G01 X31.8572 Y38.1960
G01 X31.8714 Y38.2139
G01 X31.9314 Y38.2985
G01 X31.9419 Y38.3155
G01 X31.9907 Y38.4038
G01 X32.0006 Y38.4243
G01 X32.0392 Y38.5176
G01 X32.0468 Y38.5391
G01 X32.0747 Y38.6361
G01 X32.0798 Y38.6583
G01 X32.0967 Y38.7578
G01 X32.0992 Y38.7804
G01 X32.1049 Y38.8812
G01 X32.1052 Y39.2922
G01 X32.0992 Y39.4044
G01 X32.0967 Y39.4270
G01 X32.0798 Y39.5265
G01 X32.0747 Y39.5487
G01 X32.0468 Y39.6457
G01 X32.0392 Y39.6672
G01 X32.0001 Y39.7616
G01 X31.9907 Y39.7810
G01 X31.9419 Y39.8693
G01 X31.9298 Y39.8886
G01 X31.8714 Y39.9709
G01 X31.8572 Y39.9888
G01 X31.7899 Y40.0640
G01 X31.7738 Y40.0801
G01 X31.6985 Y40.1474
G01 X31.6807 Y40.1616
G01 X31.5961 Y40.2216
G01 X31.5791 Y40.2321
G01 X31.4908 Y40.2809
G01 X31.4703 Y40.2908
G01 X31.3770 Y40.3294
G01 X31.3555 Y40.3370
G01 X31.2585 Y40.3649
G01 X31.2363 Y40.3700
G01 X31.1368 Y40.3869
G01 X31.1142 Y40.3894
G01 X31.0134 Y40.3951
G01 X30.9906 Y40.3951
G01 X30.8898 Y40.3894
G01 X30.8672 Y40.3869
G01 X30.7632 Y40.3692
G01 X30.7455 Y40.3649
G01 X30.6485 Y40.3370
G01 X30.6270 Y40.3294
G01 X30.5327 Y40.2904
G01 X30.5132 Y40.2809
G01 X30.4249 Y40.2321
G01 X30.4056 Y40.2200
G01 X30.3233 Y40.1616
G01 X30.3055 Y40.1474
G01 X30.2302 Y40.0801
G01 X30.2141 Y40.0640
G01 X30.1468 Y39.9888
G01 X30.1326 Y39.9709
G01 X30.0726 Y39.8863
G01 X30.0621 Y39.8693
G01 X30.0133 Y39.7810
G01 X30.0034 Y39.7605
G01 X29.9648 Y39.6672
G01 X29.9572 Y39.6457
G01 X29.9293 Y39.5487
G01 X29.9242 Y39.5265
G01 X29.9073 Y39.4270
G01 X29.9048 Y39.4044
G01 X29.8988 Y39.2922
G01 X29.8988 Y38.8926
G01 X29.9052 Y38.7804
G00 Z2.5400
G00 X32.4452 Y38.7804
G01 F76.20
G01 Z-0.2000
G01 F76.20
G01 X32.4473 Y38.7578
G01 X32.4651 Y38.6538
G01 X32.4693 Y38.6361
G01 X32.4972 Y38.5391
G01 X32.5048 Y38.5176
G01 X32.5439 Y38.4232
G01 X32.5533 Y38.4038
G01 X32.6021 Y38.3155
G01 X32.6142 Y38.2962
G01 X32.6726 Y38.2139
G01 X32.6868 Y38.1960
G01 X32.7541 Y38.1208
G01 X32.7702 Y38.1047
G01 X32.8455 Y38.0374
G01 X32.8633 Y38.0232
G01 X32.9479 Y37.9632
G01 X32.9649 Y37.9527
G01 X33.0532 Y37.9039
G01 X33.0737 Y37.8940
G01 X33.1670 Y37.8554
G01 X33.1885 Y37.8478
G01 X33.2855 Y37.8199
G01 X33.3077 Y37.8148
G01 X33.4072 Y37.7979
G01 X33.4298 Y37.7954
G01 X33.5306 Y37.7897
G01 X33.5534 Y37.7897
G01 X33.6542 Y37.7954
G01 X33.6768 Y37.7979
G01 X33.7808 Y37.8156
G01 X33.7985 Y37.8199
G01 X33.8955 Y37.8478
G01 X33.9170 Y37.8554
G01 X34.0113 Y37.8944
G01 X34.0308 Y37.9039
G01 X34.1191 Y37.9527
G01 X34.1384 Y37.9648
G01 X34.2207 Y38.0232
G01 X34.2385 Y38.0374
G01 X34.3138 Y38.1047
G01 X34.3299 Y38.1208
G01 X34.3972 Y38.1960
G01 X34.4114 Y38.2139
G01 X34.4714 Y38.2985
G01 X34.4819 Y38.3155
G01 X34.5307 Y38.4038
G01 X34.5406 Y38.4243
G01 X34.5792 Y38.5176
G01 X34.5868 Y38.5391
G01 X34.6147 Y38.6361
G01 X34.6198 Y38.6583
G01 X34.6367 Y38.7578
G01 X34.6392 Y38.7804
G01 X34.6449 Y38.8812
G01 X34.6452 Y39.2922
G01 X34.6392 Y39.4044
G01 X34.6367 Y39.4270
G01 X34.6198 Y39.5265
G01 X34.6147 Y39.5487
G01 X34.5868 Y39.6457
G01 X34.5792 Y39.6672
G01 X34.5402 Y39.7616
G01 X34.5307 Y39.7810
G01 X34.4819 Y39.8693
G01 X34.4698 Y39.8886
G01 X34.4114 Y39.9709
G01 X34.3972 Y39.9888
G01 X34.3299 Y40.0640
G01 X34.3138 Y40.0801
G01 X34.2385 Y40.1474
G01 X34.2207 Y40.1616
G01 X34.1361 Y40.2216
G01 X34.1191 Y40.2321
G01 X34.0308 Y40.2809
G01 X34.0103 Y40.2908
G01 X33.9170 Y40.3294
G01 X33.8955 Y40.3370
G01 X33.7985 Y40.3649
G01 X33.7763 Y40.3700
G01 X33.6768 Y40.3869
G01 X33.6542 Y40.3894
G01 X33.5534 Y40.3951
G01 X33.5306 Y40.3951
G01 X33.4298 Y40.3894
G01 X33.4072 Y40.3869
G01 X33.3032 Y40.3692
G01 X33.2855 Y40.3649
G01 X33.1885 Y40.3370
G01 X33.1670 Y40.3294
G01 X33.0727 Y40.2904
G01 X33.0532 Y40.2809
G01 X32.9649 Y40.2321
G01 X32.9456 Y40.2200
G01 X32.8633 Y40.1616
G01 X32.8455 Y40.1474
G01 X32.7702 Y40.0801
G01 X32.7541 Y40.0640
G01 X32.6868 Y39.9888
G01 X32.6726 Y39.9709
G01 X32.6126 Y39.8863
G01 X32.6021 Y39.8693
G01 X32.5533 Y39.7810
G01 X32.5434 Y39.7605
G01 X32.5048 Y39.6672
G01 X32.4972 Y39.6457
G01 X32.4693 Y39.5487
G01 X32.4642 Y39.5265
G01 X32.4473 Y39.4270
G01 X32.4448 Y39.4044
G01 X32.4388 Y39.2922
G01 X32.4388 Y38.8926
G01 X32.4452 Y38.7804
G00 Z2.5400
G00 X34.9852 Y38.7804
G01 F76.20
G01 Z-0.2000
G01 F76.20
G01 X34.9873 Y38.7578
G01 X35.0051 Y38.6538
G01 X35.0093 Y38.6361
G01 X35.0372 Y38.5391
G01 X35.0448 Y38.5176
G01 X35.0838 Y38.4232
G01 X35.0933 Y38.4038
G01 X35.1421 Y38.3155
G01 X35.1542 Y38.2962
G01 X35.2126 Y38.2139
G01 X35.2268 Y38.1960
G01 X35.2941 Y38.1208
G01 X35.3102 Y38.1047
G01 X35.3855 Y38.0374
G01 X35.4033 Y38.0232
G01 X35.4879 Y37.9632
G01 X35.5049 Y37.9527
G01 X35.5932 Y37.9039
G01 X35.6137 Y37.8940
G01 X35.7070 Y37.8554
G01 X35.7285 Y37.8478
G01 X35.8255 Y37.8199
G01 X35.8477 Y37.8148
G01 X35.9472 Y37.7979
G01 X35.9698 Y37.7954
G01 X36.0706 Y37.7897
G01 X36.0934 Y37.7897
G01 X36.1942 Y37.7954
G01 X36.2168 Y37.7979
G01 X36.3208 Y37.8156
G01 X36.3385 Y37.8199
G01 X36.4355 Y37.8478
G01 X36.4570 Y37.8554
G01 X36.5513 Y37.8944
G01 X36.5708 Y37.9039
G01 X36.6591 Y37.9527
G01 X36.6784 Y37.9648
G01 X36.7607 Y38.0232
G01 X36.7785 Y38.0374
G01 X36.8538 Y38.1047
G01 X36.8699 Y38.1208
G01 X36.9372 Y38.1960
G01 X36.9514 Y38.2139
G01 X37.0114 Y38.2985
G01 X37.0219 Y38.3155
G01 X37.0707 Y38.4038
G01 X37.0806 Y38.4243
G01 X37.1192 Y38.5176
G01 X37.1268 Y38.5391
G01 X37.1547 Y38.6361
G01 X37.1598 Y38.6583
G01 X37.1767 Y38.7578
G01 X37.1792 Y38.7804
G01 X37.1849 Y38.8812
G01 X37.1852 Y39.2922
G01 X37.1792 Y39.4044
G01 X37.1767 Y39.4270
G01 X37.1598 Y39.5265
G01 X37.1547 Y39.5487
G01 X37.1268 Y39.6457
G01 X37.1192 Y39.6672
G01 X37.0801 Y39.7616
G01 X37.0707 Y39.7810
G01 X37.0219 Y39.8693
G01 X37.0098 Y39.8886
G01 X36.9514 Y39.9709
G01 X36.9372 Y39.9888
G01 X36.8699 Y40.0640
G01 X36.8538 Y40.0801
G01 X36.7785 Y40.1474
G01 X36.7607 Y40.1616
G01 X36.6761 Y40.2216
G01 X36.6591 Y40.2321
G01 X36.5708 Y40.2809
G01 X36.5503 Y40.2908
G01 X36.4570 Y40.3294
G01 X36.4355 Y40.3370
G01 X36.3385 Y40.3649
G01 X36.3163 Y40.3700
G01 X36.2168 Y40.3869
G01 X36.1942 Y40.3894
G01 X36.0934 Y40.3951
G01 X36.0706 Y40.3951
G01 X35.9698 Y40.3894
G01 X35.9472 Y40.3869
G01 X35.8432 Y40.3692
G01 X35.8255 Y40.3649
G01 X35.7285 Y40.3370
G01 X35.7070 Y40.3294
G01 X35.6127 Y40.2904
G01 X35.5932 Y40.2809
G01 X35.5049 Y40.2321
G01 X35.4856 Y40.2200
G01 X35.4033 Y40.1616
G01 X35.3855 Y40.1474
G01 X35.3102 Y40.0801
G01 X35.2941 Y40.0640
G01 X35.2268 Y39.9888
G01 X35.2126 Y39.9709
G01 X35.1526 Y39.8863
G01 X35.1421 Y39.8693
G01 X35.0933 Y39.7810
G01 X35.0834 Y39.7605
G01 X35.0448 Y39.6672
G01 X35.0372 Y39.6457
G01 X35.0093 Y39.5487
G01 X35.0042 Y39.5265
G01 X34.9873 Y39.4270
G01 X34.9848 Y39.4044
G01 X34.9788 Y39.2922
G01 X34.9788 Y38.8926
G01 X34.9852 Y38.7804
G00 Z2.5400
G00 X37.5252 Y38.7804
G01 F76.20
G01 Z-0.2000
G01 F76.20
G01 X37.5273 Y38.7578
G01 X37.5451 Y38.6538
G01 X37.5493 Y38.6361
G01 X37.5772 Y38.5391
G01 X37.5848 Y38.5176
G01 X37.6238 Y38.4232
G01 X37.6333 Y38.4038
G01 X37.6821 Y38.3155
G01 X37.6942 Y38.2962
G01 X37.7526 Y38.2139
G01 X37.7668 Y38.1960
G01 X37.8341 Y38.1208
G01 X37.8502 Y38.1047
G01 X37.9255 Y38.0374
G01 X37.9433 Y38.0232
G01 X38.0279 Y37.9632
G01 X38.0449 Y37.9527
G01 X38.1332 Y37.9039
G01 X38.1537 Y37.8940
G01 X38.2470 Y37.8554
G01 X38.2685 Y37.8478
G01 X38.3655 Y37.8199
G01 X38.3877 Y37.8148
G01 X38.4872 Y37.7979
G01 X38.5098 Y37.7954
G01 X38.6106 Y37.7897
G01 X38.6334 Y37.7897
G01 X38.7342 Y37.7954
G01 X38.7568 Y37.7979
G01 X38.8608 Y37.8156
G01 X38.8785 Y37.8199
G01 X38.9755 Y37.8478
G01 X38.9970 Y37.8554
G01 X39.0913 Y37.8944
G01 X39.1108 Y37.9039
G01 X39.1991 Y37.9527
G01 X39.2184 Y37.9648
G01 X39.3007 Y38.0232
G01 X39.3185 Y38.0374
G01 X39.3938 Y38.1047
G01 X39.4099 Y38.1208
G01 X39.4772 Y38.1960
G01 X39.4914 Y38.2139
G01 X39.5514 Y38.2985
G01 X39.5619 Y38.3155
G01 X39.6107 Y38.4038
G01 X39.6206 Y38.4243
G01 X39.6592 Y38.5176
G01 X39.6668 Y38.5391
G01 X39.6947 Y38.6361
G01 X39.6998 Y38.6583
G01 X39.7167 Y38.7578
G01 X39.7192 Y38.7804
G01 X39.7249 Y38.8812
G01 X39.7252 Y39.2922
G01 X39.7192 Y39.4044
G01 X39.7167 Y39.4270
G01 X39.6998 Y39.5265
G01 X39.6947 Y39.5487
G01 X39.6668 Y39.6457
G01 X39.6592 Y39.6672
G01 X39.6201 Y39.7616
G01 X39.6107 Y39.7810
G01 X39.5619 Y39.8693
G01 X39.5498 Y39.8886
G01 X39.4914 Y39.9709
G01 X39.4772 Y39.9888
G01 X39.4099 Y40.0640
G01 X39.3938 Y40.0801
G01 X39.3185 Y40.1474
G01 X39.3007 Y40.1616
G01 X39.2161 Y40.2216
G01 X39.1991 Y40.2321
G01 X39.1108 Y40.2809
G01 X39.0903 Y40.2908
G01 X38.9970 Y40.3294
G01 X38.9755 Y40.3370
G01 X38.8785 Y40.3649
G01 X38.8563 Y40.3700
G01 X38.7568 Y40.3869
G01 X38.7342 Y40.3894
G01 X38.6334 Y40.3951
G01 X38.6106 Y40.3951
G01 X38.5098 Y40.3894
G01 X38.4872 Y40.3869
G01 X38.3832 Y40.3692
G01 X38.3655 Y40.3649
G01 X38.2685 Y40.3370
G01 X38.2470 Y40.3294
G01 X38.1527 Y40.2904
G01 X38.1332 Y40.2809
G01 X38.0449 Y40.2321
G01 X38.0256 Y40.2200
G01 X37.9433 Y40.1616
G01 X37.9255 Y40.1474
G01 X37.8502 Y40.0801
G01 X37.8341 Y40.0640
G01 X37.7668 Y39.9888
G01 X37.7526 Y39.9709
G01 X37.6926 Y39.8863
G01 X37.6821 Y39.8693
G01 X37.6333 Y39.7810
G01 X37.6234 Y39.7605
G01 X37.5848 Y39.6672
G01 X37.5772 Y39.6457
G01 X37.5493 Y39.5487
G01 X37.5442 Y39.5265
G01 X37.5273 Y39.4270
G01 X37.5248 Y39.4044
G01 X37.5188 Y39.2922
G01 X37.5188 Y38.8926
G01 X37.5252 Y38.7804
G00 Z2.5400
G00 X40.0652 Y38.7804
G01 F76.20
G01 Z-0.2000
G01 F76.20
G01 X40.0673 Y38.7578
G01 X40.0851 Y38.6538
G01 X40.0893 Y38.6361
G01 X40.1172 Y38.5391
G01 X40.1248 Y38.5176
G01 X40.1639 Y38.4232
G01 X40.1733 Y38.4038
G01 X40.2221 Y38.3155
G01 X40.2342 Y38.2962
G01 X40.2926 Y38.2139
G01 X40.3068 Y38.1960
G01 X40.3741 Y38.1208
G01 X40.3902 Y38.1047
G01 X40.4655 Y38.0374
G01 X40.4833 Y38.0232
G01 X40.5679 Y37.9632
G01 X40.5849 Y37.9527
G01 X40.6732 Y37.9039
G01 X40.6937 Y37.8940
G01 X40.7870 Y37.8554
G01 X40.8085 Y37.8478
G01 X40.9055 Y37.8199
G01 X40.9277 Y37.8148
G01 X41.0272 Y37.7979
G01 X41.0498 Y37.7954
G01 X41.1506 Y37.7897
G01 X41.1734 Y37.7897
G01 X41.2742 Y37.7954
G01 X41.2968 Y37.7979
G01 X41.4008 Y37.8156
G01 X41.4185 Y37.8199
G01 X41.5155 Y37.8478
G01 X41.5370 Y37.8554
G01 X41.6313 Y37.8944
G01 X41.6508 Y37.9039
G01 X41.7391 Y37.9527
G01 X41.7584 Y37.9648
G01 X41.8407 Y38.0232
G01 X41.8585 Y38.0374
G01 X41.9338 Y38.1047
G01 X41.9499 Y38.1208
G01 X42.0172 Y38.1960
G01 X42.0314 Y38.2139
G01 X42.0914 Y38.2985
G01 X42.1019 Y38.3155
G01 X42.1507 Y38.4038
G01 X42.1606 Y38.4243
G01 X42.1992 Y38.5176
G01 X42.2068 Y38.5391
G01 X42.2347 Y38.6361
G01 X42.2398 Y38.6583
G01 X42.2567 Y38.7578
G01 X42.2592 Y38.7804
G01 X42.2649 Y38.8812
G01 X42.2652 Y39.2922
G01 X42.2592 Y39.4044
G01 X42.2567 Y39.4270
G01 X42.2398 Y39.5265
G01 X42.2347 Y39.5487
G01 X42.2068 Y39.6457
G01 X42.1992 Y39.6672
G01 X42.1602 Y39.7616
G01 X42.1507 Y39.7810
G01 X42.1019 Y39.8693
G01 X42.0898 Y39.8886
G01 X42.0314 Y39.9709
G01 X42.0172 Y39.9888
G01 X41.9499 Y40.0640
G01 X41.9338 Y40.0801
G01 X41.8585 Y40.1474
G01 X41.8407 Y40.1616
G01 X41.7561 Y40.2216
G01 X41.7391 Y40.2321
G01 X41.6508 Y40.2809
G01 X41.6303 Y40.2908
G01 X41.5370 Y40.3294
G01 X41.5155 Y40.3370
G01 X41.4185 Y40.3649
G01 X41.3963 Y40.3700
G01 X41.2968 Y40.3869
G01 X41.2742 Y40.3894
G01 X41.1734 Y40.3951
G01 X41.1506 Y40.3951
G01 X41.0498 Y40.3894
G01 X41.0272 Y40.3869
G01 X40.9232 Y40.3692
G01 X40.9055 Y40.3649
G01 X40.8085 Y40.3370
G01 X40.7870 Y40.3294
G01 X40.6927 Y40.2904
G01 X40.6732 Y40.2809
G01 X40.5849 Y40.2321
G01 X40.5656 Y40.2200
G01 X40.4833 Y40.1616
G01 X40.4655 Y40.1474
G01 X40.3902 Y40.0801
G01 X40.3741 Y40.0640
G01 X40.3068 Y39.9888
G01 X40.2926 Y39.9709
G01 X40.2326 Y39.8863
G01 X40.2221 Y39.8693
G01 X40.1733 Y39.7810
G01 X40.1634 Y39.7605
G01 X40.1248 Y39.6672
G01 X40.1172 Y39.6457
G01 X40.0893 Y39.5487
G01 X40.0842 Y39.5265
G01 X40.0673 Y39.4270
G01 X40.0648 Y39.4044
G01 X40.0588 Y39.2922
G01 X40.0588 Y38.8926
G01 X40.0652 Y38.7804
G00 Z2.5400
G00 X42.6052 Y38.7804
G01 F76.20
G01 Z-0.2000
G01 F76.20
G01 X42.6073 Y38.7578
G01 X42.6251 Y38.6538
G01 X42.6293 Y38.6361
G01 X42.6572 Y38.5391
G01 X42.6648 Y38.5176
G01 X42.7039 Y38.4232
G01 X42.7133 Y38.4038
G01 X42.7621 Y38.3155
G01 X42.7742 Y38.2962
G01 X42.8326 Y38.2139
G01 X42.8468 Y38.1960
G01 X42.9141 Y38.1208
G01 X42.9302 Y38.1047
G01 X43.0055 Y38.0374
G01 X43.0233 Y38.0232
G01 X43.1079 Y37.9632
G01 X43.1249 Y37.9527
G01 X43.2132 Y37.9039
G01 X43.2337 Y37.8940
G01 X43.3270 Y37.8554
G01 X43.3485 Y37.8478
G01 X43.4455 Y37.8199
G01 X43.4677 Y37.8148
G01 X43.5672 Y37.7979
G01 X43.5898 Y37.7954
G01 X43.6906 Y37.7897
G01 X43.7134 Y37.7897
G01 X43.8142 Y37.7954
G01 X43.8368 Y37.7979
G01 X43.9408 Y37.8156
G01 X43.9585 Y37.8199
G01 X44.0555 Y37.8478
G01 X44.0770 Y37.8554
G01 X44.1713 Y37.8944
G01 X44.1908 Y37.9039
G01 X44.2791 Y37.9527
G01 X44.2984 Y37.9648
G01 X44.3807 Y38.0232
G01 X44.3985 Y38.0374
G01 X44.4738 Y38.1047
G01 X44.4899 Y38.1208
G01 X44.5572 Y38.1960
G01 X44.5714 Y38.2139
G01 X44.6314 Y38.2985
G01 X44.6419 Y38.3155
G01 X44.6907 Y38.4038
G01 X44.7006 Y38.4243
G01 X44.7392 Y38.5176
G01 X44.7468 Y38.5391
G01 X44.7747 Y38.6361
G01 X44.7798 Y38.6583
G01 X44.7967 Y38.7578
G01 X44.7992 Y38.7804
G01 X44.8049 Y38.8812
G01 X44.8052 Y39.2922
G01 X44.7992 Y39.4044
G01 X44.7967 Y39.4270
G01 X44.7798 Y39.5265
G01 X44.7747 Y39.5487
G01 X44.7468 Y39.6457
G01 X44.7392 Y39.6672
G01 X44.7001 Y39.7616
G01 X44.6907 Y39.7810
G01 X44.6419 Y39.8693
G01 X44.6298 Y39.8886
G01 X44.5714 Y39.9709
G01 X44.5572 Y39.9888
G01 X44.4899 Y40.0640
G01 X44.4738 Y40.0801
G01 X44.3985 Y40.1474
G01 X44.3807 Y40.1616
G01 X44.2961 Y40.2216
G01 X44.2791 Y40.2321
G01 X44.1908 Y40.2809
G01 X44.1703 Y40.2908
G01 X44.0770 Y40.3294
G01 X44.0555 Y40.3370
G01 X43.9585 Y40.3649
G01 X43.9363 Y40.3700
G01 X43.8368 Y40.3869
G01 X43.8142 Y40.3894
G01 X43.7134 Y40.3951
G01 X43.6906 Y40.3951
G01 X43.5898 Y40.3894
G01 X43.5672 Y40.3869
G01 X43.4632 Y40.3692
G01 X43.4455 Y40.3649
G01 X43.3485 Y40.3370
G01 X43.3270 Y40.3294
G01 X43.2327 Y40.2904
G01 X43.2132 Y40.2809
G01 X43.1249 Y40.2321
G01 X43.1056 Y40.2200
G01 X43.0233 Y40.1616
G01 X43.0055 Y40.1474
G01 X42.9302 Y40.0801
G01 X42.9141 Y40.0640
G01 X42.8468 Y39.9888
G01 X42.8326 Y39.9709
G01 X42.7726 Y39.8863
G01 X42.7621 Y39.8693
G01 X42.7133 Y39.7810
G01 X42.7034 Y39.7605
G01 X42.6648 Y39.6672
G01 X42.6572 Y39.6457
G01 X42.6293 Y39.5487
G01 X42.6242 Y39.5265
G01 X42.6073 Y39.4270
G01 X42.6048 Y39.4044
G01 X42.5988 Y39.2922
G01 X42.5988 Y38.8926
G01 X42.6052 Y38.7804
G00 Z2.5400
G00 X45.1452 Y38.7804
G01 F76.20
G01 Z-0.2000
G01 F76.20
G01 X45.1473 Y38.7578
G01 X45.1651 Y38.6538
G01 X45.1693 Y38.6361
G01 X45.1972 Y38.5391
G01 X45.2048 Y38.5176
G01 X45.2438 Y38.4232
G01 X45.2533 Y38.4038
G01 X45.3021 Y38.3155
G01 X45.3142 Y38.2962
G01 X45.3726 Y38.2139
G01 X45.3868 Y38.1960
G01 X45.4541 Y38.1208
G01 X45.4702 Y38.1047
G01 X45.5455 Y38.0374
G01 X45.5633 Y38.0232
G01 X45.6479 Y37.9632
G01 X45.6649 Y37.9527
G01 X45.7532 Y37.9039
G01 X45.7737 Y37.8940
G01 X45.8670 Y37.8554
G01 X45.8885 Y37.8478
G01 X45.9855 Y37.8199
G01 X46.0077 Y37.8148
G01 X46.1072 Y37.7979
G01 X46.1298 Y37.7954
G01 X46.2306 Y37.7897
G01 X46.2534 Y37.7897
G01 X46.3542 Y37.7954
G01 X46.3768 Y37.7979
G01 X46.4808 Y37.8156
G01 X46.4985 Y37.8199
G01 X46.5955 Y37.8478
G01 X46.6170 Y37.8554
G01 X46.7113 Y37.8944
G01 X46.7308 Y37.9039
G01 X46.8191 Y37.9527
G01 X46.8384 Y37.9648
G01 X46.9207 Y38.0232
G01 X46.9385 Y38.0374
G01 X47.0138 Y38.1047
G01 X47.0299 Y38.1208
G01 X47.0972 Y38.1960
G01 X47.1114 Y38.2139
G01 X47.1714 Y38.2985
G01 X47.1819 Y38.3155
G01 X47.2307 Y38.4038
G01 X47.2406 Y38.4243
G01 X47.2792 Y38.5176
G01 X47.2868 Y38.5391
G01 X47.3147 Y38.6361
G01 X47.3198 Y38.6583
G01 X47.3367 Y38.7578
G01 X47.3392 Y38.7804
G01 X47.3449 Y38.8812
G01 X47.3452 Y39.2922
G01 X47.3392 Y39.4044
G01 X47.3367 Y39.4270
G01 X47.3198 Y39.5265
G01 X47.3147 Y39.5487
G01 X47.2868 Y39.6457
G01 X47.2792 Y39.6672
G01 X47.2401 Y39.7616
G01 X47.2307 Y39.7810
G01 X47.1819 Y39.8693
G01 X47.1698 Y39.8886
G01 X47.1114 Y39.9709
G01 X47.0972 Y39.9888
G01 X47.0299 Y40.0640
G01 X47.0138 Y40.0801
G01 X46.9385 Y40.1474
G01 X46.9207 Y40.1616
G01 X46.8361 Y40.2216
G01 X46.8191 Y40.2321
G01 X46.7308 Y40.2809
G01 X46.7103 Y40.2908
G01 X46.6170 Y40.3294
G01 X46.5955 Y40.3370
G01 X46.4985 Y40.3649
G01 X46.4763 Y40.3700
G01 X46.3768 Y40.3869
G01 X46.3542 Y40.3894
G01 X46.2534 Y40.3951
G01 X46.2306 Y40.3951
G01 X46.1298 Y40.3894
G01 X46.1072 Y40.3869
G01 X46.0032 Y40.3692
G01 X45.9855 Y40.3649
G01 X45.8885 Y40.3370
G01 X45.8670 Y40.3294
G01 X45.7727 Y40.2904
G01 X45.7532 Y40.2809
G01 X45.6649 Y40.2321
G01 X45.6456 Y40.2200
G01 X45.5633 Y40.1616
G01 X45.5455 Y40.1474
G01 X45.4702 Y40.0801
G01 X45.4541 Y40.0640
G01 X45.3868 Y39.9888
G01 X45.3726 Y39.9709
G01 X45.3126 Y39.8863
G01 X45.3021 Y39.8693
G01 X45.2533 Y39.7810
G01 X45.2434 Y39.7605
G01 X45.2048 Y39.6672
G01 X45.1972 Y39.6457
G01 X45.1693 Y39.5487
G01 X45.1642 Y39.5265
G01 X45.1473 Y39.4270
G01 X45.1448 Y39.4044
G01 X45.1388 Y39.2922
G01 X45.1388 Y38.8926
G01 X45.1452 Y38.7804
G00 Z2.5400
G00 X44.8925 Y24.3271
G01 F76.20
G01 Z-0.2000
G01 F76.20
G01 X44.8947 Y24.3044
G01 X44.9105 Y24.2115
G01 X44.9148 Y24.1937
G01 X44.9396 Y24.1075
G01 X44.9472 Y24.0860
G01 X44.9819 Y24.0020
G01 X44.9914 Y23.9826
G01 X45.0348 Y23.9041
G01 X45.0469 Y23.8848
G01 X45.0988 Y23.8116
G01 X45.1130 Y23.7938
G01 X45.1728 Y23.7269
G01 X45.1889 Y23.7108
G01 X45.2558 Y23.6510
G01 X45.2736 Y23.6368
G01 X45.3491 Y23.5833
G01 X45.3661 Y23.5728
G01 X45.4446 Y23.5294
G01 X45.4651 Y23.5195
G01 X45.5480 Y23.4852
G01 X45.5695 Y23.4776
G01 X45.6557 Y23.4528
G01 X45.6779 Y23.4477
G01 X45.7664 Y23.4327
G01 X45.7890 Y23.4301
G01 X45.8900 Y23.4248
G01 X45.9910 Y23.4301
G01 X46.0136 Y23.4327
G01 X46.1066 Y23.4485
G01 X46.1243 Y23.4528
G01 X46.2105 Y23.4776
G01 X46.2320 Y23.4852
G01 X46.3160 Y23.5199
G01 X46.3354 Y23.5294
G01 X46.4139 Y23.5728
G01 X46.4332 Y23.5849
G01 X46.5064 Y23.6368
G01 X46.5242 Y23.6510
G01 X46.5911 Y23.7108
G01 X46.6072 Y23.7269
G01 X46.6670 Y23.7938
G01 X46.6812 Y23.8116
G01 X46.7347 Y23.8871
G01 X46.7452 Y23.9041
G01 X46.7886 Y23.9826
G01 X46.7985 Y24.0031
G01 X46.8328 Y24.0860
G01 X46.8404 Y24.1075
G01 X46.8652 Y24.1937
G01 X46.8703 Y24.2159
G01 X46.8853 Y24.3044
G01 X46.8879 Y24.3270
G01 X46.8932 Y24.4280
G01 X46.8879 Y24.5290
G01 X46.8853 Y24.5516
G01 X46.8695 Y24.6446
G01 X46.8652 Y24.6623
G01 X46.8404 Y24.7485
G01 X46.8328 Y24.7700
G01 X46.7981 Y24.8540
G01 X46.7886 Y24.8734
G01 X46.7452 Y24.9519
G01 X46.7331 Y24.9712
G01 X46.6812 Y25.0444
G01 X46.6670 Y25.0622
G01 X46.6072 Y25.1291
G01 X46.5911 Y25.1452
G01 X46.5242 Y25.2050
G01 X46.5064 Y25.2192
G01 X46.4309 Y25.2727
G01 X46.4139 Y25.2832
G01 X46.3354 Y25.3266
G01 X46.3149 Y25.3365
G01 X46.2320 Y25.3708
G01 X46.2105 Y25.3784
G01 X46.1243 Y25.4032
G01 X46.1021 Y25.4083
G01 X46.0136 Y25.4233
G01 X45.9910 Y25.4259
G01 X45.8900 Y25.4312
G01 X45.7890 Y25.4259
G01 X45.7664 Y25.4233
G01 X45.6734 Y25.4075
G01 X45.6557 Y25.4032
G01 X45.5695 Y25.3784
G01 X45.5480 Y25.3708
G01 X45.4640 Y25.3361
G01 X45.4446 Y25.3266
G01 X45.3661 Y25.2832
G01 X45.3468 Y25.2711
G01 X45.2736 Y25.2192
G01 X45.2558 Y25.2050
G01 X45.1889 Y25.1452
G01 X45.1728 Y25.1291
G01 X45.1130 Y25.0622
G01 X45.0988 Y25.0444
G01 X45.0453 Y24.9689
G01 X45.0348 Y24.9519
G01 X44.9914 Y24.8734
G01 X44.9815 Y24.8529
G01 X44.9472 Y24.7700
G01 X44.9396 Y24.7485
G01 X44.9148 Y24.6623
G01 X44.9097 Y24.6401
G01 X44.8947 Y24.5516
G01 X44.8921 Y24.5290
G01 X44.8868 Y24.4280
G01 X44.8925 Y24.3271
G00 Z2.5400
G00 X44.8925 Y6.3271
G01 F76.20
G01 Z-0.2000
G01 F76.20
G01 X44.8947 Y6.3044
G01 X44.9105 Y6.2115
G01 X44.9148 Y6.1937
G01 X44.9396 Y6.1075
G01 X44.9472 Y6.0860
G01 X44.9819 Y6.0020
G01 X44.9914 Y5.9826
G01 X45.0348 Y5.9041
G01 X45.0469 Y5.8848
G01 X45.0988 Y5.8116
G01 X45.1130 Y5.7938
G01 X45.1728 Y5.7269
G01 X45.1889 Y5.7108
G01 X45.2558 Y5.6510
G01 X45.2736 Y5.6368
G01 X45.3491 Y5.5833
G01 X45.3661 Y5.5728
G01 X45.4446 Y5.5294
G01 X45.4651 Y5.5195
G01 X45.5480 Y5.4852
G01 X45.5695 Y5.4776
G01 X45.6557 Y5.4528
G01 X45.6779 Y5.4477
G01 X45.7664 Y5.4327
G01 X45.7890 Y5.4301
G01 X45.8900 Y5.4248
G01 X45.9910 Y5.4301
G01 X46.0136 Y5.4327
G01 X46.1066 Y5.4485
G01 X46.1243 Y5.4528
G01 X46.2105 Y5.4776
G01 X46.2320 Y5.4852
G01 X46.3160 Y5.5199
G01 X46.3354 Y5.5294
G01 X46.4139 Y5.5728
G01 X46.4332 Y5.5849
G01 X46.5064 Y5.6368
G01 X46.5242 Y5.6510
G01 X46.5911 Y5.7108
G01 X46.6072 Y5.7269
G01 X46.6670 Y5.7938
G01 X46.6812 Y5.8116
G01 X46.7347 Y5.8871
G01 X46.7452 Y5.9041
G01 X46.7886 Y5.9826
G01 X46.7985 Y6.0031
G01 X46.8328 Y6.0860
G01 X46.8404 Y6.1075
G01 X46.8652 Y6.1937
G01 X46.8703 Y6.2159
G01 X46.8853 Y6.3044
G01 X46.8879 Y6.3270
G01 X46.8932 Y6.4280
G01 X46.8879 Y6.5290
G01 X46.8853 Y6.5516
G01 X46.8695 Y6.6446
G01 X46.8652 Y6.6623
G01 X46.8404 Y6.7485
G01 X46.8328 Y6.7700
G01 X46.7981 Y6.8540
G01 X46.7886 Y6.8734
G01 X46.7452 Y6.9519
G01 X46.7331 Y6.9712
G01 X46.6812 Y7.0444
G01 X46.6670 Y7.0622
G01 X46.6072 Y7.1291
G01 X46.5911 Y7.1452
G01 X46.5242 Y7.2050
G01 X46.5064 Y7.2192
G01 X46.4309 Y7.2727
G01 X46.4139 Y7.2832
G01 X46.3354 Y7.3266
G01 X46.3149 Y7.3365
G01 X46.2320 Y7.3708
G01 X46.2105 Y7.3784
G01 X46.1243 Y7.4032
G01 X46.1021 Y7.4083
G01 X46.0136 Y7.4233
G01 X45.9910 Y7.4259
G01 X45.9527 Y7.4280
G01 X45.9910 Y7.4301
G01 X46.0136 Y7.4327
G01 X46.1066 Y7.4485
G01 X46.1243 Y7.4528
G01 X46.2105 Y7.4776
G01 X46.2320 Y7.4852
G01 X46.3160 Y7.5199
G01 X46.3354 Y7.5294
G01 X46.4139 Y7.5728
G01 X46.4332 Y7.5849
G01 X46.5064 Y7.6368
G01 X46.5242 Y7.6510
G01 X46.5911 Y7.7108
G01 X46.6072 Y7.7269
G01 X46.6670 Y7.7938
G01 X46.6812 Y7.8116
G01 X46.7347 Y7.8871
G01 X46.7452 Y7.9041
G01 X46.7886 Y7.9826
G01 X46.7985 Y8.0031
G01 X46.8328 Y8.0860
G01 X46.8404 Y8.1075
G01 X46.8652 Y8.1937
G01 X46.8703 Y8.2159
G01 X46.8853 Y8.3044
G01 X46.8879 Y8.3270
G01 X46.8929 Y8.4166
G01 X46.8929 Y8.4394
G01 X46.8879 Y8.5290
G01 X46.8853 Y8.5516
G01 X46.8703 Y8.6401
G01 X46.8652 Y8.6623
G01 X46.8404 Y8.7485
G01 X46.8328 Y8.7700
G01 X46.7981 Y8.8540
G01 X46.7886 Y8.8734
G01 X46.7452 Y8.9519
G01 X46.7331 Y8.9712
G01 X46.6812 Y9.0444
G01 X46.6670 Y9.0622
G01 X46.6072 Y9.1291
G01 X46.5911 Y9.1452
G01 X46.5242 Y9.2050
G01 X46.5064 Y9.2192
G01 X46.4309 Y9.2727
G01 X46.4139 Y9.2832
G01 X46.3354 Y9.3266
G01 X46.3149 Y9.3365
G01 X46.2320 Y9.3708
G01 X46.2105 Y9.3784
G01 X46.1243 Y9.4032
G01 X46.1021 Y9.4083
G01 X46.0136 Y9.4233
G01 X45.9910 Y9.4259
G01 X45.9527 Y9.4280
G01 X45.9910 Y9.4301
G01 X46.0136 Y9.4327
G01 X46.1066 Y9.4485
G01 X46.1243 Y9.4528
G01 X46.2105 Y9.4776
G01 X46.2320 Y9.4852
G01 X46.3160 Y9.5199
G01 X46.3354 Y9.5294
G01 X46.4139 Y9.5728
G01 X46.4332 Y9.5849
G01 X46.5064 Y9.6368
G01 X46.5242 Y9.6510
G01 X46.5911 Y9.7108
G01 X46.6072 Y9.7269
G01 X46.6670 Y9.7938
G01 X46.6812 Y9.8116
G01 X46.7347 Y9.8871
G01 X46.7452 Y9.9041
G01 X46.7886 Y9.9826
G01 X46.7985 Y10.0031
G01 X46.8328 Y10.0860
G01 X46.8404 Y10.1075
G01 X46.8652 Y10.1937
G01 X46.8703 Y10.2159
G01 X46.8853 Y10.3044
G01 X46.8879 Y10.3270
G01 X46.8932 Y10.4280
G01 X46.8879 Y10.5290
G01 X46.8853 Y10.5516
G01 X46.8695 Y10.6446
G01 X46.8652 Y10.6623
G01 X46.8404 Y10.7485
G01 X46.8328 Y10.7700
G01 X46.7981 Y10.8540
G01 X46.7886 Y10.8734
G01 X46.7452 Y10.9519
G01 X46.7331 Y10.9712
G01 X46.6812 Y11.0444
G01 X46.6670 Y11.0622
G01 X46.6072 Y11.1291
G01 X46.5911 Y11.1452
G01 X46.5242 Y11.2050
G01 X46.5064 Y11.2192
G01 X46.4309 Y11.2727
G01 X46.4139 Y11.2832
G01 X46.3354 Y11.3266
G01 X46.3149 Y11.3365
G01 X46.2320 Y11.3708
G01 X46.2105 Y11.3784
G01 X46.1243 Y11.4032
G01 X46.1021 Y11.4083
G01 X46.0136 Y11.4233
G01 X45.9910 Y11.4259
G01 X45.8900 Y11.4312
G01 X45.7890 Y11.4259
G01 X45.7664 Y11.4233
G01 X45.6734 Y11.4075
G01 X45.6557 Y11.4032
G01 X45.5695 Y11.3784
G01 X45.5480 Y11.3708
G01 X45.4640 Y11.3361
G01 X45.4446 Y11.3266
G01 X45.3661 Y11.2832
G01 X45.3468 Y11.2711
G01 X45.2736 Y11.2192
G01 X45.2558 Y11.2050
G01 X45.1889 Y11.1452
G01 X45.1728 Y11.1291
G01 X45.1130 Y11.0622
G01 X45.0988 Y11.0444
G01 X45.0453 Y10.9689
G01 X45.0348 Y10.9519
G01 X44.9914 Y10.8734
G01 X44.9815 Y10.8529
G01 X44.9472 Y10.7700
G01 X44.9396 Y10.7485
G01 X44.9148 Y10.6623
G01 X44.9097 Y10.6401
G01 X44.8947 Y10.5516
G01 X44.8921 Y10.5290
G01 X44.8868 Y10.4280
G01 X44.8921 Y10.3270
G01 X44.8947 Y10.3044
G01 X44.9105 Y10.2115
G01 X44.9148 Y10.1937
G01 X44.9396 Y10.1075
G01 X44.9472 Y10.0860
G01 X44.9819 Y10.0020
G01 X44.9914 Y9.9826
G01 X45.0348 Y9.9041
G01 X45.0469 Y9.8848
G01 X45.0988 Y9.8116
G01 X45.1130 Y9.7938
G01 X45.1728 Y9.7269
G01 X45.1889 Y9.7108
G01 X45.2558 Y9.6510
G01 X45.2736 Y9.6368
G01 X45.3491 Y9.5833
G01 X45.3661 Y9.5728
G01 X45.4446 Y9.5294
G01 X45.4651 Y9.5195
G01 X45.5480 Y9.4852
G01 X45.5695 Y9.4776
G01 X45.6557 Y9.4528
G01 X45.6779 Y9.4477
G01 X45.7664 Y9.4327
G01 X45.7890 Y9.4301
G01 X45.8273 Y9.4280
G01 X45.7890 Y9.4259
G01 X45.7664 Y9.4233
