(G-CODE GENERATED BY FLATCAM v8.912 - www.flatcam.org - Version Date: 2019/03/17)

(Name: V2-PTH.drl_cnc_3)
(Type: G-code from Excellon)
(Units: MM)

(Created on Tuesday, 16 April 2019 at 11:02)

(Feedrate: 76.2 mm/min)
(Feedrate rapids 76.2 mm/min)

(Z_Cut: -10.0 mm)
(Z_Move: 1.5 mm)
(Z Toolchange: 25.4 mm)
(X,Y Toolchange: 0.0000, 0.0000 mm)
(Z Start: None mm)
(Z End: 50.8 mm)
(Steps per circle: 64)
(Postprocessor Excellon: default)

(X range:    1.2940 ...   46.8420  mm)
(Y range:    2.8820 ...   54.9320  mm)

(Spindle Speed: None RPM)

G21
G90
G94

G01 F76.20
G00 Z1.5000

M03
G00 X9.6420 Y21.2160
G01 Z-10.0000
G01 Z0
G00 Z1.5000
G00 X18.9120 Y49.4810
G01 Z-10.0000
G01 Z0
G00 Z1.5000
G00 X41.1370 Y45.6710
G01 Z-10.0000
G01 Z0
G00 Z1.5000
M03
G00 X7.0750 Y43.3600
G01 Z-10.0000
G01 Z0
G00 Z1.5000
G00 X7.0750 Y45.9000
G01 Z-10.0000
G01 Z0
G00 Z1.5000
G00 X7.0750 Y48.4400
G01 Z-10.0000
G01 Z0
G00 Z1.5000
G00 X7.0750 Y50.9800
G01 Z-10.0000
G01 Z0
G00 Z1.5000
M03
G00 X16.3210 Y35.6890
G01 Z-10.0000
G01 Z0
G00 Z1.5000
G00 X18.8610 Y35.6890
G01 Z-10.0000
G01 Z0
G00 Z1.5000
G00 X20.8420 Y39.0920
G01 Z-10.0000
G01 Z0
G00 Z1.5000
G00 X18.3020 Y39.0920
G01 Z-10.0000
G01 Z0
G00 Z1.5000
G00 X12.7140 Y43.1560
G01 Z-10.0000
G01 Z0
G00 Z1.5000
G00 X12.7140 Y45.6960
G01 Z-10.0000
G01 Z0
G00 Z1.5000
G00 X18.3020 Y54.3320
G01 Z-10.0000
G01 Z0
G00 Z1.5000
G00 X20.8420 Y54.3320
G01 Z-10.0000
G01 Z0
G00 Z1.5000
G00 X23.3820 Y54.3320
G01 Z-10.0000
G01 Z0
G00 Z1.5000
G00 X25.9220 Y54.3320
G01 Z-10.0000
G01 Z0
G00 Z1.5000
G00 X28.4620 Y54.3320
G01 Z-10.0000
G01 Z0
G00 Z1.5000
G00 X31.0020 Y54.3320
G01 Z-10.0000
G01 Z0
G00 Z1.5000
G00 X33.5420 Y54.3320
G01 Z-10.0000
G01 Z0
G00 Z1.5000
G00 X36.0820 Y54.3320
G01 Z-10.0000
G01 Z0
G00 Z1.5000
G00 X38.6220 Y54.3320
G01 Z-10.0000
G01 Z0
G00 Z1.5000
G00 X41.1620 Y54.3320
G01 Z-10.0000
G01 Z0
G00 Z1.5000
G00 X43.7020 Y54.3320
G01 Z-10.0000
G01 Z0
G00 Z1.5000
G00 X46.2420 Y54.3320
G01 Z-10.0000
G01 Z0
G00 Z1.5000
G00 X29.7320 Y41.6320
G01 Z-10.0000
G01 Z0
G00 Z1.5000
G00 X27.1920 Y41.6320
G01 Z-10.0000
G01 Z0
G00 Z1.5000
G00 X23.3820 Y39.0920
G01 Z-10.0000
G01 Z0
G00 Z1.5000
G00 X25.9220 Y39.0920
G01 Z-10.0000
G01 Z0
G00 Z1.5000
G00 X28.4620 Y39.0920
G01 Z-10.0000
G01 Z0
G00 Z1.5000
G00 X31.0020 Y39.0920
G01 Z-10.0000
G01 Z0
G00 Z1.5000
G00 X33.5420 Y39.0920
G01 Z-10.0000
G01 Z0
G00 Z1.5000
G00 X36.0820 Y39.0920
G01 Z-10.0000
G01 Z0
G00 Z1.5000
G00 X38.6220 Y39.0920
G01 Z-10.0000
G01 Z0
G00 Z1.5000
G00 X41.1620 Y39.0920
G01 Z-10.0000
G01 Z0
G00 Z1.5000
G00 X43.7020 Y39.0920
G01 Z-10.0000
G01 Z0
G00 Z1.5000
G00 X46.2420 Y39.0920
G01 Z-10.0000
G01 Z0
G00 Z1.5000
G00 X45.8900 Y24.4280
G01 Z-10.0000
G01 Z0
G00 Z1.5000
G00 X45.8900 Y20.4280
G01 Z-10.0000
G01 Z0
G00 Z1.5000
G00 X45.8900 Y10.4280
G01 Z-10.0000
G01 Z0
G00 Z1.5000
G00 X45.8900 Y8.4280
G01 Z-10.0000
G01 Z0
G00 Z1.5000
G00 X45.8900 Y6.4280
G01 Z-10.0000
G01 Z0
G00 Z1.5000
G00 X23.8900 Y10.4280
G01 Z-10.0000
G01 Z0
G00 Z1.5000
G00 X23.8900 Y8.4280
G01 Z-10.0000
G01 Z0
G00 Z1.5000
G00 X23.8900 Y6.4280
G01 Z-10.0000
G01 Z0
G00 Z1.5000
G00 X19.6740 Y3.4820
G01 Z-10.0000
G01 Z0
G00 Z1.5000
G00 X17.1340 Y3.4820
G01 Z-10.0000
G01 Z0
G00 Z1.5000
G00 X14.5940 Y3.4820
G01 Z-10.0000
G01 Z0
G00 Z1.5000
G00 X12.0540 Y3.4820
G01 Z-10.0000
G01 Z0
G00 Z1.5000
G00 X9.5140 Y3.4820
G01 Z-10.0000
G01 Z0
G00 Z1.5000
G00 X6.9740 Y3.4820
G01 Z-10.0000
G01 Z0
G00 Z1.5000
G00 X4.4340 Y3.4820
G01 Z-10.0000
G01 Z0
G00 Z1.5000
G00 X1.8940 Y3.4820
G01 Z-10.0000
G01 Z0
G00 Z1.5000
G00 X5.8560 Y17.1470
G01 Z-10.0000
G01 Z0
G00 Z1.5000
G00 X8.3960 Y17.1470
G01 Z-10.0000
G01 Z0
G00 Z1.5000
G00 X10.9360 Y17.1470
G01 Z-10.0000
G01 Z0
G00 Z1.5000
G00 X15.4420 Y17.2990
G01 Z-10.0000
G01 Z0
G00 Z1.5000
G00 X17.9820 Y17.2990
G01 Z-10.0000
G01 Z0
G00 Z1.5000
G00 X23.8900 Y24.4280
G01 Z-10.0000
G01 Z0
G00 Z1.5000
G00 X18.8100 Y26.2910
G01 Z-10.0000
G01 Z0
G00 Z1.5000
G00 X16.2700 Y26.2910
G01 Z-10.0000
G01 Z0
G00 Z1.5000
G00 X11.1390 Y26.3420
G01 Z-10.0000
G01 Z0
G00 Z1.5000
G00 X8.5990 Y26.3420
G01 Z-10.0000
G01 Z0
G00 Z1.5000
G00 X6.0590 Y26.3420
G01 Z-10.0000
G01 Z0
G00 Z1.5000
G00 X6.0590 Y35.6890
G01 Z-10.0000
G01 Z0
G00 Z1.5000
G00 X8.5990 Y35.6890
G01 Z-10.0000
G01 Z0
G00 Z1.5000
G00 X11.1390 Y35.6890
G01 Z-10.0000
G01 Z0
G00 Z1.5000
M05
G00 Z50.80
G00 X0.0 Y0.0

