(G-CODE GENERATED BY FLATCAM v8.912 - www.flatcam.org - Version Date: 2019/03/17)

(Name: verrde_cnc)
(Type: G-code from Geometry)
(Units: MM)

(Created on Tuesday, 16 April 2019 at 10:31)

(TOOL DIAMETER: 0.41 mm)
(Feedrate: 76.2 mm/min)
(Feedrate_Z: 76.2 mm/min)
(Feedrate rapids 76.2 mm/min)

(Z_Cut: -0.2 mm)
(Z_Move: 2.54 mm)
(Z Toolchange: 25.4 mm)
(X,Y Toolchange: 0.0000, 0.0000 mm)
(Z Start: None mm)
(Z End: 50.8 mm)
(Steps per circle: 64)
(Postprocessor Geometry: default)

(X range:    0.6904 ...   47.3452  mm)
(Y range:    2.2784 ...   57.2961  mm)

(Spindle Speed: None RPM)

G21
G90
G94

G01 F76.20
G00 Z2.5400

M03
G00 X5.8621 Y8.7029
G01 F76.20
G01 Z-0.2000
G01 F76.20
G01 X5.8560 Y8.5949
G01 X5.8617 Y8.4868
G01 X5.8643 Y8.4641
G01 X5.8805 Y8.3687
G01 X5.8856 Y8.3464
G01 X5.9124 Y8.2534
G01 X5.9199 Y8.2319
G01 X5.9570 Y8.1424
G01 X5.9669 Y8.1219
G01 X6.0137 Y8.0371
G01 X6.0242 Y8.0201
G01 X6.0819 Y7.9388
G01 X6.0961 Y7.9210
G01 X6.1606 Y7.8488
G01 X6.1767 Y7.8327
G01 X6.2490 Y7.7682
G01 X6.2668 Y7.7540
G01 X6.3458 Y7.6979
G01 X6.3650 Y7.6858
G01 X6.4498 Y7.6389
G01 X6.4692 Y7.6295
G01 X6.5598 Y7.5920
G01 X6.5813 Y7.5845
G01 X6.6744 Y7.5577
G01 X6.6966 Y7.5526
G01 X6.7921 Y7.5364
G01 X6.8147 Y7.5338
G01 X6.9228 Y7.5281
G01 X7.2276 Y7.5281
G01 X7.3357 Y7.5338
G01 X7.3583 Y7.5364
G01 X7.4538 Y7.5526
G01 X7.4760 Y7.5577
G01 X7.5691 Y7.5845
G01 X7.5906 Y7.5920
G01 X7.6801 Y7.6291
G01 X7.7006 Y7.6389
G01 X7.7854 Y7.6858
G01 X7.8023 Y7.6963
G01 X7.8836 Y7.7540
G01 X7.9014 Y7.7682
G01 X7.9737 Y7.8327
G01 X7.9898 Y7.8488
G01 X8.0543 Y7.9210
G01 X8.0685 Y7.9388
G01 X8.1246 Y8.0178
G01 X8.1367 Y8.0371
G01 X8.1835 Y8.1219
G01 X8.1930 Y8.1413
G01 X8.2305 Y8.2319
G01 X8.2380 Y8.2534
G01 X8.2648 Y8.3464
G01 X8.2691 Y8.3642
G01 X8.2861 Y8.4641
G01 X8.2887 Y8.4868
G01 X8.2944 Y8.5949
G01 X8.2887 Y8.7030
G01 X8.2861 Y8.7256
G01 X8.2699 Y8.8211
G01 X8.2648 Y8.8433
G01 X8.2380 Y8.9364
G01 X8.2305 Y8.9579
G01 X8.1934 Y9.0473
G01 X8.1835 Y9.0679
G01 X8.1367 Y9.1526
G01 X8.1262 Y9.1696
G01 X8.0685 Y9.2509
G01 X8.0543 Y9.2687
G01 X7.9898 Y9.3409
G01 X7.9737 Y9.3570
G01 X7.9014 Y9.4216
G01 X7.8836 Y9.4358
G01 X7.8046 Y9.4918
G01 X7.7854 Y9.5039
G01 X7.7006 Y9.5508
G01 X7.6812 Y9.5602
G01 X7.5906 Y9.5977
G01 X7.5691 Y9.6053
G01 X7.4760 Y9.6321
G01 X7.4538 Y9.6371
G01 X7.3583 Y9.6534
G01 X7.3357 Y9.6559
G01 X7.2276 Y9.6617
G01 X6.9228 Y9.6617
G01 X6.8147 Y9.6559
G01 X6.7921 Y9.6534
G01 X6.6966 Y9.6371
G01 X6.6744 Y9.6321
G01 X6.5813 Y9.6053
G01 X6.5598 Y9.5977
G01 X6.4703 Y9.5607
G01 X6.4498 Y9.5508
G01 X6.3650 Y9.5039
G01 X6.3481 Y9.4934
G01 X6.2668 Y9.4358
G01 X6.2490 Y9.4216
G01 X6.1767 Y9.3570
G01 X6.1606 Y9.3409
G01 X6.0961 Y9.2687
G01 X6.0819 Y9.2509
G01 X6.0258 Y9.1719
G01 X6.0137 Y9.1526
G01 X5.9669 Y9.0679
G01 X5.9574 Y9.0484
G01 X5.9199 Y8.9579
G01 X5.9124 Y8.9364
G01 X5.8856 Y8.8433
G01 X5.8813 Y8.8256
G01 X5.8643 Y8.7256
G01 X5.8621 Y8.7029
G00 Z2.5400
G00 X5.8621 Y11.2429
G01 F76.20
G01 Z-0.2000
G01 F76.20
G01 X5.8560 Y11.1349
G01 X5.8617 Y11.0268
G01 X5.8643 Y11.0041
G01 X5.8805 Y10.9087
G01 X5.8856 Y10.8864
G01 X5.9124 Y10.7934
G01 X5.9199 Y10.7719
G01 X5.9570 Y10.6824
G01 X5.9669 Y10.6619
G01 X6.0137 Y10.5771
G01 X6.0242 Y10.5601
G01 X6.0819 Y10.4788
G01 X6.0961 Y10.4610
G01 X6.1606 Y10.3888
G01 X6.1767 Y10.3727
G01 X6.2490 Y10.3082
G01 X6.2668 Y10.2940
G01 X6.3458 Y10.2379
G01 X6.3650 Y10.2258
G01 X6.4498 Y10.1789
G01 X6.4692 Y10.1695
G01 X6.5598 Y10.1320
G01 X6.5813 Y10.1245
G01 X6.6744 Y10.0977
G01 X6.6966 Y10.0926
G01 X6.7921 Y10.0764
G01 X6.8147 Y10.0738
G01 X6.9228 Y10.0681
G01 X7.2276 Y10.0681
G01 X7.3357 Y10.0738
G01 X7.3583 Y10.0764
G01 X7.4538 Y10.0926
G01 X7.4760 Y10.0977
G01 X7.5691 Y10.1245
G01 X7.5906 Y10.1320
G01 X7.6801 Y10.1691
G01 X7.7006 Y10.1789
G01 X7.7854 Y10.2258
G01 X7.8023 Y10.2363
G01 X7.8836 Y10.2940
G01 X7.9014 Y10.3082
G01 X7.9737 Y10.3727
G01 X7.9898 Y10.3888
G01 X8.0543 Y10.4610
G01 X8.0685 Y10.4788
G01 X8.1246 Y10.5578
G01 X8.1367 Y10.5771
G01 X8.1835 Y10.6619
G01 X8.1930 Y10.6813
G01 X8.2305 Y10.7719
G01 X8.2380 Y10.7934
G01 X8.2648 Y10.8864
G01 X8.2691 Y10.9042
G01 X8.2861 Y11.0041
G01 X8.2887 Y11.0268
G01 X8.2944 Y11.1349
G01 X8.2887 Y11.2430
G01 X8.2861 Y11.2656
G01 X8.2699 Y11.3611
G01 X8.2648 Y11.3833
G01 X8.2380 Y11.4764
G01 X8.2305 Y11.4979
G01 X8.1934 Y11.5873
G01 X8.1835 Y11.6079
G01 X8.1367 Y11.6926
G01 X8.1262 Y11.7096
G01 X8.0685 Y11.7909
G01 X8.0543 Y11.8087
G01 X7.9898 Y11.8809
G01 X7.9737 Y11.8970
G01 X7.9014 Y11.9616
G01 X7.8836 Y11.9758
G01 X7.8046 Y12.0318
G01 X7.7854 Y12.0439
G01 X7.7006 Y12.0908
G01 X7.6812 Y12.1002
G01 X7.5906 Y12.1377
G01 X7.5691 Y12.1453
G01 X7.4760 Y12.1721
G01 X7.4538 Y12.1771
G01 X7.3583 Y12.1934
G01 X7.3357 Y12.1959
G01 X7.2276 Y12.2017
G01 X6.9228 Y12.2017
G01 X6.8147 Y12.1959
G01 X6.7921 Y12.1934
G01 X6.6966 Y12.1771
G01 X6.6744 Y12.1721
G01 X6.5813 Y12.1453
G01 X6.5598 Y12.1377
G01 X6.4703 Y12.1007
G01 X6.4498 Y12.0908
G01 X6.3650 Y12.0439
G01 X6.3481 Y12.0334
G01 X6.2668 Y11.9758
G01 X6.2490 Y11.9616
G01 X6.1767 Y11.8970
G01 X6.1606 Y11.8809
G01 X6.0961 Y11.8087
G01 X6.0819 Y11.7909
G01 X6.0258 Y11.7119
G01 X6.0137 Y11.6926
G01 X5.9669 Y11.6079
G01 X5.9574 Y11.5884
G01 X5.9199 Y11.4979
G01 X5.9124 Y11.4764
G01 X5.8856 Y11.3833
G01 X5.8813 Y11.3656
G01 X5.8643 Y11.2656
G01 X5.8621 Y11.2429
G00 Z2.5400
G00 X5.8621 Y13.7829
G01 F76.20
G01 Z-0.2000
G01 F76.20
G01 X5.8560 Y13.6749
G01 X5.8617 Y13.5668
G01 X5.8643 Y13.5441
G01 X5.8805 Y13.4487
G01 X5.8856 Y13.4264
G01 X5.9124 Y13.3334
G01 X5.9199 Y13.3119
G01 X5.9570 Y13.2224
G01 X5.9669 Y13.2019
G01 X6.0137 Y13.1171
G01 X6.0242 Y13.1001
G01 X6.0819 Y13.0188
G01 X6.0961 Y13.0010
G01 X6.1606 Y12.9288
G01 X6.1767 Y12.9127
G01 X6.2490 Y12.8482
G01 X6.2668 Y12.8340
G01 X6.3458 Y12.7779
G01 X6.3650 Y12.7658
G01 X6.4498 Y12.7189
G01 X6.4692 Y12.7095
G01 X6.5598 Y12.6720
G01 X6.5813 Y12.6645
G01 X6.6744 Y12.6377
G01 X6.6966 Y12.6326
G01 X6.7921 Y12.6164
G01 X6.8147 Y12.6138
G01 X6.9228 Y12.6081
G01 X7.2276 Y12.6081
G01 X7.3357 Y12.6138
G01 X7.3583 Y12.6164
G01 X7.4538 Y12.6326
G01 X7.4760 Y12.6377
G01 X7.5691 Y12.6645
G01 X7.5906 Y12.6720
G01 X7.6801 Y12.7091
G01 X7.7006 Y12.7189
G01 X7.7854 Y12.7658
G01 X7.8023 Y12.7763
G01 X7.8836 Y12.8340
G01 X7.9014 Y12.8482
G01 X7.9737 Y12.9127
G01 X7.9898 Y12.9288
G01 X8.0543 Y13.0010
G01 X8.0685 Y13.0188
G01 X8.1246 Y13.0978
G01 X8.1367 Y13.1171
G01 X8.1835 Y13.2019
G01 X8.1930 Y13.2213
G01 X8.2305 Y13.3119
G01 X8.2380 Y13.3334
G01 X8.2648 Y13.4264
G01 X8.2691 Y13.4442
G01 X8.2861 Y13.5441
G01 X8.2887 Y13.5668
G01 X8.2944 Y13.6749
G01 X8.2887 Y13.7830
G01 X8.2861 Y13.8056
G01 X8.2699 Y13.9011
G01 X8.2648 Y13.9233
G01 X8.2380 Y14.0164
G01 X8.2305 Y14.0379
G01 X8.1934 Y14.1273
G01 X8.1835 Y14.1479
G01 X8.1367 Y14.2326
G01 X8.1262 Y14.2496
G01 X8.0685 Y14.3309
G01 X8.0543 Y14.3487
G01 X7.9898 Y14.4209
G01 X7.9737 Y14.4370
G01 X7.9014 Y14.5016
G01 X7.8836 Y14.5158
G01 X7.8046 Y14.5718
G01 X7.7854 Y14.5839
G01 X7.7006 Y14.6308
G01 X7.6812 Y14.6402
G01 X7.5906 Y14.6777
G01 X7.5691 Y14.6853
G01 X7.4760 Y14.7121
G01 X7.4538 Y14.7171
G01 X7.3583 Y14.7334
G01 X7.3357 Y14.7359
G01 X7.2276 Y14.7417
G01 X6.9228 Y14.7417
G01 X6.8147 Y14.7359
G01 X6.7921 Y14.7334
G01 X6.6966 Y14.7171
G01 X6.6744 Y14.7121
G01 X6.5813 Y14.6853
G01 X6.5598 Y14.6777
G01 X6.4703 Y14.6407
G01 X6.4498 Y14.6308
G01 X6.3650 Y14.5839
G01 X6.3481 Y14.5734
G01 X6.2668 Y14.5158
G01 X6.2490 Y14.5016
G01 X6.1767 Y14.4370
G01 X6.1606 Y14.4209
G01 X6.0961 Y14.3487
G01 X6.0819 Y14.3309
G01 X6.0258 Y14.2519
G01 X6.0137 Y14.2326
G01 X5.9669 Y14.1479
G01 X5.9574 Y14.1284
G01 X5.9199 Y14.0379
G01 X5.9124 Y14.0164
G01 X5.8856 Y13.9233
G01 X5.8813 Y13.9056
G01 X5.8643 Y13.8056
G01 X5.8621 Y13.7829
G00 Z2.5400
G00 X5.9723 Y15.1676
G01 F76.20
G01 Z-0.2000
G01 F76.20
G01 X5.9931 Y15.1591
G01 X6.0147 Y15.1530
G01 X6.0368 Y15.1493
G01 X6.0592 Y15.1481
G01 X8.0912 Y15.1481
G01 X8.1136 Y15.1493
G01 X8.1357 Y15.1530
G01 X8.1573 Y15.1591
G01 X8.1781 Y15.1676
G01 X8.1985 Y15.1787
G01 X8.2175 Y15.1921
G01 X8.2349 Y15.2076
G01 X8.2504 Y15.2249
G01 X8.2638 Y15.2440
G01 X8.2749 Y15.2644
G01 X8.2833 Y15.2852
G01 X8.2895 Y15.3067
G01 X8.2932 Y15.3289
G01 X8.2944 Y15.3513
G01 X8.2944 Y17.0785
G01 X8.2932 Y17.1009
G01 X8.2895 Y17.1230
G01 X8.2833 Y17.1446
G01 X8.2749 Y17.1654
G01 X8.2638 Y17.1858
G01 X8.2504 Y17.2048
G01 X8.2349 Y17.2222
G01 X8.2175 Y17.2376
G01 X8.1985 Y17.2510
G01 X8.1781 Y17.2622
G01 X8.1573 Y17.2706
G01 X8.1357 Y17.2767
G01 X8.1136 Y17.2804
G01 X8.0912 Y17.2817
G01 X6.0592 Y17.2817
G01 X6.0368 Y17.2804
G01 X6.0147 Y17.2767
G01 X5.9931 Y17.2706
G01 X5.9723 Y17.2622
G01 X5.9519 Y17.2510
G01 X5.9329 Y17.2376
G01 X5.9155 Y17.2222
G01 X5.9000 Y17.2048
G01 X5.8866 Y17.1858
G01 X5.8755 Y17.1653
G01 X5.8671 Y17.1446
G01 X5.8609 Y17.1230
G01 X5.8572 Y17.1009
G01 X5.8560 Y17.0785
G01 X5.8560 Y15.3513
G01 X5.8572 Y15.3289
G01 X5.8609 Y15.3067
G01 X5.8671 Y15.2852
G01 X5.8755 Y15.2644
G01 X5.8866 Y15.2440
G01 X5.9000 Y15.2249
G01 X5.9155 Y15.2076
G01 X5.9329 Y15.1921
G01 X5.9519 Y15.1787
G01 X5.9723 Y15.1676
G00 Z2.5400
G00 X11.5178 Y14.0014
G01 F76.20
G01 Z-0.2000
G01 F76.20
G01 X11.5108 Y13.8781
G01 X11.5174 Y13.7547
G01 X11.5200 Y13.7321
G01 X11.5387 Y13.6215
G01 X11.5438 Y13.5993
G01 X11.5749 Y13.4915
G01 X11.5824 Y13.4700
G01 X11.6253 Y13.3664
G01 X11.6352 Y13.3459
G01 X11.6894 Y13.2477
G01 X11.6999 Y13.2308
G01 X11.7664 Y13.1370
G01 X11.7807 Y13.1192
G01 X11.8554 Y13.0356
G01 X11.8715 Y13.0194
G01 X11.9551 Y12.9447
G01 X11.9729 Y12.9305
G01 X12.0644 Y12.8656
G01 X12.0837 Y12.8535
G01 X12.1818 Y12.7993
G01 X12.2013 Y12.7898
G01 X12.3060 Y12.7465
G01 X12.3275 Y12.7389
G01 X12.4352 Y12.7079
G01 X12.4574 Y12.7028
G01 X12.5680 Y12.6840
G01 X12.5906 Y12.6815
G01 X12.7140 Y12.6749
G01 X12.8374 Y12.6815
G01 X12.8600 Y12.6840
G01 X12.9706 Y12.7028
G01 X12.9928 Y12.7079
G01 X13.1005 Y12.7389
G01 X13.1220 Y12.7465
G01 X13.2256 Y12.7894
G01 X13.2462 Y12.7993
G01 X13.3443 Y12.8535
G01 X13.3613 Y12.8640
G01 X13.4551 Y12.9305
G01 X13.4729 Y12.9447
G01 X13.5565 Y13.0194
G01 X13.5726 Y13.0356
G01 X13.6473 Y13.1192
G01 X13.6616 Y13.1370
G01 X13.7264 Y13.2285
G01 X13.7386 Y13.2477
G01 X13.7928 Y13.3459
G01 X13.8022 Y13.3653
G01 X13.8456 Y13.4700
G01 X13.8531 Y13.4915
G01 X13.8842 Y13.5993
G01 X13.8893 Y13.6215
G01 X13.9080 Y13.7321
G01 X13.9106 Y13.7547
G01 X13.9172 Y13.8781
G01 X13.9106 Y14.0014
G01 X13.9080 Y14.0241
G01 X13.8893 Y14.1346
G01 X13.8842 Y14.1568
G01 X13.8531 Y14.2646
G01 X13.8456 Y14.2861
G01 X13.8027 Y14.3897
G01 X13.7928 Y14.4102
G01 X13.7386 Y14.5084
G01 X13.7281 Y14.5254
G01 X13.6616 Y14.6191
G01 X13.6473 Y14.6370
G01 X13.5726 Y14.7206
G01 X13.5565 Y14.7367
G01 X13.4729 Y14.8114
G01 X13.4551 Y14.8256
G01 X13.3636 Y14.8905
G01 X13.3443 Y14.9026
G01 X13.2462 Y14.9569
G01 X13.2267 Y14.9663
G01 X13.1220 Y15.0097
G01 X13.1005 Y15.0172
G01 X12.9928 Y15.0483
G01 X12.9706 Y15.0533
G01 X12.8600 Y15.0721
G01 X12.8374 Y15.0747
G01 X12.7140 Y15.0813
G01 X12.5906 Y15.0747
G01 X12.5680 Y15.0721
G01 X12.4574 Y15.0533
G01 X12.4352 Y15.0483
G01 X12.3275 Y15.0172
G01 X12.3060 Y15.0097
G01 X12.2024 Y14.9668
G01 X12.1818 Y14.9569
G01 X12.0837 Y14.9026
G01 X12.0667 Y14.8921
G01 X11.9729 Y14.8256
G01 X11.9551 Y14.8114
G01 X11.8715 Y14.7367
G01 X11.8554 Y14.7206
G01 X11.7807 Y14.6370
G01 X11.7664 Y14.6191
G01 X11.7016 Y14.5277
G01 X11.6894 Y14.5084
G01 X11.6352 Y14.4102
G01 X11.6258 Y14.3908
G01 X11.5824 Y14.2861
G01 X11.5749 Y14.2646
G01 X11.5438 Y14.1568
G01 X11.5387 Y14.1346
G01 X11.5200 Y14.0241
G01 X11.5178 Y14.0014
G00 Z2.5400
G00 X11.5178 Y16.5414
G01 F76.20
G01 Z-0.2000
G01 F76.20
G01 X11.5108 Y16.4181
G01 X11.5174 Y16.2947
G01 X11.5200 Y16.2721
G01 X11.5387 Y16.1615
G01 X11.5438 Y16.1393
G01 X11.5749 Y16.0315
G01 X11.5824 Y16.0100
G01 X11.6253 Y15.9064
G01 X11.6352 Y15.8859
G01 X11.6894 Y15.7877
G01 X11.6999 Y15.7708
G01 X11.7664 Y15.6770
G01 X11.7807 Y15.6592
G01 X11.8554 Y15.5756
G01 X11.8715 Y15.5594
G01 X11.9551 Y15.4847
G01 X11.9729 Y15.4705
G01 X12.0644 Y15.4056
G01 X12.0837 Y15.3935
G01 X12.1818 Y15.3393
G01 X12.2013 Y15.3298
G01 X12.3060 Y15.2865
G01 X12.3275 Y15.2789
G01 X12.4352 Y15.2479
G01 X12.4574 Y15.2428
G01 X12.5680 Y15.2240
G01 X12.5906 Y15.2215
G01 X12.7140 Y15.2149
G01 X12.8374 Y15.2215
G01 X12.8600 Y15.2240
G01 X12.9706 Y15.2428
G01 X12.9928 Y15.2479
G01 X13.1005 Y15.2789
G01 X13.1220 Y15.2865
G01 X13.2256 Y15.3294
G01 X13.2462 Y15.3393
G01 X13.3443 Y15.3935
G01 X13.3613 Y15.4040
G01 X13.4551 Y15.4705
G01 X13.4729 Y15.4847
G01 X13.5565 Y15.5594
G01 X13.5726 Y15.5756
G01 X13.6473 Y15.6592
G01 X13.6616 Y15.6770
G01 X13.7264 Y15.7685
G01 X13.7386 Y15.7877
G01 X13.7928 Y15.8859
G01 X13.8022 Y15.9053
G01 X13.8456 Y16.0100
G01 X13.8531 Y16.0315
G01 X13.8842 Y16.1393
G01 X13.8893 Y16.1615
G01 X13.9080 Y16.2721
G01 X13.9106 Y16.2947
G01 X13.9172 Y16.4181
G01 X13.9106 Y16.5414
G01 X13.9080 Y16.5641
G01 X13.8893 Y16.6746
G01 X13.8842 Y16.6968
G01 X13.8531 Y16.8046
G01 X13.8456 Y16.8261
G01 X13.8027 Y16.9297
G01 X13.7928 Y16.9502
G01 X13.7386 Y17.0484
G01 X13.7281 Y17.0654
G01 X13.6616 Y17.1591
G01 X13.6473 Y17.1770
G01 X13.5726 Y17.2606
G01 X13.5565 Y17.2767
G01 X13.4729 Y17.3514
G01 X13.4551 Y17.3656
G01 X13.3636 Y17.4305
G01 X13.3443 Y17.4426
G01 X13.2462 Y17.4969
G01 X13.2267 Y17.5063
G01 X13.1220 Y17.5497
G01 X13.1005 Y17.5572
G01 X12.9928 Y17.5883
G01 X12.9706 Y17.5933
G01 X12.8600 Y17.6121
G01 X12.8374 Y17.6147
G01 X12.7140 Y17.6213
G01 X12.5906 Y17.6147
G01 X12.5680 Y17.6121
G01 X12.4574 Y17.5933
G01 X12.4352 Y17.5883
G01 X12.3275 Y17.5572
G01 X12.3060 Y17.5497
G01 X12.2024 Y17.5068
G01 X12.1818 Y17.4969
G01 X12.0837 Y17.4426
G01 X12.0667 Y17.4321
G01 X11.9729 Y17.3656
G01 X11.9551 Y17.3514
G01 X11.8715 Y17.2767
G01 X11.8554 Y17.2606
G01 X11.7807 Y17.1770
G01 X11.7664 Y17.1591
G01 X11.7016 Y17.0677
G01 X11.6894 Y17.0484
G01 X11.6352 Y16.9502
G01 X11.6258 Y16.9308
G01 X11.5824 Y16.8261
G01 X11.5749 Y16.8046
G01 X11.5438 Y16.6968
G01 X11.5387 Y16.6746
G01 X11.5200 Y16.5641
G01 X11.5178 Y16.5414
G00 Z2.5400
G00 X17.2052 Y20.7940
G01 F76.20
G01 Z-0.2000
G01 F76.20
G01 X17.1988 Y20.6819
G01 X17.1988 Y20.2823
G01 X17.2048 Y20.1701
G01 X17.2073 Y20.1474
G01 X17.2242 Y20.0479
G01 X17.2293 Y20.0257
G01 X17.2572 Y19.9287
G01 X17.2648 Y19.9072
G01 X17.3034 Y19.8140
G01 X17.3133 Y19.7935
G01 X17.3621 Y19.7051
G01 X17.3726 Y19.6882
G01 X17.4326 Y19.6035
G01 X17.4468 Y19.5857
G01 X17.5141 Y19.5105
G01 X17.5302 Y19.4943
G01 X17.6055 Y19.4271
G01 X17.6233 Y19.4129
G01 X17.7056 Y19.3545
G01 X17.7249 Y19.3424
G01 X17.8132 Y19.2935
G01 X17.8327 Y19.2841
G01 X17.9270 Y19.2450
G01 X17.9485 Y19.2375
G01 X18.0455 Y19.2096
G01 X18.0632 Y19.2053
G01 X18.1672 Y19.1876
G01 X18.1898 Y19.1850
G01 X18.2906 Y19.1794
G01 X18.3134 Y19.1794
G01 X18.4142 Y19.1850
G01 X18.4368 Y19.1876
G01 X18.5363 Y19.2045
G01 X18.5585 Y19.2096
G01 X18.6555 Y19.2375
G01 X18.6770 Y19.2450
G01 X18.7703 Y19.2836
G01 X18.7908 Y19.2935
G01 X18.8791 Y19.3424
G01 X18.8961 Y19.3529
G01 X18.9807 Y19.4129
G01 X18.9985 Y19.4271
G01 X19.0738 Y19.4943
G01 X19.0899 Y19.5105
G01 X19.1572 Y19.5857
G01 X19.1714 Y19.6035
G01 X19.2298 Y19.6858
G01 X19.2419 Y19.7051
G01 X19.2907 Y19.7935
G01 X19.3001 Y19.8129
G01 X19.3392 Y19.9072
G01 X19.3468 Y19.9287
G01 X19.3747 Y20.0257
G01 X19.3798 Y20.0479
G01 X19.3967 Y20.1474
G01 X19.3992 Y20.1701
G01 X19.4052 Y20.2823
G01 X19.4049 Y20.6933
G01 X19.3992 Y20.7941
G01 X19.3967 Y20.8167
G01 X19.3798 Y20.9162
G01 X19.3747 Y20.9384
G01 X19.3468 Y21.0354
G01 X19.3392 Y21.0569
G01 X19.3006 Y21.1501
G01 X19.2907 Y21.1707
G01 X19.2419 Y21.2590
G01 X19.2314 Y21.2760
G01 X19.1714 Y21.3606
G01 X19.1572 Y21.3784
G01 X19.0899 Y21.4537
G01 X19.0738 Y21.4698
G01 X18.9985 Y21.5371
G01 X18.9807 Y21.5513
G01 X18.8984 Y21.6097
G01 X18.8791 Y21.6218
G01 X18.7908 Y21.6706
G01 X18.7713 Y21.6800
G01 X18.6770 Y21.7191
G01 X18.6555 Y21.7266
G01 X18.5585 Y21.7546
G01 X18.5408 Y21.7588
G01 X18.4368 Y21.7766
G01 X18.4142 Y21.7791
G01 X18.3134 Y21.7848
G01 X18.2906 Y21.7848
G01 X18.1898 Y21.7791
G01 X18.1672 Y21.7766
G01 X18.0677 Y21.7597
G01 X18.0455 Y21.7546
G01 X17.9485 Y21.7266
G01 X17.9270 Y21.7191
G01 X17.8337 Y21.6805
G01 X17.8132 Y21.6706
G01 X17.7249 Y21.6218
G01 X17.7079 Y21.6113
G01 X17.6233 Y21.5513
G01 X17.6055 Y21.5371
G01 X17.5302 Y21.4698
G01 X17.5141 Y21.4537
G01 X17.4468 Y21.3784
G01 X17.4326 Y21.3606
G01 X17.3742 Y21.2783
G01 X17.3621 Y21.2590
G01 X17.3133 Y21.1707
G01 X17.3039 Y21.1512
G01 X17.2648 Y21.0569
G01 X17.2572 Y21.0354
G01 X17.2293 Y20.9384
G01 X17.2251 Y20.9207
G01 X17.2073 Y20.8167
G01 X17.2052 Y20.7940
G00 Z2.5400
G00 X22.2852 Y20.7940
G01 F76.20
G01 Z-0.2000
G01 F76.20
G01 X22.2788 Y20.6819
G01 X22.2788 Y20.2823
G01 X22.2848 Y20.1701
G01 X22.2873 Y20.1474
G01 X22.3042 Y20.0479
G01 X22.3093 Y20.0257
G01 X22.3372 Y19.9287
G01 X22.3448 Y19.9072
G01 X22.3834 Y19.8140
G01 X22.3933 Y19.7935
G01 X22.4421 Y19.7051
G01 X22.4526 Y19.6882
G01 X22.5126 Y19.6035
G01 X22.5268 Y19.5857
G01 X22.5941 Y19.5105
G01 X22.6102 Y19.4943
G01 X22.6855 Y19.4271
G01 X22.7033 Y19.4129
G01 X22.7856 Y19.3545
G01 X22.8049 Y19.3424
G01 X22.8932 Y19.2935
G01 X22.9127 Y19.2841
G01 X23.0070 Y19.2450
G01 X23.0285 Y19.2375
G01 X23.1255 Y19.2096
G01 X23.1432 Y19.2053
G01 X23.2472 Y19.1876
G01 X23.2698 Y19.1850
G01 X23.3706 Y19.1794
G01 X23.3934 Y19.1794
G01 X23.4942 Y19.1850
G01 X23.5168 Y19.1876
G01 X23.6163 Y19.2045
G01 X23.6385 Y19.2096
G01 X23.7355 Y19.2375
G01 X23.7570 Y19.2450
G01 X23.8503 Y19.2836
G01 X23.8708 Y19.2935
G01 X23.9591 Y19.3424
G01 X23.9761 Y19.3529
G01 X24.0607 Y19.4129
G01 X24.0785 Y19.4271
G01 X24.1538 Y19.4943
G01 X24.1699 Y19.5105
G01 X24.2372 Y19.5857
G01 X24.2514 Y19.6035
G01 X24.3098 Y19.6858
G01 X24.3219 Y19.7051
G01 X24.3707 Y19.7935
G01 X24.3801 Y19.8129
G01 X24.4192 Y19.9072
G01 X24.4268 Y19.9287
G01 X24.4547 Y20.0257
G01 X24.4598 Y20.0479
G01 X24.4767 Y20.1474
G01 X24.4792 Y20.1701
G01 X24.4852 Y20.2823
G01 X24.4849 Y20.6933
G01 X24.4792 Y20.7941
G01 X24.4767 Y20.8167
G01 X24.4598 Y20.9162
G01 X24.4547 Y20.9384
G01 X24.4268 Y21.0354
G01 X24.4192 Y21.0569
G01 X24.3806 Y21.1501
G01 X24.3707 Y21.1707
G01 X24.3219 Y21.2590
G01 X24.3114 Y21.2760
G01 X24.2514 Y21.3606
G01 X24.2372 Y21.3784
G01 X24.1699 Y21.4537
G01 X24.1538 Y21.4698
G01 X24.0785 Y21.5371
G01 X24.0607 Y21.5513
G01 X23.9784 Y21.6097
G01 X23.9591 Y21.6218
G01 X23.8708 Y21.6706
G01 X23.8513 Y21.6800
G01 X23.7570 Y21.7191
G01 X23.7355 Y21.7266
G01 X23.6385 Y21.7546
G01 X23.6208 Y21.7588
G01 X23.5168 Y21.7766
G01 X23.4942 Y21.7791
G01 X23.3934 Y21.7848
G01 X23.3706 Y21.7848
G01 X23.2698 Y21.7791
G01 X23.2472 Y21.7766
G01 X23.1477 Y21.7597
G01 X23.1255 Y21.7546
G01 X23.0285 Y21.7266
G01 X23.0070 Y21.7191
G01 X22.9137 Y21.6805
G01 X22.8932 Y21.6706
G01 X22.8049 Y21.6218
G01 X22.7879 Y21.6113
G01 X22.7033 Y21.5513
G01 X22.6855 Y21.5371
G01 X22.6102 Y21.4698
G01 X22.5941 Y21.4537
G01 X22.5268 Y21.3784
G01 X22.5126 Y21.3606
G01 X22.4542 Y21.2783
G01 X22.4421 Y21.2590
G01 X22.3933 Y21.1707
G01 X22.3839 Y21.1512
G01 X22.3448 Y21.0569
G01 X22.3372 Y21.0354
G01 X22.3093 Y20.9384
G01 X22.3051 Y20.9207
G01 X22.2873 Y20.8167
G01 X22.2852 Y20.7940
G00 Z2.5400
G00 X24.8252 Y20.7940
G01 F76.20
G01 Z-0.2000
G01 F76.20
G01 X24.8188 Y20.6819
G01 X24.8188 Y20.2823
G01 X24.8248 Y20.1701
G01 X24.8273 Y20.1474
G01 X24.8442 Y20.0479
G01 X24.8493 Y20.0257
G01 X24.8772 Y19.9287
G01 X24.8848 Y19.9072
G01 X24.9234 Y19.8140
G01 X24.9333 Y19.7935
G01 X24.9821 Y19.7051
G01 X24.9926 Y19.6882
G01 X25.0526 Y19.6035
G01 X25.0668 Y19.5857
G01 X25.1341 Y19.5105
G01 X25.1502 Y19.4943
G01 X25.2255 Y19.4271
G01 X25.2433 Y19.4129
G01 X25.3256 Y19.3545
G01 X25.3449 Y19.3424
G01 X25.4332 Y19.2935
G01 X25.4527 Y19.2841
G01 X25.5470 Y19.2450
G01 X25.5685 Y19.2375
G01 X25.6655 Y19.2096
G01 X25.6832 Y19.2053
G01 X25.7872 Y19.1876
G01 X25.8098 Y19.1850
G01 X25.9106 Y19.1794
G01 X25.9334 Y19.1794
G01 X26.0342 Y19.1850
G01 X26.0568 Y19.1876
G01 X26.1563 Y19.2045
G01 X26.1785 Y19.2096
G01 X26.2755 Y19.2375
G01 X26.2970 Y19.2450
G01 X26.3903 Y19.2836
G01 X26.4108 Y19.2935
G01 X26.4991 Y19.3424
G01 X26.5161 Y19.3529
G01 X26.6007 Y19.4129
G01 X26.6185 Y19.4271
G01 X26.6938 Y19.4943
G01 X26.7099 Y19.5105
G01 X26.7772 Y19.5857
G01 X26.7914 Y19.6035
G01 X26.8498 Y19.6858
G01 X26.8619 Y19.7051
G01 X26.9107 Y19.7935
G01 X26.9201 Y19.8129
G01 X26.9592 Y19.9072
G01 X26.9668 Y19.9287
G01 X26.9947 Y20.0257
G01 X26.9998 Y20.0479
G01 X27.0167 Y20.1474
G01 X27.0192 Y20.1701
G01 X27.0252 Y20.2823
G01 X27.0249 Y20.6933
G01 X27.0192 Y20.7941
G01 X27.0167 Y20.8167
G01 X26.9998 Y20.9162
G01 X26.9947 Y20.9384
G01 X26.9668 Y21.0354
G01 X26.9592 Y21.0569
G01 X26.9206 Y21.1501
G01 X26.9107 Y21.1707
G01 X26.8619 Y21.2590
G01 X26.8514 Y21.2760
G01 X26.7914 Y21.3606
G01 X26.7772 Y21.3784
G01 X26.7099 Y21.4537
G01 X26.6938 Y21.4698
G01 X26.6185 Y21.5371
G01 X26.6007 Y21.5513
G01 X26.5184 Y21.6097
G01 X26.4991 Y21.6218
G01 X26.4108 Y21.6706
G01 X26.3913 Y21.6800
G01 X26.2970 Y21.7191
G01 X26.2755 Y21.7266
G01 X26.1785 Y21.7546
G01 X26.1608 Y21.7588
G01 X26.0568 Y21.7766
G01 X26.0342 Y21.7791
G01 X25.9334 Y21.7848
G01 X25.9106 Y21.7848
G01 X25.8098 Y21.7791
G01 X25.7872 Y21.7766
G01 X25.6877 Y21.7597
G01 X25.6655 Y21.7546
G01 X25.5685 Y21.7266
G01 X25.5470 Y21.7191
G01 X25.4537 Y21.6805
G01 X25.4332 Y21.6706
G01 X25.3449 Y21.6218
G01 X25.3279 Y21.6113
G01 X25.2433 Y21.5513
G01 X25.2255 Y21.5371
G01 X25.1502 Y21.4698
G01 X25.1341 Y21.4537
G01 X25.0668 Y21.3784
G01 X25.0526 Y21.3606
G01 X24.9942 Y21.2783
G01 X24.9821 Y21.2590
G01 X24.9333 Y21.1707
G01 X24.9239 Y21.1512
G01 X24.8848 Y21.0569
G01 X24.8772 Y21.0354
G01 X24.8493 Y20.9384
G01 X24.8451 Y20.9207
G01 X24.8273 Y20.8167
G01 X24.8252 Y20.7940
G00 Z2.5400
G00 X27.3652 Y20.7940
G01 F76.20
G01 Z-0.2000
G01 F76.20
G01 X27.3588 Y20.6819
G01 X27.3588 Y20.2823
G01 X27.3648 Y20.1701
G01 X27.3673 Y20.1474
G01 X27.3842 Y20.0479
G01 X27.3893 Y20.0257
G01 X27.4172 Y19.9287
G01 X27.4248 Y19.9072
G01 X27.4634 Y19.8140
G01 X27.4733 Y19.7935
G01 X27.5221 Y19.7051
G01 X27.5326 Y19.6882
G01 X27.5926 Y19.6035
G01 X27.6068 Y19.5857
G01 X27.6741 Y19.5105
G01 X27.6902 Y19.4943
G01 X27.7655 Y19.4271
G01 X27.7833 Y19.4129
G01 X27.8656 Y19.3545
G01 X27.8849 Y19.3424
G01 X27.9732 Y19.2935
G01 X27.9927 Y19.2841
G01 X28.0870 Y19.2450
G01 X28.1085 Y19.2375
G01 X28.2055 Y19.2096
G01 X28.2232 Y19.2053
G01 X28.3272 Y19.1876
G01 X28.3498 Y19.1850
G01 X28.4506 Y19.1794
G01 X28.4734 Y19.1794
G01 X28.5742 Y19.1850
G01 X28.5968 Y19.1876
G01 X28.6963 Y19.2045
G01 X28.7185 Y19.2096
G01 X28.8155 Y19.2375
G01 X28.8370 Y19.2450
G01 X28.9303 Y19.2836
G01 X28.9508 Y19.2935
G01 X29.0391 Y19.3424
G01 X29.0561 Y19.3529
G01 X29.1407 Y19.4129
G01 X29.1585 Y19.4271
G01 X29.2338 Y19.4943
G01 X29.2499 Y19.5105
G01 X29.3172 Y19.5857
G01 X29.3314 Y19.6035
G01 X29.3898 Y19.6858
G01 X29.4019 Y19.7051
G01 X29.4507 Y19.7935
G01 X29.4601 Y19.8129
G01 X29.4992 Y19.9072
G01 X29.5068 Y19.9287
G01 X29.5347 Y20.0257
G01 X29.5398 Y20.0479
G01 X29.5567 Y20.1474
G01 X29.5592 Y20.1701
G01 X29.5652 Y20.2823
G01 X29.5649 Y20.6933
G01 X29.5592 Y20.7941
G01 X29.5567 Y20.8167
G01 X29.5398 Y20.9162
G01 X29.5347 Y20.9384
G01 X29.5068 Y21.0354
G01 X29.4992 Y21.0569
G01 X29.4606 Y21.1501
G01 X29.4507 Y21.1707
G01 X29.4019 Y21.2590
G01 X29.3914 Y21.2760
G01 X29.3314 Y21.3606
G01 X29.3172 Y21.3784
G01 X29.2499 Y21.4537
G01 X29.2338 Y21.4698
G01 X29.1585 Y21.5371
G01 X29.1407 Y21.5513
G01 X29.0584 Y21.6097
G01 X29.0391 Y21.6218
G01 X28.9508 Y21.6706
G01 X28.9313 Y21.6800
G01 X28.8370 Y21.7191
G01 X28.8155 Y21.7266
G01 X28.7185 Y21.7546
G01 X28.7008 Y21.7588
G01 X28.5968 Y21.7766
G01 X28.5742 Y21.7791
G01 X28.4734 Y21.7848
G01 X28.4506 Y21.7848
G01 X28.3498 Y21.7791
G01 X28.3272 Y21.7766
G01 X28.2277 Y21.7597
G01 X28.2055 Y21.7546
G01 X28.1085 Y21.7266
G01 X28.0870 Y21.7191
G01 X27.9937 Y21.6805
G01 X27.9732 Y21.6706
G01 X27.8849 Y21.6218
G01 X27.8679 Y21.6113
G01 X27.7833 Y21.5513
G01 X27.7655 Y21.5371
G01 X27.6902 Y21.4698
G01 X27.6741 Y21.4537
G01 X27.6068 Y21.3784
G01 X27.5926 Y21.3606
G01 X27.5342 Y21.2783
G01 X27.5221 Y21.2590
G01 X27.4733 Y21.1707
G01 X27.4639 Y21.1512
G01 X27.4248 Y21.0569
G01 X27.4172 Y21.0354
G01 X27.3893 Y20.9384
G01 X27.3851 Y20.9207
G01 X27.3673 Y20.8167
G01 X27.3652 Y20.7940
G00 Z2.5400
G00 X29.9052 Y20.7940
G01 F76.20
G01 Z-0.2000
G01 F76.20
G01 X29.8988 Y20.6819
G01 X29.8988 Y20.2823
G01 X29.9048 Y20.1701
G01 X29.9073 Y20.1474
G01 X29.9242 Y20.0479
G01 X29.9293 Y20.0257
G01 X29.9572 Y19.9287
G01 X29.9648 Y19.9072
G01 X30.0034 Y19.8140
G01 X30.0133 Y19.7935
G01 X30.0621 Y19.7051
G01 X30.0726 Y19.6882
G01 X30.1326 Y19.6035
G01 X30.1468 Y19.5857
G01 X30.2141 Y19.5105
G01 X30.2302 Y19.4943
G01 X30.3055 Y19.4271
G01 X30.3233 Y19.4129
G01 X30.4056 Y19.3545
G01 X30.4249 Y19.3424
G01 X30.5132 Y19.2935
G01 X30.5327 Y19.2841
G01 X30.6270 Y19.2450
G01 X30.6485 Y19.2375
G01 X30.7455 Y19.2096
G01 X30.7632 Y19.2053
G01 X30.8672 Y19.1876
G01 X30.8898 Y19.1850
G01 X30.9906 Y19.1794
G01 X31.0134 Y19.1794
G01 X31.1142 Y19.1850
G01 X31.1368 Y19.1876
G01 X31.2363 Y19.2045
G01 X31.2585 Y19.2096
G01 X31.3555 Y19.2375
G01 X31.3770 Y19.2450
G01 X31.4703 Y19.2836
G01 X31.4908 Y19.2935
G01 X31.5791 Y19.3424
G01 X31.5961 Y19.3529
G01 X31.6807 Y19.4129
G01 X31.6985 Y19.4271
G01 X31.7738 Y19.4943
G01 X31.7899 Y19.5105
G01 X31.8572 Y19.5857
G01 X31.8714 Y19.6035
G01 X31.9298 Y19.6858
G01 X31.9419 Y19.7051
G01 X31.9907 Y19.7935
G01 X32.0001 Y19.8129
G01 X32.0392 Y19.9072
G01 X32.0468 Y19.9287
G01 X32.0747 Y20.0257
G01 X32.0798 Y20.0479
G01 X32.0967 Y20.1474
G01 X32.0992 Y20.1701
G01 X32.1052 Y20.2823
G01 X32.1049 Y20.6933
G01 X32.0992 Y20.7941
G01 X32.0967 Y20.8167
G01 X32.0798 Y20.9162
G01 X32.0747 Y20.9384
G01 X32.0468 Y21.0354
G01 X32.0392 Y21.0569
G01 X32.0006 Y21.1501
G01 X31.9907 Y21.1707
G01 X31.9419 Y21.2590
G01 X31.9314 Y21.2760
G01 X31.8714 Y21.3606
G01 X31.8572 Y21.3784
G01 X31.7899 Y21.4537
G01 X31.7738 Y21.4698
G01 X31.6985 Y21.5371
G01 X31.6807 Y21.5513
G01 X31.5984 Y21.6097
G01 X31.5791 Y21.6218
G01 X31.4908 Y21.6706
G01 X31.4713 Y21.6800
G01 X31.3770 Y21.7191
G01 X31.3555 Y21.7266
G01 X31.2585 Y21.7546
G01 X31.2408 Y21.7588
G01 X31.1368 Y21.7766
G01 X31.1142 Y21.7791
G01 X31.0134 Y21.7848
G01 X30.9906 Y21.7848
G01 X30.8898 Y21.7791
G01 X30.8672 Y21.7766
G01 X30.7677 Y21.7597
G01 X30.7455 Y21.7546
G01 X30.6485 Y21.7266
G01 X30.6270 Y21.7191
G01 X30.5337 Y21.6805
G01 X30.5132 Y21.6706
G01 X30.4249 Y21.6218
G01 X30.4079 Y21.6113
G01 X30.3233 Y21.5513
G01 X30.3055 Y21.5371
G01 X30.2302 Y21.4698
G01 X30.2141 Y21.4537
G01 X30.1468 Y21.3784
G01 X30.1326 Y21.3606
G01 X30.0742 Y21.2783
G01 X30.0621 Y21.2590
G01 X30.0133 Y21.1707
G01 X30.0039 Y21.1512
G01 X29.9648 Y21.0569
G01 X29.9572 Y21.0354
G01 X29.9293 Y20.9384
G01 X29.9251 Y20.9207
G01 X29.9073 Y20.8167
G01 X29.9052 Y20.7940
G00 Z2.5400
G00 X32.4452 Y20.7940
G01 F76.20
G01 Z-0.2000
G01 F76.20
G01 X32.4388 Y20.6819
G01 X32.4388 Y20.2823
G01 X32.4448 Y20.1701
G01 X32.4473 Y20.1474
G01 X32.4642 Y20.0479
G01 X32.4693 Y20.0257
G01 X32.4972 Y19.9287
G01 X32.5048 Y19.9072
G01 X32.5434 Y19.8140
G01 X32.5533 Y19.7935
G01 X32.6021 Y19.7051
G01 X32.6126 Y19.6882
G01 X32.6726 Y19.6035
G01 X32.6868 Y19.5857
G01 X32.7541 Y19.5105
G01 X32.7702 Y19.4943
G01 X32.8455 Y19.4271
G01 X32.8633 Y19.4129
G01 X32.9456 Y19.3545
G01 X32.9649 Y19.3424
G01 X33.0532 Y19.2935
G01 X33.0727 Y19.2841
G01 X33.1670 Y19.2450
G01 X33.1885 Y19.2375
G01 X33.2855 Y19.2096
G01 X33.3032 Y19.2053
G01 X33.4072 Y19.1876
G01 X33.4298 Y19.1850
G01 X33.5306 Y19.1794
G01 X33.5534 Y19.1794
G01 X33.6542 Y19.1850
G01 X33.6768 Y19.1876
G01 X33.7763 Y19.2045
G01 X33.7985 Y19.2096
G01 X33.8955 Y19.2375
G01 X33.9170 Y19.2450
G01 X34.0103 Y19.2836
G01 X34.0308 Y19.2935
G01 X34.1191 Y19.3424
G01 X34.1361 Y19.3529
G01 X34.2207 Y19.4129
G01 X34.2385 Y19.4271
G01 X34.3138 Y19.4943
G01 X34.3299 Y19.5105
G01 X34.3972 Y19.5857
G01 X34.4114 Y19.6035
G01 X34.4698 Y19.6858
G01 X34.4819 Y19.7051
G01 X34.5307 Y19.7935
G01 X34.5402 Y19.8129
G01 X34.5792 Y19.9072
G01 X34.5868 Y19.9287
G01 X34.6147 Y20.0257
G01 X34.6198 Y20.0479
G01 X34.6367 Y20.1474
G01 X34.6392 Y20.1701
G01 X34.6452 Y20.2823
G01 X34.6449 Y20.6933
G01 X34.6392 Y20.7941
G01 X34.6367 Y20.8167
G01 X34.6198 Y20.9162
G01 X34.6147 Y20.9384
G01 X34.5868 Y21.0354
G01 X34.5792 Y21.0569
G01 X34.5406 Y21.1501
G01 X34.5307 Y21.1707
G01 X34.4819 Y21.2590
G01 X34.4714 Y21.2760
G01 X34.4114 Y21.3606
G01 X34.3972 Y21.3784
G01 X34.3299 Y21.4537
G01 X34.3138 Y21.4698
G01 X34.2385 Y21.5371
G01 X34.2207 Y21.5513
G01 X34.1384 Y21.6097
G01 X34.1191 Y21.6218
G01 X34.0308 Y21.6706
G01 X34.0113 Y21.6800
G01 X33.9170 Y21.7191
G01 X33.8955 Y21.7266
G01 X33.7985 Y21.7546
G01 X33.7808 Y21.7588
G01 X33.6768 Y21.7766
G01 X33.6542 Y21.7791
G01 X33.5534 Y21.7848
G01 X33.5306 Y21.7848
G01 X33.4298 Y21.7791
G01 X33.4072 Y21.7766
G01 X33.3077 Y21.7597
G01 X33.2855 Y21.7546
G01 X33.1885 Y21.7266
G01 X33.1670 Y21.7191
G01 X33.0737 Y21.6805
G01 X33.0532 Y21.6706
G01 X32.9649 Y21.6218
G01 X32.9479 Y21.6113
G01 X32.8633 Y21.5513
G01 X32.8455 Y21.5371
G01 X32.7702 Y21.4698
G01 X32.7541 Y21.4537
G01 X32.6868 Y21.3784
G01 X32.6726 Y21.3606
G01 X32.6142 Y21.2783
G01 X32.6021 Y21.2590
G01 X32.5533 Y21.1707
G01 X32.5439 Y21.1512
G01 X32.5048 Y21.0569
G01 X32.4972 Y21.0354
G01 X32.4693 Y20.9384
G01 X32.4651 Y20.9207
G01 X32.4473 Y20.8167
G01 X32.4452 Y20.7940
G00 Z2.5400
G00 X34.9852 Y20.7940
G01 F76.20
G01 Z-0.2000
G01 F76.20
G01 X34.9788 Y20.6819
G01 X34.9788 Y20.2823
G01 X34.9848 Y20.1701
G01 X34.9873 Y20.1474
G01 X35.0042 Y20.0479
G01 X35.0093 Y20.0257
G01 X35.0372 Y19.9287
G01 X35.0448 Y19.9072
G01 X35.0834 Y19.8140
G01 X35.0933 Y19.7935
G01 X35.1421 Y19.7051
G01 X35.1526 Y19.6882
G01 X35.2126 Y19.6035
G01 X35.2268 Y19.5857
G01 X35.2941 Y19.5105
G01 X35.3102 Y19.4943
G01 X35.3855 Y19.4271
G01 X35.4033 Y19.4129
G01 X35.4856 Y19.3545
G01 X35.5049 Y19.3424
G01 X35.5932 Y19.2935
G01 X35.6127 Y19.2841
G01 X35.7070 Y19.2450
G01 X35.7285 Y19.2375
G01 X35.8255 Y19.2096
G01 X35.8432 Y19.2053
G01 X35.9472 Y19.1876
G01 X35.9698 Y19.1850
G01 X36.0706 Y19.1794
G01 X36.0934 Y19.1794
G01 X36.1942 Y19.1850
G01 X36.2168 Y19.1876
G01 X36.3163 Y19.2045
G01 X36.3385 Y19.2096
G01 X36.4355 Y19.2375
G01 X36.4570 Y19.2450
G01 X36.5503 Y19.2836
G01 X36.5708 Y19.2935
G01 X36.6591 Y19.3424
G01 X36.6761 Y19.3529
G01 X36.7607 Y19.4129
G01 X36.7785 Y19.4271
G01 X36.8538 Y19.4943
G01 X36.8699 Y19.5105
G01 X36.9372 Y19.5857
G01 X36.9514 Y19.6035
G01 X37.0098 Y19.6858
G01 X37.0219 Y19.7051
G01 X37.0707 Y19.7935
G01 X37.0801 Y19.8129
G01 X37.1192 Y19.9072
G01 X37.1268 Y19.9287
G01 X37.1547 Y20.0257
G01 X37.1598 Y20.0479
G01 X37.1767 Y20.1474
G01 X37.1792 Y20.1701
G01 X37.1852 Y20.2823
G01 X37.1849 Y20.6933
G01 X37.1792 Y20.7941
G01 X37.1767 Y20.8167
G01 X37.1598 Y20.9162
G01 X37.1547 Y20.9384
G01 X37.1268 Y21.0354
G01 X37.1192 Y21.0569
G01 X37.0806 Y21.1501
G01 X37.0707 Y21.1707
G01 X37.0219 Y21.2590
G01 X37.0114 Y21.2760
G01 X36.9514 Y21.3606
G01 X36.9372 Y21.3784
G01 X36.8699 Y21.4537
G01 X36.8538 Y21.4698
G01 X36.7785 Y21.5371
G01 X36.7607 Y21.5513
G01 X36.6784 Y21.6097
G01 X36.6591 Y21.6218
G01 X36.5708 Y21.6706
G01 X36.5513 Y21.6800
G01 X36.4570 Y21.7191
G01 X36.4355 Y21.7266
G01 X36.3385 Y21.7546
G01 X36.3208 Y21.7588
G01 X36.2168 Y21.7766
G01 X36.1942 Y21.7791
G01 X36.0934 Y21.7848
G01 X36.0706 Y21.7848
G01 X35.9698 Y21.7791
G01 X35.9472 Y21.7766
G01 X35.8477 Y21.7597
G01 X35.8255 Y21.7546
G01 X35.7285 Y21.7266
G01 X35.7070 Y21.7191
G01 X35.6137 Y21.6805
G01 X35.5932 Y21.6706
G01 X35.5049 Y21.6218
G01 X35.4879 Y21.6113
G01 X35.4033 Y21.5513
G01 X35.3855 Y21.5371
G01 X35.3102 Y21.4698
G01 X35.2941 Y21.4537
G01 X35.2268 Y21.3784
G01 X35.2126 Y21.3606
G01 X35.1542 Y21.2783
G01 X35.1421 Y21.2590
G01 X35.0933 Y21.1707
G01 X35.0838 Y21.1512
G01 X35.0448 Y21.0569
G01 X35.0372 Y21.0354
G01 X35.0093 Y20.9384
G01 X35.0051 Y20.9207
G01 X34.9873 Y20.8167
G01 X34.9852 Y20.7940
G00 Z2.5400
G00 X37.5252 Y20.7940
G01 F76.20
G01 Z-0.2000
G01 F76.20
G01 X37.5188 Y20.6819
G01 X37.5188 Y20.2823
G01 X37.5248 Y20.1701
G01 X37.5273 Y20.1474
G01 X37.5442 Y20.0479
G01 X37.5493 Y20.0257
G01 X37.5772 Y19.9287
G01 X37.5848 Y19.9072
G01 X37.6234 Y19.8140
G01 X37.6333 Y19.7935
G01 X37.6821 Y19.7051
G01 X37.6926 Y19.6882
G01 X37.7526 Y19.6035
G01 X37.7668 Y19.5857
G01 X37.8341 Y19.5105
G01 X37.8502 Y19.4943
G01 X37.9255 Y19.4271
G01 X37.9433 Y19.4129
G01 X38.0256 Y19.3545
G01 X38.0449 Y19.3424
G01 X38.1332 Y19.2935
G01 X38.1527 Y19.2841
G01 X38.2470 Y19.2450
G01 X38.2685 Y19.2375
G01 X38.3655 Y19.2096
G01 X38.3832 Y19.2053
G01 X38.4872 Y19.1876
G01 X38.5098 Y19.1850
G01 X38.6106 Y19.1794
G01 X38.6334 Y19.1794
G01 X38.7342 Y19.1850
G01 X38.7568 Y19.1876
G01 X38.8563 Y19.2045
G01 X38.8785 Y19.2096
G01 X38.9755 Y19.2375
G01 X38.9970 Y19.2450
G01 X39.0903 Y19.2836
G01 X39.1108 Y19.2935
G01 X39.1991 Y19.3424
G01 X39.2161 Y19.3529
G01 X39.3007 Y19.4129
G01 X39.3185 Y19.4271
G01 X39.3938 Y19.4943
G01 X39.4099 Y19.5105
G01 X39.4772 Y19.5857
G01 X39.4914 Y19.6035
G01 X39.5498 Y19.6858
G01 X39.5619 Y19.7051
G01 X39.6107 Y19.7935
G01 X39.6201 Y19.8129
G01 X39.6592 Y19.9072
G01 X39.6668 Y19.9287
G01 X39.6947 Y20.0257
G01 X39.6998 Y20.0479
G01 X39.7167 Y20.1474
G01 X39.7192 Y20.1701
G01 X39.7252 Y20.2823
G01 X39.7249 Y20.6933
G01 X39.7192 Y20.7941
G01 X39.7167 Y20.8167
G01 X39.6998 Y20.9162
G01 X39.6947 Y20.9384
G01 X39.6668 Y21.0354
G01 X39.6592 Y21.0569
G01 X39.6206 Y21.1501
G01 X39.6107 Y21.1707
G01 X39.5619 Y21.2590
G01 X39.5514 Y21.2760
G01 X39.4914 Y21.3606
G01 X39.4772 Y21.3784
G01 X39.4099 Y21.4537
G01 X39.3938 Y21.4698
G01 X39.3185 Y21.5371
G01 X39.3007 Y21.5513
G01 X39.2184 Y21.6097
G01 X39.1991 Y21.6218
G01 X39.1108 Y21.6706
G01 X39.0913 Y21.6800
G01 X38.9970 Y21.7191
G01 X38.9755 Y21.7266
G01 X38.8785 Y21.7546
G01 X38.8608 Y21.7588
G01 X38.7568 Y21.7766
G01 X38.7342 Y21.7791
G01 X38.6334 Y21.7848
G01 X38.6106 Y21.7848
G01 X38.5098 Y21.7791
G01 X38.4872 Y21.7766
G01 X38.3877 Y21.7597
G01 X38.3655 Y21.7546
G01 X38.2685 Y21.7266
G01 X38.2470 Y21.7191
G01 X38.1537 Y21.6805
G01 X38.1332 Y21.6706
G01 X38.0449 Y21.6218
G01 X38.0279 Y21.6113
G01 X37.9433 Y21.5513
G01 X37.9255 Y21.5371
G01 X37.8502 Y21.4698
G01 X37.8341 Y21.4537
G01 X37.7668 Y21.3784
G01 X37.7526 Y21.3606
G01 X37.6942 Y21.2783
G01 X37.6821 Y21.2590
G01 X37.6333 Y21.1707
G01 X37.6238 Y21.1512
G01 X37.5848 Y21.0569
G01 X37.5772 Y21.0354
G01 X37.5493 Y20.9384
G01 X37.5451 Y20.9207
G01 X37.5273 Y20.8167
G01 X37.5252 Y20.7940
G00 Z2.5400
G00 X40.0652 Y20.7940
G01 F76.20
G01 Z-0.2000
G01 F76.20
G01 X40.0588 Y20.6819
G01 X40.0588 Y20.2823
G01 X40.0648 Y20.1701
G01 X40.0673 Y20.1474
G01 X40.0842 Y20.0479
G01 X40.0893 Y20.0257
G01 X40.1172 Y19.9287
G01 X40.1248 Y19.9072
G01 X40.1634 Y19.8140
G01 X40.1733 Y19.7935
G01 X40.2221 Y19.7051
G01 X40.2326 Y19.6882
G01 X40.2926 Y19.6035
G01 X40.3068 Y19.5857
G01 X40.3741 Y19.5105
G01 X40.3902 Y19.4943
G01 X40.4655 Y19.4271
G01 X40.4833 Y19.4129
G01 X40.5656 Y19.3545
G01 X40.5849 Y19.3424
G01 X40.6732 Y19.2935
G01 X40.6927 Y19.2841
G01 X40.7870 Y19.2450
G01 X40.8085 Y19.2375
G01 X40.9055 Y19.2096
G01 X40.9232 Y19.2053
G01 X41.0272 Y19.1876
G01 X41.0498 Y19.1850
G01 X41.1506 Y19.1794
G01 X41.1734 Y19.1794
G01 X41.2742 Y19.1850
G01 X41.2968 Y19.1876
G01 X41.3963 Y19.2045
G01 X41.4185 Y19.2096
G01 X41.5155 Y19.2375
G01 X41.5370 Y19.2450
G01 X41.6303 Y19.2836
G01 X41.6508 Y19.2935
G01 X41.7391 Y19.3424
G01 X41.7561 Y19.3529
G01 X41.8407 Y19.4129
G01 X41.8585 Y19.4271
G01 X41.9338 Y19.4943
G01 X41.9499 Y19.5105
G01 X42.0172 Y19.5857
G01 X42.0314 Y19.6035
G01 X42.0898 Y19.6858
G01 X42.1019 Y19.7051
G01 X42.1507 Y19.7935
G01 X42.1602 Y19.8129
G01 X42.1992 Y19.9072
G01 X42.2068 Y19.9287
G01 X42.2347 Y20.0257
G01 X42.2398 Y20.0479
G01 X42.2567 Y20.1474
G01 X42.2592 Y20.1701
G01 X42.2652 Y20.2823
G01 X42.2649 Y20.6933
G01 X42.2592 Y20.7941
G01 X42.2567 Y20.8167
G01 X42.2398 Y20.9162
G01 X42.2347 Y20.9384
G01 X42.2068 Y21.0354
G01 X42.1992 Y21.0569
G01 X42.1606 Y21.1501
G01 X42.1507 Y21.1707
G01 X42.1019 Y21.2590
G01 X42.0914 Y21.2760
G01 X42.0314 Y21.3606
G01 X42.0172 Y21.3784
G01 X41.9499 Y21.4537
G01 X41.9338 Y21.4698
G01 X41.8585 Y21.5371
G01 X41.8407 Y21.5513
G01 X41.7584 Y21.6097
G01 X41.7391 Y21.6218
G01 X41.6508 Y21.6706
G01 X41.6313 Y21.6800
G01 X41.5370 Y21.7191
G01 X41.5155 Y21.7266
G01 X41.4185 Y21.7546
G01 X41.4008 Y21.7588
G01 X41.2968 Y21.7766
G01 X41.2742 Y21.7791
G01 X41.1734 Y21.7848
G01 X41.1506 Y21.7848
G01 X41.0498 Y21.7791
G01 X41.0272 Y21.7766
G01 X40.9277 Y21.7597
G01 X40.9055 Y21.7546
G01 X40.8085 Y21.7266
G01 X40.7870 Y21.7191
G01 X40.6937 Y21.6805
G01 X40.6732 Y21.6706
G01 X40.5849 Y21.6218
G01 X40.5679 Y21.6113
G01 X40.4833 Y21.5513
G01 X40.4655 Y21.5371
G01 X40.3902 Y21.4698
G01 X40.3741 Y21.4537
G01 X40.3068 Y21.3784
G01 X40.2926 Y21.3606
G01 X40.2342 Y21.2783
G01 X40.2221 Y21.2590
G01 X40.1733 Y21.1707
G01 X40.1639 Y21.1512
G01 X40.1248 Y21.0569
G01 X40.1172 Y21.0354
G01 X40.0893 Y20.9384
G01 X40.0851 Y20.9207
G01 X40.0673 Y20.8167
G01 X40.0652 Y20.7940
G00 Z2.5400
G00 X42.6052 Y20.7940
G01 F76.20
G01 Z-0.2000
G01 F76.20
G01 X42.5988 Y20.6819
G01 X42.5988 Y20.2823
G01 X42.6048 Y20.1701
G01 X42.6073 Y20.1474
G01 X42.6242 Y20.0479
G01 X42.6293 Y20.0257
G01 X42.6572 Y19.9287
G01 X42.6648 Y19.9072
G01 X42.7034 Y19.8140
G01 X42.7133 Y19.7935
G01 X42.7621 Y19.7051
G01 X42.7726 Y19.6882
G01 X42.8326 Y19.6035
G01 X42.8468 Y19.5857
G01 X42.9141 Y19.5105
G01 X42.9302 Y19.4943
G01 X43.0055 Y19.4271
G01 X43.0233 Y19.4129
G01 X43.1056 Y19.3545
G01 X43.1249 Y19.3424
G01 X43.2132 Y19.2935
G01 X43.2327 Y19.2841
G01 X43.3270 Y19.2450
G01 X43.3485 Y19.2375
G01 X43.4455 Y19.2096
G01 X43.4632 Y19.2053
G01 X43.5672 Y19.1876
G01 X43.5898 Y19.1850
G01 X43.6906 Y19.1794
G01 X43.7134 Y19.1794
G01 X43.8142 Y19.1850
G01 X43.8368 Y19.1876
G01 X43.9363 Y19.2045
G01 X43.9585 Y19.2096
G01 X44.0555 Y19.2375
G01 X44.0770 Y19.2450
G01 X44.1703 Y19.2836
G01 X44.1908 Y19.2935
G01 X44.2791 Y19.3424
G01 X44.2961 Y19.3529
G01 X44.3807 Y19.4129
G01 X44.3985 Y19.4271
G01 X44.4738 Y19.4943
G01 X44.4899 Y19.5105
G01 X44.5572 Y19.5857
G01 X44.5714 Y19.6035
G01 X44.6298 Y19.6858
G01 X44.6419 Y19.7051
G01 X44.6907 Y19.7935
G01 X44.7001 Y19.8129
G01 X44.7392 Y19.9072
G01 X44.7468 Y19.9287
G01 X44.7747 Y20.0257
G01 X44.7798 Y20.0479
G01 X44.7967 Y20.1474
G01 X44.7992 Y20.1701
G01 X44.8052 Y20.2823
G01 X44.8049 Y20.6933
G01 X44.7992 Y20.7941
G01 X44.7967 Y20.8167
G01 X44.7798 Y20.9162
G01 X44.7747 Y20.9384
G01 X44.7468 Y21.0354
G01 X44.7392 Y21.0569
G01 X44.7006 Y21.1501
G01 X44.6907 Y21.1707
G01 X44.6419 Y21.2590
G01 X44.6314 Y21.2760
G01 X44.5714 Y21.3606
G01 X44.5572 Y21.3784
G01 X44.4899 Y21.4537
G01 X44.4738 Y21.4698
G01 X44.3985 Y21.5371
G01 X44.3807 Y21.5513
G01 X44.2984 Y21.6097
G01 X44.2791 Y21.6218
G01 X44.1908 Y21.6706
G01 X44.1713 Y21.6800
G01 X44.0770 Y21.7191
G01 X44.0555 Y21.7266
G01 X43.9585 Y21.7546
G01 X43.9408 Y21.7588
G01 X43.8368 Y21.7766
G01 X43.8142 Y21.7791
G01 X43.7134 Y21.7848
G01 X43.6906 Y21.7848
G01 X43.5898 Y21.7791
G01 X43.5672 Y21.7766
G01 X43.4677 Y21.7597
G01 X43.4455 Y21.7546
G01 X43.3485 Y21.7266
G01 X43.3270 Y21.7191
G01 X43.2337 Y21.6805
G01 X43.2132 Y21.6706
G01 X43.1249 Y21.6218
G01 X43.1079 Y21.6113
G01 X43.0233 Y21.5513
G01 X43.0055 Y21.5371
G01 X42.9302 Y21.4698
G01 X42.9141 Y21.4537
G01 X42.8468 Y21.3784
G01 X42.8326 Y21.3606
G01 X42.7742 Y21.2783
G01 X42.7621 Y21.2590
G01 X42.7133 Y21.1707
G01 X42.7039 Y21.1512
G01 X42.6648 Y21.0569
G01 X42.6572 Y21.0354
G01 X42.6293 Y20.9384
G01 X42.6251 Y20.9207
G01 X42.6073 Y20.8167
G01 X42.6052 Y20.7940
G00 Z2.5400
G00 X45.1452 Y20.7940
G01 F76.20
G01 Z-0.2000
G01 F76.20
G01 X45.1388 Y20.6819
G01 X45.1388 Y20.2823
G01 X45.1448 Y20.1701
G01 X45.1473 Y20.1474
G01 X45.1642 Y20.0479
G01 X45.1693 Y20.0257
G01 X45.1972 Y19.9287
G01 X45.2048 Y19.9072
G01 X45.2434 Y19.8140
G01 X45.2533 Y19.7935
G01 X45.3021 Y19.7051
G01 X45.3126 Y19.6882
G01 X45.3726 Y19.6035
G01 X45.3868 Y19.5857
G01 X45.4541 Y19.5105
G01 X45.4702 Y19.4943
G01 X45.5455 Y19.4271
G01 X45.5633 Y19.4129
G01 X45.6456 Y19.3545
G01 X45.6649 Y19.3424
G01 X45.7532 Y19.2935
G01 X45.7727 Y19.2841
G01 X45.8670 Y19.2450
G01 X45.8885 Y19.2375
G01 X45.9855 Y19.2096
G01 X46.0032 Y19.2053
G01 X46.1072 Y19.1876
G01 X46.1298 Y19.1850
G01 X46.2306 Y19.1794
G01 X46.2534 Y19.1794
G01 X46.3542 Y19.1850
G01 X46.3768 Y19.1876
G01 X46.4763 Y19.2045
G01 X46.4985 Y19.2096
G01 X46.5955 Y19.2375
G01 X46.6170 Y19.2450
G01 X46.7103 Y19.2836
G01 X46.7308 Y19.2935
G01 X46.8191 Y19.3424
G01 X46.8361 Y19.3529
G01 X46.9207 Y19.4129
G01 X46.9385 Y19.4271
G01 X47.0138 Y19.4943
G01 X47.0299 Y19.5105
G01 X47.0972 Y19.5857
G01 X47.1114 Y19.6035
G01 X47.1698 Y19.6858
G01 X47.1819 Y19.7051
G01 X47.2307 Y19.7935
G01 X47.2401 Y19.8129
G01 X47.2792 Y19.9072
G01 X47.2868 Y19.9287
G01 X47.3147 Y20.0257
G01 X47.3198 Y20.0479
G01 X47.3367 Y20.1474
G01 X47.3392 Y20.1701
G01 X47.3452 Y20.2823
G01 X47.3449 Y20.6933
G01 X47.3392 Y20.7941
G01 X47.3367 Y20.8167
G01 X47.3198 Y20.9162
G01 X47.3147 Y20.9384
G01 X47.2868 Y21.0354
G01 X47.2792 Y21.0569
G01 X47.2406 Y21.1501
G01 X47.2307 Y21.1707
G01 X47.1819 Y21.2590
G01 X47.1714 Y21.2760
G01 X47.1114 Y21.3606
G01 X47.0972 Y21.3784
G01 X47.0299 Y21.4537
G01 X47.0138 Y21.4698
G01 X46.9385 Y21.5371
G01 X46.9207 Y21.5513
G01 X46.8384 Y21.6097
G01 X46.8191 Y21.6218
G01 X46.7308 Y21.6706
G01 X46.7113 Y21.6800
G01 X46.6170 Y21.7191
G01 X46.5955 Y21.7266
G01 X46.4985 Y21.7546
G01 X46.4808 Y21.7588
G01 X46.3768 Y21.7766
G01 X46.3542 Y21.7791
G01 X46.2534 Y21.7848
G01 X46.2306 Y21.7848
G01 X46.1298 Y21.7791
G01 X46.1072 Y21.7766
G01 X46.0077 Y21.7597
G01 X45.9855 Y21.7546
G01 X45.8885 Y21.7266
G01 X45.8670 Y21.7191
G01 X45.7737 Y21.6805
G01 X45.7532 Y21.6706
G01 X45.6649 Y21.6218
G01 X45.6479 Y21.6113
G01 X45.5633 Y21.5513
G01 X45.5455 Y21.5371
G01 X45.4702 Y21.4698
G01 X45.4541 Y21.4537
G01 X45.3868 Y21.3784
G01 X45.3726 Y21.3606
G01 X45.3142 Y21.2783
G01 X45.3021 Y21.2590
G01 X45.2533 Y21.1707
G01 X45.2438 Y21.1512
G01 X45.2048 Y21.0569
G01 X45.1972 Y21.0354
G01 X45.1693 Y20.9384
G01 X45.1651 Y20.9207
G01 X45.1473 Y20.8167
G01 X45.1452 Y20.7940
G00 Z2.5400
G00 X44.8925 Y35.2474
G01 F76.20
G01 Z-0.2000
G01 F76.20
G01 X44.8868 Y35.1465
G01 X44.8921 Y35.0455
G01 X44.8947 Y35.0229
G01 X44.9097 Y34.9344
G01 X44.9148 Y34.9122
G01 X44.9396 Y34.8260
G01 X44.9472 Y34.8045
G01 X44.9815 Y34.7216
G01 X44.9914 Y34.7011
G01 X45.0348 Y34.6226
G01 X45.0453 Y34.6056
G01 X45.0988 Y34.5301
G01 X45.1130 Y34.5123
G01 X45.1728 Y34.4454
G01 X45.1889 Y34.4293
G01 X45.2558 Y34.3695
G01 X45.2736 Y34.3553
G01 X45.3468 Y34.3034
G01 X45.3661 Y34.2912
G01 X45.4446 Y34.2478
G01 X45.4640 Y34.2384
G01 X45.5480 Y34.2036
G01 X45.5695 Y34.1961
G01 X45.6557 Y34.1713
G01 X45.6734 Y34.1670
G01 X45.7664 Y34.1512
G01 X45.7890 Y34.1486
G01 X45.8900 Y34.1433
G01 X45.9910 Y34.1486
G01 X46.0136 Y34.1512
G01 X46.1021 Y34.1662
G01 X46.1243 Y34.1713
G01 X46.2105 Y34.1961
G01 X46.2320 Y34.2036
G01 X46.3149 Y34.2380
G01 X46.3354 Y34.2478
G01 X46.4139 Y34.2912
G01 X46.4309 Y34.3017
G01 X46.5064 Y34.3553
G01 X46.5242 Y34.3695
G01 X46.5911 Y34.4293
G01 X46.6072 Y34.4454
G01 X46.6670 Y34.5123
G01 X46.6812 Y34.5301
G01 X46.7331 Y34.6033
G01 X46.7452 Y34.6226
G01 X46.7886 Y34.7011
G01 X46.7981 Y34.7205
G01 X46.8328 Y34.8045
G01 X46.8404 Y34.8260
G01 X46.8652 Y34.9122
G01 X46.8695 Y34.9299
G01 X46.8853 Y35.0229
G01 X46.8879 Y35.0455
G01 X46.8932 Y35.1465
G01 X46.8879 Y35.2474
G01 X46.8853 Y35.2701
G01 X46.8703 Y35.3585
G01 X46.8652 Y35.3807
G01 X46.8404 Y35.4669
G01 X46.8328 Y35.4885
G01 X46.7985 Y35.5713
G01 X46.7886 Y35.5919
G01 X46.7452 Y35.6704
G01 X46.7347 Y35.6874
G01 X46.6812 Y35.7628
G01 X46.6670 Y35.7807
G01 X46.6072 Y35.8476
G01 X46.5911 Y35.8637
G01 X46.5242 Y35.9234
G01 X46.5064 Y35.9377
G01 X46.4332 Y35.9896
G01 X46.4139 Y36.0017
G01 X46.3354 Y36.0451
G01 X46.3160 Y36.0545
G01 X46.2320 Y36.0893
G01 X46.2105 Y36.0968
G01 X46.1243 Y36.1217
G01 X46.1066 Y36.1259
G01 X46.0136 Y36.1418
G01 X45.9910 Y36.1443
G01 X45.8900 Y36.1497
G01 X45.7890 Y36.1443
G01 X45.7664 Y36.1418
G01 X45.6779 Y36.1267
G01 X45.6557 Y36.1217
G01 X45.5695 Y36.0968
G01 X45.5480 Y36.0893
G01 X45.4651 Y36.0550
G01 X45.4446 Y36.0451
G01 X45.3661 Y36.0017
G01 X45.3491 Y35.9912
G01 X45.2736 Y35.9377
G01 X45.2558 Y35.9234
G01 X45.1889 Y35.8637
G01 X45.1728 Y35.8476
G01 X45.1130 Y35.7807
G01 X45.0988 Y35.7628
G01 X45.0469 Y35.6897
G01 X45.0348 Y35.6704
G01 X44.9914 Y35.5919
G01 X44.9819 Y35.5724
G01 X44.9472 Y35.4885
G01 X44.9396 Y35.4669
G01 X44.9148 Y35.3807
G01 X44.9105 Y35.3630
G01 X44.8947 Y35.2701
G01 X44.8925 Y35.2474
G00 Z2.5400
G00 X44.8925 Y49.2474
G01 F76.20
G01 Z-0.2000
G01 F76.20
G01 X44.8868 Y49.1465
G01 X44.8921 Y49.0455
G01 X44.8947 Y49.0229
G01 X44.9097 Y48.9344
G01 X44.9148 Y48.9122
G01 X44.9396 Y48.8260
G01 X44.9472 Y48.8045
G01 X44.9815 Y48.7216
G01 X44.9914 Y48.7011
G01 X45.0348 Y48.6226
G01 X45.0453 Y48.6056
G01 X45.0988 Y48.5301
G01 X45.1130 Y48.5123
G01 X45.1728 Y48.4454
G01 X45.1889 Y48.4293
G01 X45.2558 Y48.3695
G01 X45.2736 Y48.3553
G01 X45.3468 Y48.3034
G01 X45.3661 Y48.2912
G01 X45.4446 Y48.2478
G01 X45.4640 Y48.2384
G01 X45.5480 Y48.2036
G01 X45.5695 Y48.1961
G01 X45.6557 Y48.1713
G01 X45.6779 Y48.1662
G01 X45.7664 Y48.1512
G01 X45.7890 Y48.1486
G01 X45.8900 Y48.1433
G01 X45.9910 Y48.1486
G01 X46.0136 Y48.1512
G01 X46.1021 Y48.1662
G01 X46.1243 Y48.1713
G01 X46.2105 Y48.1961
G01 X46.2320 Y48.2036
G01 X46.3149 Y48.2380
G01 X46.3354 Y48.2478
G01 X46.4139 Y48.2912
G01 X46.4309 Y48.3017
G01 X46.5064 Y48.3553
G01 X46.5242 Y48.3695
G01 X46.5911 Y48.4293
G01 X46.6072 Y48.4454
G01 X46.6670 Y48.5123
G01 X46.6812 Y48.5301
G01 X46.7331 Y48.6033
G01 X46.7452 Y48.6226
G01 X46.7886 Y48.7011
G01 X46.7981 Y48.7205
G01 X46.8328 Y48.8045
G01 X46.8404 Y48.8260
G01 X46.8652 Y48.9122
G01 X46.8695 Y48.9299
G01 X46.8853 Y49.0229
G01 X46.8879 Y49.0455
G01 X46.8932 Y49.1465
G01 X46.8879 Y49.2474
G01 X46.8853 Y49.2701
G01 X46.8703 Y49.3585
G01 X46.8652 Y49.3807
G01 X46.8404 Y49.4669
G01 X46.8328 Y49.4885
G01 X46.7985 Y49.5713
G01 X46.7886 Y49.5919
G01 X46.7452 Y49.6704
G01 X46.7347 Y49.6874
G01 X46.6812 Y49.7628
G01 X46.6670 Y49.7807
G01 X46.6072 Y49.8476
G01 X46.5911 Y49.8637
G01 X46.5242 Y49.9234
G01 X46.5064 Y49.9377
G01 X46.4332 Y49.9896
G01 X46.4139 Y50.0017
G01 X46.3354 Y50.0451
G01 X46.3160 Y50.0545
G01 X46.2320 Y50.0893
G01 X46.2105 Y50.0968
G01 X46.1243 Y50.1217
G01 X46.1066 Y50.1259
G01 X46.0136 Y50.1418
G01 X45.9910 Y50.1443
G01 X45.9527 Y50.1465
G01 X45.9910 Y50.1486
G01 X46.0136 Y50.1512
G01 X46.1021 Y50.1662
G01 X46.1243 Y50.1713
G01 X46.2105 Y50.1961
G01 X46.2320 Y50.2036
G01 X46.3149 Y50.2380
G01 X46.3354 Y50.2478
G01 X46.4139 Y50.2912
G01 X46.4309 Y50.3017
G01 X46.5064 Y50.3553
G01 X46.5242 Y50.3695
G01 X46.5911 Y50.4293
G01 X46.6072 Y50.4454
G01 X46.6670 Y50.5123
G01 X46.6812 Y50.5301
G01 X46.7331 Y50.6033
G01 X46.7452 Y50.6226
G01 X46.7886 Y50.7011
G01 X46.7981 Y50.7205
G01 X46.8328 Y50.8045
G01 X46.8404 Y50.8260
G01 X46.8652 Y50.9122
G01 X46.8695 Y50.9299
G01 X46.8853 Y51.0229
G01 X46.8879 Y51.0455
G01 X46.8929 Y51.1351
G01 X46.8929 Y51.1579
G01 X46.8879 Y51.2474
G01 X46.8853 Y51.2701
G01 X46.8703 Y51.3585
G01 X46.8652 Y51.3807
G01 X46.8404 Y51.4669
G01 X46.8328 Y51.4885
G01 X46.7985 Y51.5713
G01 X46.7886 Y51.5919
G01 X46.7452 Y51.6704
G01 X46.7347 Y51.6874
G01 X46.6812 Y51.7628
G01 X46.6670 Y51.7807
G01 X46.6072 Y51.8476
G01 X46.5911 Y51.8637
G01 X46.5242 Y51.9234
G01 X46.5064 Y51.9377
G01 X46.4332 Y51.9896
G01 X46.4139 Y52.0017
G01 X46.3354 Y52.0451
G01 X46.3160 Y52.0545
G01 X46.2320 Y52.0893
G01 X46.2105 Y52.0968
G01 X46.1243 Y52.1217
G01 X46.1066 Y52.1259
G01 X46.0136 Y52.1418
G01 X45.9910 Y52.1443
G01 X45.9527 Y52.1465
G01 X45.9910 Y52.1486
G01 X46.0136 Y52.1512
G01 X46.1021 Y52.1662
G01 X46.1243 Y52.1713
G01 X46.2105 Y52.1961
G01 X46.2320 Y52.2036
G01 X46.3149 Y52.2380
G01 X46.3354 Y52.2478
G01 X46.4139 Y52.2912
G01 X46.4309 Y52.3017
G01 X46.5064 Y52.3553
G01 X46.5242 Y52.3695
G01 X46.5911 Y52.4293
G01 X46.6072 Y52.4454
G01 X46.6670 Y52.5123
G01 X46.6812 Y52.5301
G01 X46.7331 Y52.6033
G01 X46.7452 Y52.6226
G01 X46.7886 Y52.7011
G01 X46.7981 Y52.7205
G01 X46.8328 Y52.8045
G01 X46.8404 Y52.8260
G01 X46.8652 Y52.9122
G01 X46.8695 Y52.9299
G01 X46.8853 Y53.0229
G01 X46.8879 Y53.0455
G01 X46.8932 Y53.1465
G01 X46.8879 Y53.2474
G01 X46.8853 Y53.2701
G01 X46.8703 Y53.3585
G01 X46.8652 Y53.3807
G01 X46.8404 Y53.4669
G01 X46.8328 Y53.4885
G01 X46.7985 Y53.5713
G01 X46.7886 Y53.5919
G01 X46.7452 Y53.6704
G01 X46.7347 Y53.6874
G01 X46.6812 Y53.7628
G01 X46.6670 Y53.7807
G01 X46.6072 Y53.8476
G01 X46.5911 Y53.8637
G01 X46.5242 Y53.9234
G01 X46.5064 Y53.9377
G01 X46.4332 Y53.9896
G01 X46.4139 Y54.0017
G01 X46.3354 Y54.0451
G01 X46.3160 Y54.0545
G01 X46.2320 Y54.0893
G01 X46.2105 Y54.0968
G01 X46.1243 Y54.1217
G01 X46.1066 Y54.1259
G01 X46.0136 Y54.1418
G01 X45.9910 Y54.1443
G01 X45.8900 Y54.1497
G01 X45.7890 Y54.1443
G01 X45.7664 Y54.1418
G01 X45.6779 Y54.1267
G01 X45.6557 Y54.1217
G01 X45.5695 Y54.0968
G01 X45.5480 Y54.0893
G01 X45.4651 Y54.0550
G01 X45.4446 Y54.0451
G01 X45.3661 Y54.0017
G01 X45.3491 Y53.9912
G01 X45.2736 Y53.9377
G01 X45.2558 Y53.9234
G01 X45.1889 Y53.8637
G01 X45.1728 Y53.8476
G01 X45.1130 Y53.7807
G01 X45.0988 Y53.7628
G01 X45.0469 Y53.6897
G01 X45.0348 Y53.6704
G01 X44.9914 Y53.5919
G01 X44.9819 Y53.5724
G01 X44.9472 Y53.4885
G01 X44.9396 Y53.4669
G01 X44.9148 Y53.3807
G01 X44.9105 Y53.3630
G01 X44.8947 Y53.2701
G01 X44.8921 Y53.2474
G01 X44.8868 Y53.1465
G01 X44.8921 Y53.0455
G01 X44.8947 Y53.0229
G01 X44.9097 Y52.9344
G01 X44.9148 Y52.9122
G01 X44.9396 Y52.8260
G01 X44.9472 Y52.8045
G01 X44.9815 Y52.7216
G01 X44.9914 Y52.7011
G01 X45.0348 Y52.6226
G01 X45.0453 Y52.6056
G01 X45.0988 Y52.5301
G01 X45.1130 Y52.5123
G01 X45.1728 Y52.4454
G01 X45.1889 Y52.4293
G01 X45.2558 Y52.3695
G01 X45.2736 Y52.3553
G01 X45.3468 Y52.3034
G01 X45.3661 Y52.2912
G01 X45.4446 Y52.2478
G01 X45.4640 Y52.2384
G01 X45.5480 Y52.2036
G01 X45.5695 Y52.1961
G01 X45.6557 Y52.1713
G01 X45.6734 Y52.1670
G01 X45.7664 Y52.1512
G01 X45.7890 Y52.1486
G01 X45.8273 Y52.1465
G01 X45.7890 Y52.1443
G01 X45.7664 Y52.1418
G01 X45.6779 Y52.1267
G01 X45.6557 Y52.1217
G01 X45.5695 Y52.0968
G01 X45.5480 Y52.0893
G01 X45.4651 Y52.0550
G01 X45.4446 Y52.0451
G01 X45.3661 Y52.0017
G01 X45.3491 Y51.9912
G01 X45.2736 Y51.9377
G01 X45.2558 Y51.9234
G01 X45.1889 Y51.8637
G01 X45.1728 Y51.8476
G01 X45.1130 Y51.7807
G01 X45.0988 Y51.7628
G01 X45.0469 Y51.6897
G01 X45.0348 Y51.6704
G01 X44.9914 Y51.5919
G01 X44.9819 Y51.5724
G01 X44.9472 Y51.4885
G01 X44.9396 Y51.4669
G01 X44.9148 Y51.3807
G01 X44.9105 Y51.3630
G01 X44.8947 Y51.2701
G01 X44.8921 Y51.2474
G01 X44.8868 Y51.1465
G01 X44.8921 Y51.0455
G01 X44.8947 Y51.0229
G01 X44.9097 Y50.9344
G01 X44.9148 Y50.9122
G01 X44.9396 Y50.8260
G01 X44.9472 Y50.8045
G01 X44.9815 Y50.7216
G01 X44.9914 Y50.7011
G01 X45.0348 Y50.6226
G01 X45.0453 Y50.6056
G01 X45.0988 Y50.5301
G01 X45.1130 Y50.5123
G01 X45.1728 Y50.4454
G01 X45.1889 Y50.4293
G01 X45.2558 Y50.3695
G01 X45.2736 Y50.3553
G01 X45.3468 Y50.3034
G01 X45.3661 Y50.2912
G01 X45.4446 Y50.2478
G01 X45.4640 Y50.2384
G01 X45.5480 Y50.2036
G01 X45.5695 Y50.1961
G01 X45.6557 Y50.1713
G01 X45.6734 Y50.1670
G01 X45.7664 Y50.1512
G01 X45.7890 Y50.1486
G01 X45.8273 Y50.1465
G01 X45.7890 Y50.1443
G01 X45.7664 Y50.1418
G01 X45.6779 Y50.1267
G01 X45.6557 Y50.1217
G01 X45.5695 Y50.0968
G01 X45.5480 Y50.0893
G01 X45.4651 Y50.0550
G01 X45.4446 Y50.0451
G01 X45.3661 Y50.0017
G01 X45.3491 Y49.9912
G01 X45.2736 Y49.9377
G01 X45.2558 Y49.9234
G01 X45.1889 Y49.8637
G01 X45.1728 Y49.8476
G01 X45.1130 Y49.7807
G01 X45.0988 Y49.7628
G01 X45.0469 Y49.6897
G01 X45.0348 Y49.6704
G01 X44.9914 Y49.5919
G01 X44.9819 Y49.5724
G01 X44.9472 Y49.4885
G01 X44.9396 Y49.4669
G01 X44.9148 Y49.3807
G01 X44.9105 Y49.3630
G01 X44.8947 Y49.2701
G01 X44.8925 Y49.2474
G00 Z2.5400
G00 X22.8925 Y49.2474
G01 F76.20
G01 Z-0.2000
G01 F76.20
G01 X22.8868 Y49.1465
G01 X22.8921 Y49.0455
G01 X22.8947 Y49.0229
G01 X22.9097 Y48.9344
G01 X22.9148 Y48.9122
G01 X22.9396 Y48.8260
G01 X22.9472 Y48.8045
G01 X22.9815 Y48.7216
G01 X22.9914 Y48.7011
G01 X23.0348 Y48.6226
G01 X23.0453 Y48.6056
G01 X23.0988 Y48.5301
G01 X23.1130 Y48.5123
G01 X23.1728 Y48.4454
G01 X23.1889 Y48.4293
G01 X23.2558 Y48.3695
G01 X23.2736 Y48.3553
G01 X23.3468 Y48.3034
G01 X23.3661 Y48.2912
G01 X23.4446 Y48.2478
G01 X23.4640 Y48.2384
G01 X23.5480 Y48.2036
G01 X23.5695 Y48.1961
G01 X23.6557 Y48.1713
G01 X23.6779 Y48.1662
G01 X23.7664 Y48.1512
G01 X23.7890 Y48.1486
G01 X23.8900 Y48.1433
G01 X23.9910 Y48.1486
G01 X24.0136 Y48.1512
G01 X24.1021 Y48.1662
G01 X24.1243 Y48.1713
G01 X24.2105 Y48.1961
G01 X24.2320 Y48.2036
G01 X24.3149 Y48.2380
G01 X24.3354 Y48.2478
G01 X24.4139 Y48.2912
G01 X24.4309 Y48.3017
G01 X24.5064 Y48.3553
G01 X24.5242 Y48.3695
G01 X24.5911 Y48.4293
G01 X24.6072 Y48.4454
G01 X24.6670 Y48.5123
G01 X24.6812 Y48.5301
G01 X24.7331 Y48.6033
G01 X24.7452 Y48.6226
G01 X24.7886 Y48.7011
G01 X24.7981 Y48.7205
G01 X24.8328 Y48.8045
G01 X24.8404 Y48.8260
G01 X24.8652 Y48.9122
G01 X24.8695 Y48.9299
G01 X24.8853 Y49.0229
G01 X24.8879 Y49.0455
G01 X24.8932 Y49.1465
G01 X24.8879 Y49.2474
G01 X24.8853 Y49.2701
G01 X24.8703 Y49.3585
G01 X24.8652 Y49.3807
G01 X24.8404 Y49.4669
G01 X24.8328 Y49.4885
G01 X24.7985 Y49.5713
G01 X24.7886 Y49.5919
G01 X24.7452 Y49.6704
G01 X24.7347 Y49.6874
G01 X24.6812 Y49.7628
G01 X24.6670 Y49.7807
G01 X24.6072 Y49.8476
G01 X24.5911 Y49.8637
G01 X24.5242 Y49.9234
G01 X24.5064 Y49.9377
G01 X24.4332 Y49.9896
G01 X24.4139 Y50.0017
G01 X24.3354 Y50.0451
G01 X24.3160 Y50.0545
G01 X24.2320 Y50.0893
G01 X24.2105 Y50.0968
G01 X24.1243 Y50.1217
G01 X24.1066 Y50.1259
G01 X24.0136 Y50.1418
G01 X23.9910 Y50.1443
G01 X23.9527 Y50.1465
G01 X23.9910 Y50.1486
G01 X24.0136 Y50.1512
G01 X24.1021 Y50.1662
G01 X24.1243 Y50.1713
G01 X24.2105 Y50.1961
G01 X24.2320 Y50.2036
G01 X24.3149 Y50.2380
G01 X24.3354 Y50.2478
G01 X24.4139 Y50.2912
G01 X24.4309 Y50.3017
G01 X24.5064 Y50.3553
G01 X24.5242 Y50.3695
G01 X24.5911 Y50.4293
G01 X24.6072 Y50.4454
G01 X24.6670 Y50.5123
G01 X24.6812 Y50.5301
G01 X24.7331 Y50.6033
G01 X24.7452 Y50.6226
G01 X24.7886 Y50.7011
G01 X24.7981 Y50.7205
G01 X24.8328 Y50.8045
G01 X24.8404 Y50.8260
G01 X24.8652 Y50.9122
G01 X24.8695 Y50.9299
G01 X24.8853 Y51.0229
G01 X24.8879 Y51.0455
G01 X24.8929 Y51.1351
G01 X24.8929 Y51.1579
G01 X24.8879 Y51.2474
G01 X24.8853 Y51.2701
G01 X24.8703 Y51.3585
G01 X24.8652 Y51.3807
G01 X24.8404 Y51.4669
G01 X24.8328 Y51.4885
G01 X24.7985 Y51.5713
G01 X24.7886 Y51.5919
G01 X24.7452 Y51.6704
G01 X24.7347 Y51.6874
G01 X24.6812 Y51.7628
G01 X24.6670 Y51.7807
G01 X24.6072 Y51.8476
G01 X24.5911 Y51.8637
G01 X24.5242 Y51.9234
G01 X24.5064 Y51.9377
G01 X24.4332 Y51.9896
G01 X24.4139 Y52.0017
G01 X24.3354 Y52.0451
G01 X24.3160 Y52.0545
G01 X24.2320 Y52.0893
G01 X24.2105 Y52.0968
G01 X24.1243 Y52.1217
G01 X24.1066 Y52.1259
G01 X24.0136 Y52.1418
G01 X23.9910 Y52.1443
G01 X23.9527 Y52.1465
G01 X23.9910 Y52.1486
G01 X24.0136 Y52.1512
G01 X24.1021 Y52.1662
G01 X24.1243 Y52.1713
G01 X24.2105 Y52.1961
G01 X24.2320 Y52.2036
G01 X24.3149 Y52.2380
G01 X24.3354 Y52.2478
G01 X24.4139 Y52.2912
G01 X24.4309 Y52.3017
G01 X24.5064 Y52.3553
G01 X24.5242 Y52.3695
G01 X24.5911 Y52.4293
G01 X24.6072 Y52.4454
G01 X24.6670 Y52.5123
G01 X24.6812 Y52.5301
G01 X24.7331 Y52.6033
G01 X24.7452 Y52.6226
G01 X24.7886 Y52.7011
G01 X24.7981 Y52.7205
G01 X24.8328 Y52.8045
G01 X24.8404 Y52.8260
G01 X24.8652 Y52.9122
G01 X24.8695 Y52.9299
G01 X24.8853 Y53.0229
G01 X24.8879 Y53.0455
G01 X24.8932 Y53.1465
G01 X24.8879 Y53.2474
G01 X24.8853 Y53.2701
G01 X24.8703 Y53.3585
G01 X24.8652 Y53.3807
G01 X24.8404 Y53.4669
G01 X24.8328 Y53.4885
G01 X24.7985 Y53.5713
G01 X24.7886 Y53.5919
G01 X24.7452 Y53.6704
G01 X24.7347 Y53.6874
G01 X24.6812 Y53.7628
G01 X24.6670 Y53.7807
G01 X24.6072 Y53.8476
G01 X24.5911 Y53.8637
G01 X24.5242 Y53.9234
G01 X24.5064 Y53.9377
G01 X24.4332 Y53.9896
G01 X24.4139 Y54.0017
G01 X24.3354 Y54.0451
G01 X24.3160 Y54.0545
G01 X24.2320 Y54.0893
G01 X24.2105 Y54.0968
G01 X24.1243 Y54.1217
G01 X24.1066 Y54.1259
G01 X24.0136 Y54.1418
G01 X23.9910 Y54.1443
G01 X23.8900 Y54.1497
G01 X23.7890 Y54.1443
G01 X23.7664 Y54.1418
G01 X23.6779 Y54.1267
G01 X23.6557 Y54.1217
G01 X23.5695 Y54.0968
G01 X23.5480 Y54.0893
G01 X23.4651 Y54.0550
G01 X23.4446 Y54.0451
G01 X23.3661 Y54.0017
G01 X23.3491 Y53.9912
G01 X23.2736 Y53.9377
G01 X23.2558 Y53.9234
G01 X23.1889 Y53.8637
G01 X23.1728 Y53.8476
G01 X23.1130 Y53.7807
G01 X23.0988 Y53.7628
G01 X23.0469 Y53.6897
G01 X23.0348 Y53.6704
G01 X22.9914 Y53.5919
G01 X22.9819 Y53.5724
G01 X22.9472 Y53.4885
G01 X22.9396 Y53.4669
G01 X22.9148 Y53.3807
G01 X22.9105 Y53.3630
G01 X22.8947 Y53.2701
G01 X22.8921 Y53.2474
G01 X22.8868 Y53.1465
G01 X22.8921 Y53.0455
G01 X22.8947 Y53.0229
G01 X22.9097 Y52.9344
G01 X22.9148 Y52.9122
G01 X22.9396 Y52.8260
G01 X22.9472 Y52.8045
G01 X22.9815 Y52.7216
G01 X22.9914 Y52.7011
G01 X23.0348 Y52.6226
G01 X23.0453 Y52.6056
G01 X23.0988 Y52.5301
G01 X23.1130 Y52.5123
G01 X23.1728 Y52.4454
G01 X23.1889 Y52.4293
G01 X23.2558 Y52.3695
G01 X23.2736 Y52.3553
G01 X23.3468 Y52.3034
G01 X23.3661 Y52.2912
G01 X23.4446 Y52.2478
G01 X23.4640 Y52.2384
G01 X23.5480 Y52.2036
G01 X23.5695 Y52.1961
G01 X23.6557 Y52.1713
G01 X23.6734 Y52.1670
G01 X23.7664 Y52.1512
G01 X23.7890 Y52.1486
G01 X23.8273 Y52.1465
G01 X23.7890 Y52.1443
G01 X23.7664 Y52.1418
G01 X23.6779 Y52.1267
G01 X23.6557 Y52.1217
G01 X23.5695 Y52.0968
G01 X23.5480 Y52.0893
G01 X23.4651 Y52.0550
G01 X23.4446 Y52.0451
G01 X23.3661 Y52.0017
G01 X23.3491 Y51.9912
G01 X23.2736 Y51.9377
G01 X23.2558 Y51.9234
G01 X23.1889 Y51.8637
G01 X23.1728 Y51.8476
G01 X23.1130 Y51.7807
G01 X23.0988 Y51.7628
G01 X23.0469 Y51.6897
G01 X23.0348 Y51.6704
G01 X22.9914 Y51.5919
G01 X22.9819 Y51.5724
G01 X22.9472 Y51.4885
G01 X22.9396 Y51.4669
G01 X22.9148 Y51.3807
G01 X22.9105 Y51.3630
G01 X22.8947 Y51.2701
G01 X22.8921 Y51.2474
G01 X22.8868 Y51.1465
G01 X22.8921 Y51.0455
G01 X22.8947 Y51.0229
G01 X22.9097 Y50.9344
G01 X22.9148 Y50.9122
G01 X22.9396 Y50.8260
G01 X22.9472 Y50.8045
G01 X22.9815 Y50.7216
G01 X22.9914 Y50.7011
G01 X23.0348 Y50.6226
G01 X23.0453 Y50.6056
G01 X23.0988 Y50.5301
G01 X23.1130 Y50.5123
G01 X23.1728 Y50.4454
G01 X23.1889 Y50.4293
G01 X23.2558 Y50.3695
G01 X23.2736 Y50.3553
G01 X23.3468 Y50.3034
G01 X23.3661 Y50.2912
G01 X23.4446 Y50.2478
G01 X23.4640 Y50.2384
G01 X23.5480 Y50.2036
G01 X23.5695 Y50.1961
G01 X23.6557 Y50.1713
G01 X23.6734 Y50.1670
G01 X23.7664 Y50.1512
G01 X23.7890 Y50.1486
G01 X23.8273 Y50.1465
G01 X23.7890 Y50.1443
G01 X23.7664 Y50.1418
G01 X23.6779 Y50.1267
G01 X23.6557 Y50.1217
G01 X23.5695 Y50.0968
G01 X23.5480 Y50.0893
G01 X23.4651 Y50.0550
G01 X23.4446 Y50.0451
G01 X23.3661 Y50.0017
G01 X23.3491 Y49.9912
G01 X23.2736 Y49.9377
G01 X23.2558 Y49.9234
G01 X23.1889 Y49.8637
G01 X23.1728 Y49.8476
G01 X23.1130 Y49.7807
G01 X23.0988 Y49.7628
G01 X23.0469 Y49.6897
G01 X23.0348 Y49.6704
G01 X22.9914 Y49.5919
G01 X22.9819 Y49.5724
G01 X22.9472 Y49.4885
G01 X22.9396 Y49.4669
G01 X22.9148 Y49.3807
G01 X22.9105 Y49.3630
G01 X22.8947 Y49.2701
G01 X22.8925 Y49.2474
G00 Z2.5400
G00 X18.4774 Y56.2162
G01 F76.20
G01 Z-0.2000
G01 F76.20
G01 X18.4704 Y56.0929
G01 X18.4770 Y55.9695
G01 X18.4796 Y55.9469
G01 X18.4983 Y55.8363
G01 X18.5034 Y55.8141
G01 X18.5345 Y55.7063
G01 X18.5420 Y55.6848
G01 X18.5849 Y55.5812
G01 X18.5948 Y55.5607
G01 X18.6490 Y55.4625
G01 X18.6595 Y55.4456
G01 X18.7260 Y55.3518
G01 X18.7403 Y55.3340
G01 X18.8150 Y55.2504
G01 X18.8311 Y55.2342
G01 X18.9147 Y55.1595
G01 X18.9325 Y55.1453
G01 X19.0240 Y55.0804
G01 X19.0433 Y55.0683
G01 X19.1414 Y55.0141
G01 X19.1609 Y55.0046
G01 X19.2656 Y54.9613
G01 X19.2871 Y54.9537
G01 X19.3948 Y54.9227
G01 X19.4170 Y54.9176
G01 X19.5276 Y54.8988
G01 X19.5502 Y54.8963
G01 X19.6736 Y54.8897
G01 X19.7970 Y54.8963
G01 X19.8196 Y54.8988
G01 X19.9302 Y54.9176
G01 X19.9524 Y54.9227
G01 X20.0601 Y54.9537
G01 X20.0816 Y54.9613
G01 X20.1852 Y55.0042
G01 X20.2058 Y55.0141
G01 X20.3039 Y55.0683
G01 X20.3209 Y55.0788
G01 X20.4147 Y55.1453
G01 X20.4325 Y55.1595
G01 X20.5161 Y55.2342
G01 X20.5322 Y55.2504
G01 X20.6069 Y55.3340
G01 X20.6212 Y55.3518
G01 X20.6860 Y55.4433
G01 X20.6982 Y55.4625
G01 X20.7524 Y55.5607
G01 X20.7618 Y55.5801
G01 X20.8052 Y55.6848
G01 X20.8127 Y55.7063
G01 X20.8438 Y55.8141
G01 X20.8489 Y55.8363
G01 X20.8676 Y55.9469
G01 X20.8702 Y55.9695
G01 X20.8768 Y56.0929
G01 X20.8702 Y56.2162
G01 X20.8676 Y56.2389
G01 X20.8489 Y56.3494
G01 X20.8438 Y56.3716
G01 X20.8127 Y56.4794
G01 X20.8052 Y56.5009
G01 X20.7623 Y56.6045
G01 X20.7524 Y56.6250
G01 X20.6982 Y56.7232
G01 X20.6877 Y56.7402
G01 X20.6212 Y56.8339
G01 X20.6069 Y56.8518
G01 X20.5322 Y56.9354
G01 X20.5161 Y56.9515
G01 X20.4325 Y57.0262
G01 X20.4147 Y57.0404
G01 X20.3232 Y57.1053
G01 X20.3039 Y57.1174
G01 X20.2058 Y57.1717
G01 X20.1863 Y57.1811
G01 X20.0816 Y57.2245
G01 X20.0601 Y57.2320
G01 X19.9524 Y57.2631
G01 X19.9302 Y57.2681
G01 X19.8196 Y57.2869
G01 X19.7970 Y57.2895
G01 X19.6736 Y57.2961
G01 X19.5502 Y57.2895
G01 X19.5276 Y57.2869
G01 X19.4170 Y57.2681
G01 X19.3948 Y57.2631
G01 X19.2871 Y57.2320
G01 X19.2656 Y57.2245
G01 X19.1620 Y57.1816
G01 X19.1414 Y57.1717
G01 X19.0433 Y57.1174
G01 X19.0263 Y57.1069
G01 X18.9325 Y57.0404
G01 X18.9147 Y57.0262
G01 X18.8311 Y56.9515
G01 X18.8150 Y56.9354
G01 X18.7403 Y56.8518
G01 X18.7260 Y56.8339
G01 X18.6612 Y56.7425
G01 X18.6490 Y56.7232
G01 X18.5948 Y56.6250
G01 X18.5854 Y56.6056
G01 X18.5420 Y56.5009
G01 X18.5345 Y56.4794
G01 X18.5034 Y56.3716
G01 X18.4983 Y56.3494
G01 X18.4796 Y56.2389
G01 X18.4774 Y56.2162
G00 Z2.5400
G00 X13.3974 Y56.2162
G01 F76.20
G01 Z-0.2000
G01 F76.20
G01 X13.3904 Y56.0929
G01 X13.3970 Y55.9695
G01 X13.3996 Y55.9469
G01 X13.4183 Y55.8363
G01 X13.4234 Y55.8141
G01 X13.4545 Y55.7063
G01 X13.4620 Y55.6848
G01 X13.5049 Y55.5812
G01 X13.5148 Y55.5607
G01 X13.5690 Y55.4625
G01 X13.5795 Y55.4456
G01 X13.6460 Y55.3518
G01 X13.6603 Y55.3340
G01 X13.7350 Y55.2504
G01 X13.7511 Y55.2342
G01 X13.8347 Y55.1595
G01 X13.8525 Y55.1453
G01 X13.9440 Y55.0804
G01 X13.9633 Y55.0683
G01 X14.0614 Y55.0141
G01 X14.0809 Y55.0046
G01 X14.1856 Y54.9613
G01 X14.2071 Y54.9537
G01 X14.3148 Y54.9227
G01 X14.3370 Y54.9176
G01 X14.4476 Y54.8988
G01 X14.4702 Y54.8963
G01 X14.5936 Y54.8897
G01 X14.7170 Y54.8963
G01 X14.7396 Y54.8988
G01 X14.8502 Y54.9176
G01 X14.8724 Y54.9227
G01 X14.9801 Y54.9537
G01 X15.0016 Y54.9613
G01 X15.1052 Y55.0042
G01 X15.1258 Y55.0141
G01 X15.2239 Y55.0683
G01 X15.2409 Y55.0788
G01 X15.3347 Y55.1453
G01 X15.3525 Y55.1595
G01 X15.4361 Y55.2342
G01 X15.4522 Y55.2504
G01 X15.5269 Y55.3340
G01 X15.5412 Y55.3518
G01 X15.6060 Y55.4433
G01 X15.6182 Y55.4625
G01 X15.6724 Y55.5607
G01 X15.6818 Y55.5801
G01 X15.7252 Y55.6848
G01 X15.7327 Y55.7063
G01 X15.7638 Y55.8141
G01 X15.7689 Y55.8363
G01 X15.7876 Y55.9469
G01 X15.7902 Y55.9695
G01 X15.7968 Y56.0929
G01 X15.7902 Y56.2162
G01 X15.7876 Y56.2389
G01 X15.7689 Y56.3494
G01 X15.7638 Y56.3716
G01 X15.7327 Y56.4794
G01 X15.7252 Y56.5009
G01 X15.6823 Y56.6045
G01 X15.6724 Y56.6250
G01 X15.6182 Y56.7232
G01 X15.6077 Y56.7402
G01 X15.5412 Y56.8339
G01 X15.5269 Y56.8518
G01 X15.4522 Y56.9354
G01 X15.4361 Y56.9515
G01 X15.3525 Y57.0262
G01 X15.3347 Y57.0404
G01 X15.2432 Y57.1053
G01 X15.2239 Y57.1174
G01 X15.1258 Y57.1717
G01 X15.1063 Y57.1811
G01 X15.0016 Y57.2245
G01 X14.9801 Y57.2320
G01 X14.8724 Y57.2631
G01 X14.8502 Y57.2681
G01 X14.7396 Y57.2869
G01 X14.7170 Y57.2895
G01 X14.5936 Y57.2961
G01 X14.4702 Y57.2895
G01 X14.4476 Y57.2869
G01 X14.3370 Y57.2681
G01 X14.3148 Y57.2631
G01 X14.2071 Y57.2320
G01 X14.1856 Y57.2245
G01 X14.0820 Y57.1816
G01 X14.0614 Y57.1717
G01 X13.9633 Y57.1174
G01 X13.9463 Y57.1069
G01 X13.8525 Y57.0404
G01 X13.8347 Y57.0262
G01 X13.7511 Y56.9515
G01 X13.7350 Y56.9354
G01 X13.6603 Y56.8518
G01 X13.6460 Y56.8339
G01 X13.5812 Y56.7425
G01 X13.5690 Y56.7232
G01 X13.5148 Y56.6250
G01 X13.5054 Y56.6056
G01 X13.4620 Y56.5009
G01 X13.4545 Y56.4794
G01 X13.4234 Y56.3716
G01 X13.4183 Y56.3494
G01 X13.3996 Y56.2389
G01 X13.3974 Y56.2162
G00 Z2.5400
G00 X5.7774 Y56.2162
G01 F76.20
G01 Z-0.2000
G01 F76.20
G01 X5.7704 Y56.0929
G01 X5.7770 Y55.9695
G01 X5.7796 Y55.9469
G01 X5.7983 Y55.8363
G01 X5.8034 Y55.8141
G01 X5.8345 Y55.7063
G01 X5.8420 Y55.6848
G01 X5.8849 Y55.5812
G01 X5.8948 Y55.5607
G01 X5.9490 Y55.4625
G01 X5.9595 Y55.4456
G01 X6.0260 Y55.3518
G01 X6.0403 Y55.3340
G01 X6.1150 Y55.2504
G01 X6.1311 Y55.2342
G01 X6.2147 Y55.1595
G01 X6.2325 Y55.1453
G01 X6.3240 Y55.0804
G01 X6.3433 Y55.0683
G01 X6.4414 Y55.0141
G01 X6.4609 Y55.0046
G01 X6.5656 Y54.9613
G01 X6.5871 Y54.9537
G01 X6.6948 Y54.9227
G01 X6.7170 Y54.9176
G01 X6.8276 Y54.8988
G01 X6.8502 Y54.8963
G01 X6.9736 Y54.8897
G01 X7.0970 Y54.8963
G01 X7.1196 Y54.8988
G01 X7.2302 Y54.9176
G01 X7.2524 Y54.9227
G01 X7.3601 Y54.9537
G01 X7.3816 Y54.9613
G01 X7.4852 Y55.0042
G01 X7.5058 Y55.0141
G01 X7.6039 Y55.0683
G01 X7.6209 Y55.0788
G01 X7.7147 Y55.1453
G01 X7.7325 Y55.1595
G01 X7.8161 Y55.2342
G01 X7.8322 Y55.2504
G01 X7.9069 Y55.3340
G01 X7.9212 Y55.3518
G01 X7.9860 Y55.4433
G01 X7.9982 Y55.4625
G01 X8.0524 Y55.5607
G01 X8.0618 Y55.5801
G01 X8.1052 Y55.6848
G01 X8.1127 Y55.7063
G01 X8.1438 Y55.8141
G01 X8.1489 Y55.8363
G01 X8.1676 Y55.9469
G01 X8.1702 Y55.9695
G01 X8.1768 Y56.0929
G01 X8.1702 Y56.2162
G01 X8.1676 Y56.2389
G01 X8.1489 Y56.3494
G01 X8.1438 Y56.3716
G01 X8.1127 Y56.4794
G01 X8.1052 Y56.5009
G01 X8.0623 Y56.6045
G01 X8.0524 Y56.6250
G01 X7.9982 Y56.7232
G01 X7.9877 Y56.7402
G01 X7.9212 Y56.8339
G01 X7.9069 Y56.8518
G01 X7.8322 Y56.9354
G01 X7.8161 Y56.9515
G01 X7.7325 Y57.0262
G01 X7.7147 Y57.0404
G01 X7.6232 Y57.1053
G01 X7.6039 Y57.1174
G01 X7.5058 Y57.1717
G01 X7.4863 Y57.1811
G01 X7.3816 Y57.2245
G01 X7.3601 Y57.2320
G01 X7.2524 Y57.2631
G01 X7.2302 Y57.2681
G01 X7.1196 Y57.2869
G01 X7.0970 Y57.2895
G01 X6.9736 Y57.2961
G01 X6.8502 Y57.2895
G01 X6.8276 Y57.2869
G01 X6.7170 Y57.2681
G01 X6.6948 Y57.2631
G01 X6.5871 Y57.2320
G01 X6.5656 Y57.2245
G01 X6.4620 Y57.1816
G01 X6.4414 Y57.1717
G01 X6.3433 Y57.1174
G01 X6.3263 Y57.1069
G01 X6.2325 Y57.0404
G01 X6.2147 Y57.0262
G01 X6.1311 Y56.9515
G01 X6.1150 Y56.9354
G01 X6.0403 Y56.8518
G01 X6.0260 Y56.8339
G01 X5.9612 Y56.7425
G01 X5.9490 Y56.7232
G01 X5.8948 Y56.6250
G01 X5.8854 Y56.6056
G01 X5.8420 Y56.5009
G01 X5.8345 Y56.4794
G01 X5.8034 Y56.3716
G01 X5.7983 Y56.3494
G01 X5.7796 Y56.2389
G01 X5.7774 Y56.2162
G00 Z2.5400
G00 X3.2374 Y56.2162
G01 F76.20
G01 Z-0.2000
G01 F76.20
G01 X3.2304 Y56.0929
G01 X3.2370 Y55.9695
G01 X3.2396 Y55.9469
G01 X3.2583 Y55.8363
G01 X3.2634 Y55.8141
G01 X3.2945 Y55.7063
G01 X3.3020 Y55.6848
G01 X3.3449 Y55.5812
G01 X3.3548 Y55.5607
G01 X3.4090 Y55.4625
G01 X3.4195 Y55.4456
G01 X3.4860 Y55.3518
G01 X3.5003 Y55.3340
G01 X3.5750 Y55.2504
G01 X3.5911 Y55.2342
G01 X3.6747 Y55.1595
G01 X3.6925 Y55.1453
G01 X3.7301 Y55.1186
G01 X3.7301 Y53.1465
G01 X3.7336 Y53.0791
G01 X3.7362 Y53.0564
G01 X3.7456 Y53.0011
G01 X3.7506 Y52.9789
G01 X3.7662 Y52.9250
G01 X3.7737 Y52.9035
G01 X3.7952 Y52.8517
G01 X3.8050 Y52.8311
G01 X3.8322 Y52.7820
G01 X3.8443 Y52.7627
G01 X3.8768 Y52.7170
G01 X3.8910 Y52.6992
G01 X3.9362 Y52.6491
G01 X4.4442 Y52.1411
G01 X4.4943 Y52.0958
G01 X4.5121 Y52.0816
G01 X4.5579 Y52.0492
G01 X4.5772 Y52.0371
G01 X4.6263 Y52.0099
G01 X4.6457 Y52.0005
G01 X4.6986 Y51.9786
G01 X4.7201 Y51.9710
G01 X4.7740 Y51.9555
G01 X4.7917 Y51.9512
G01 X4.8516 Y51.9410
G01 X4.8742 Y51.9385
G01 X4.9416 Y51.9350
G01 X8.7516 Y51.9350
G01 X8.8190 Y51.9385
G01 X8.8416 Y51.9410
G01 X8.8970 Y51.9504
G01 X8.9192 Y51.9555
G01 X8.9731 Y51.9710
G01 X8.9946 Y51.9786
G01 X9.0464 Y52.0000
G01 X9.0669 Y52.0099
G01 X9.1160 Y52.0371
G01 X9.1330 Y52.0475
G01 X9.1811 Y52.0816
G01 X9.1989 Y52.0958
G01 X9.2490 Y52.1411
G01 X10.0110 Y52.9031
G01 X10.0562 Y52.9532
G01 X10.0704 Y52.9710
G01 X10.1029 Y53.0167
G01 X10.1150 Y53.0360
G01 X10.1422 Y53.0851
G01 X10.1516 Y53.1046
G01 X10.1735 Y53.1575
G01 X10.1810 Y53.1790
G01 X10.1966 Y53.2329
G01 X10.2016 Y53.2551
G01 X10.2110 Y53.3104
G01 X10.2136 Y53.3331
G01 X10.2171 Y53.4005
G01 X10.2171 Y55.1186
G01 X10.2547 Y55.1453
G01 X10.2725 Y55.1595
G01 X10.3561 Y55.2342
G01 X10.3722 Y55.2504
G01 X10.4469 Y55.3340
G01 X10.4612 Y55.3518
G01 X10.4879 Y55.3894
G01 X11.0793 Y55.3894
G01 X11.1060 Y55.3518
G01 X11.1203 Y55.3340
G01 X11.1950 Y55.2504
G01 X11.2111 Y55.2342
G01 X11.2947 Y55.1595
G01 X11.3125 Y55.1453
G01 X11.3501 Y55.1186
G01 X11.3501 Y53.1465
G01 X11.3536 Y53.0791
G01 X11.3562 Y53.0564
G01 X11.3656 Y53.0011
G01 X11.3706 Y52.9789
G01 X11.3862 Y52.9250
G01 X11.3937 Y52.9035
G01 X11.4152 Y52.8517
G01 X11.4250 Y52.8311
G01 X11.4522 Y52.7820
G01 X11.4627 Y52.7651
G01 X11.4968 Y52.7170
G01 X11.5110 Y52.6992
G01 X11.5484 Y52.6573
G01 X11.5668 Y52.6385
G01 X10.4386 Y51.5103
G01 X10.3934 Y51.4602
G01 X10.3792 Y51.4424
G01 X10.3467 Y51.3966
G01 X10.3346 Y51.3773
G01 X10.3074 Y51.3282
G01 X10.2980 Y51.3088
G01 X10.2761 Y51.2559
G01 X10.2686 Y51.2343
G01 X10.2530 Y51.1804
G01 X10.2488 Y51.1627
G01 X10.2386 Y51.1029
G01 X10.2360 Y51.0803
G01 X10.2325 Y51.0129
G01 X10.2325 Y43.4019
G01 X10.1949 Y43.3752
G01 X10.1771 Y43.3610
G01 X10.0935 Y43.2863
G01 X10.0774 Y43.2702
G01 X10.0027 Y43.1866
G01 X9.9884 Y43.1687
G01 X9.9236 Y43.0773
G01 X9.9114 Y43.0580
G01 X9.8572 Y42.9598
G01 X9.8478 Y42.9404
G01 X9.8044 Y42.8357
G01 X9.7969 Y42.8142
G01 X9.7658 Y42.7064
G01 X9.7616 Y42.6887
G01 X9.7420 Y42.5737
G01 X9.7394 Y42.5510
G01 X9.7328 Y42.4277
G01 X9.7394 Y42.3043
G01 X9.7420 Y42.2817
G01 X9.7607 Y42.1711
G01 X9.7658 Y42.1489
G01 X9.7969 Y42.0411
G01 X9.8044 Y42.0196
G01 X9.8473 Y41.9160
G01 X9.8572 Y41.8955
G01 X9.9114 Y41.7973
G01 X9.9219 Y41.7804
G01 X9.9884 Y41.6866
G01 X10.0027 Y41.6688
G01 X10.0774 Y41.5852
G01 X10.0935 Y41.5690
G01 X10.1771 Y41.4943
G01 X10.1949 Y41.4801
G01 X10.2325 Y41.4534
G01 X10.2325 Y40.7241
G01 X10.2360 Y40.6567
G01 X10.2386 Y40.6340
G01 X10.2480 Y40.5787
G01 X10.2530 Y40.5565
G01 X10.2686 Y40.5026
G01 X10.2761 Y40.4811
G01 X10.2976 Y40.4293
G01 X10.3074 Y40.4087
G01 X10.3346 Y40.3596
G01 X10.3467 Y40.3403
G01 X10.3792 Y40.2946
G01 X10.3934 Y40.2768
G01 X10.4308 Y40.2349
G01 X12.0442 Y38.6211
G01 X12.0943 Y38.5758
G01 X12.1121 Y38.5616
G01 X12.1579 Y38.5292
G01 X12.1772 Y38.5171
G01 X12.2263 Y38.4899
G01 X12.2457 Y38.4805
G01 X12.2986 Y38.4586
G01 X12.3201 Y38.4510
G01 X12.3740 Y38.4355
G01 X12.3962 Y38.4304
G01 X12.4516 Y38.4210
G01 X12.4742 Y38.4185
G01 X12.5416 Y38.4150
G01 X15.6302 Y38.4150
G01 X19.3962 Y34.6491
G01 X19.4463 Y34.6038
G01 X19.4641 Y34.5896
G01 X19.5099 Y34.5572
G01 X19.5292 Y34.5451
G01 X19.5783 Y34.5179
G01 X19.5977 Y34.5085
G01 X19.6506 Y34.4866
G01 X19.6721 Y34.4790
G01 X19.7260 Y34.4635
G01 X19.7438 Y34.4592
G01 X19.8036 Y34.4490
G01 X19.8262 Y34.4465
G01 X19.8936 Y34.4430
G01 X23.1752 Y34.4430
G01 X23.1865 Y34.4316
G01 X23.1865 Y33.4219
G01 X21.4902 Y33.4216
G01 X21.4342 Y33.4185
G01 X21.4116 Y33.4159
G01 X21.3562 Y33.4065
G01 X21.3340 Y33.4014
G01 X21.2801 Y33.3859
G01 X21.2586 Y33.3784
G01 X21.2068 Y33.3569
G01 X21.1863 Y33.3470
G01 X21.1372 Y33.3199
G01 X21.1202 Y33.3094
G01 X21.0721 Y33.2753
G01 X21.0543 Y33.2611
G01 X21.0125 Y33.2237
G01 X20.3446 Y32.5563
G01 X20.2994 Y32.5062
G01 X20.2852 Y32.4884
G01 X20.2527 Y32.4426
G01 X20.2406 Y32.4233
G01 X20.2134 Y32.3742
G01 X20.2040 Y32.3548
G01 X20.1821 Y32.3019
G01 X20.1746 Y32.2803
G01 X20.1590 Y32.2264
G01 X20.1548 Y32.2087
G01 X20.1446 Y32.1489
G01 X20.1420 Y32.1263
G01 X20.1385 Y32.0589
G01 X20.1385 Y21.5309
G01 X20.0702 Y21.4698
G01 X20.0541 Y21.4537
G01 X19.9868 Y21.3784
G01 X19.9726 Y21.3606
G01 X19.9142 Y21.2783
G01 X19.9021 Y21.2590
G01 X19.8533 Y21.1707
G01 X19.8439 Y21.1512
G01 X19.8048 Y21.0569
G01 X19.7972 Y21.0354
G01 X19.7693 Y20.9384
G01 X19.7651 Y20.9207
G01 X19.7473 Y20.8167
G01 X19.7448 Y20.7941
G01 X19.7388 Y20.6819
G01 X19.7388 Y20.2823
G01 X19.7448 Y20.1701
G01 X19.7473 Y20.1474
G01 X19.7642 Y20.0479
G01 X19.7693 Y20.0257
G01 X19.7972 Y19.9287
G01 X19.8048 Y19.9072
G01 X19.8434 Y19.8140
G01 X19.8533 Y19.7935
G01 X19.9021 Y19.7051
G01 X19.9126 Y19.6882
G01 X19.9726 Y19.6035
G01 X19.9868 Y19.5857
G01 X20.0541 Y19.5105
G01 X20.0702 Y19.4943
G01 X20.1385 Y19.4333
G01 X20.1385 Y12.3152
G01 X18.4142 Y10.5909
G01 X18.3690 Y10.5408
G01 X18.3548 Y10.5230
G01 X18.3223 Y10.4772
G01 X18.3102 Y10.4579
G01 X18.2830 Y10.4088
G01 X18.2736 Y10.3894
G01 X18.2517 Y10.3365
G01 X18.2442 Y10.3149
G01 X18.2286 Y10.2610
G01 X18.2244 Y10.2433
G01 X18.2142 Y10.1835
G01 X18.2116 Y10.1609
G01 X18.2085 Y10.1049
G01 X18.2085 Y10.0821
G01 X18.2116 Y10.0261
G01 X18.2142 Y10.0034
G01 X18.2236 Y9.9481
G01 X18.2286 Y9.9259
G01 X18.2442 Y9.8720
G01 X18.2517 Y9.8505
G01 X18.2732 Y9.7987
G01 X18.2830 Y9.7781
G01 X18.3102 Y9.7290
G01 X18.3207 Y9.7121
G01 X18.3548 Y9.6640
G01 X18.3690 Y9.6462
G01 X18.4064 Y9.6043
G01 X18.4225 Y9.5882
G01 X18.4643 Y9.5508
G01 X18.4821 Y9.5366
G01 X18.5279 Y9.5042
G01 X18.5472 Y9.4921
G01 X18.5963 Y9.4649
G01 X18.6157 Y9.4555
G01 X18.6686 Y9.4336
G01 X18.6901 Y9.4260
G01 X18.7440 Y9.4105
G01 X18.7662 Y9.4054
G01 X18.8216 Y9.3960
G01 X18.8442 Y9.3935
G01 X18.9002 Y9.3903
G01 X18.9230 Y9.3903
G01 X18.9790 Y9.3935
G01 X19.0016 Y9.3960
G01 X19.0570 Y9.4054
G01 X19.0792 Y9.4105
G01 X19.1331 Y9.4260
G01 X19.1546 Y9.4336
G01 X19.2064 Y9.4550
G01 X19.2269 Y9.4649
G01 X19.2760 Y9.4921
G01 X19.2930 Y9.5025
G01 X19.3411 Y9.5366
G01 X19.3589 Y9.5508
G01 X19.4090 Y9.5961
G01 X21.3394 Y11.5265
G01 X21.3846 Y11.5766
G01 X21.3988 Y11.5944
G01 X21.4313 Y11.6401
G01 X21.4434 Y11.6594
G01 X21.4706 Y11.7085
G01 X21.4800 Y11.7280
G01 X21.5019 Y11.7809
G01 X21.5094 Y11.8024
G01 X21.5250 Y11.8563
G01 X21.5300 Y11.8785
G01 X21.5394 Y11.9338
G01 X21.5420 Y11.9565
G01 X21.5455 Y12.0239
G01 X21.5455 Y19.4333
G01 X21.6138 Y19.4943
G01 X21.6299 Y19.5105
G01 X21.6972 Y19.5857
G01 X21.7114 Y19.6035
G01 X21.7698 Y19.6858
G01 X21.7819 Y19.7051
G01 X21.8307 Y19.7935
G01 X21.8401 Y19.8129
G01 X21.8792 Y19.9072
G01 X21.8868 Y19.9287
G01 X21.9147 Y20.0257
G01 X21.9189 Y20.0434
G01 X21.9367 Y20.1474
G01 X21.9392 Y20.1701
G01 X21.9452 Y20.2823
G01 X21.9452 Y20.6819
G01 X21.9392 Y20.7941
G01 X21.9367 Y20.8167
G01 X21.9198 Y20.9162
G01 X21.9147 Y20.9384
G01 X21.8868 Y21.0354
G01 X21.8792 Y21.0569
G01 X21.8406 Y21.1501
G01 X21.8307 Y21.1707
G01 X21.7819 Y21.2590
G01 X21.7714 Y21.2760
G01 X21.7114 Y21.3606
G01 X21.6972 Y21.3784
G01 X21.6299 Y21.4537
G01 X21.6138 Y21.4698
G01 X21.5455 Y21.5309
G01 X21.5455 Y31.7675
G01 X21.7930 Y32.0150
G01 X23.8316 Y32.0150
G01 X23.8990 Y32.0185
G01 X23.9216 Y32.0210
G01 X23.9770 Y32.0304
G01 X23.9992 Y32.0355
G01 X24.0531 Y32.0510
G01 X24.0746 Y32.0586
G01 X24.1264 Y32.0800
G01 X24.1469 Y32.0899
G01 X24.1960 Y32.1171
G01 X24.2130 Y32.1275
G01 X24.2611 Y32.1616
G01 X24.2789 Y32.1758
G01 X24.3207 Y32.2132
G01 X24.3952 Y32.2877
G01 X24.4326 Y32.3296
G01 X24.4468 Y32.3474
G01 X24.4793 Y32.3931
G01 X24.4914 Y32.4124
G01 X24.5186 Y32.4615
G01 X24.5280 Y32.4810
G01 X24.5499 Y32.5339
G01 X24.5574 Y32.5554
G01 X24.5730 Y32.6093
G01 X24.5772 Y32.6270
G01 X24.5874 Y32.6868
G01 X24.5900 Y32.7095
G01 X24.5935 Y32.7769
G01 X24.5935 Y34.4316
G01 X24.6072 Y34.4454
G01 X24.6670 Y34.5123
G01 X24.6812 Y34.5301
G01 X24.7331 Y34.6033
G01 X24.7452 Y34.6226
G01 X24.7886 Y34.7011
G01 X24.7981 Y34.7205
G01 X24.8328 Y34.8045
G01 X24.8404 Y34.8260
G01 X24.8652 Y34.9122
G01 X24.8695 Y34.9299
G01 X24.8853 Y35.0229
G01 X24.8879 Y35.0455
G01 X24.8932 Y35.1465
G01 X24.8879 Y35.2474
G01 X24.8853 Y35.2701
G01 X24.8703 Y35.3585
G01 X24.8652 Y35.3807
G01 X24.8404 Y35.4669
G01 X24.8328 Y35.4885
G01 X24.7985 Y35.5713
G01 X24.7886 Y35.5919
G01 X24.7452 Y35.6704
G01 X24.7347 Y35.6874
G01 X24.6812 Y35.7628
G01 X24.6670 Y35.7807
G01 X24.6072 Y35.8476
G01 X24.5911 Y35.8637
G01 X24.5242 Y35.9234
G01 X24.5064 Y35.9377
G01 X24.4332 Y35.9896
G01 X24.4139 Y36.0017
G01 X24.3354 Y36.0451
G01 X24.3160 Y36.0545
G01 X24.2320 Y36.0893
G01 X24.2105 Y36.0968
G01 X24.1243 Y36.1217
G01 X24.1066 Y36.1259
G01 X24.0136 Y36.1418
G01 X23.9910 Y36.1443
G01 X23.8900 Y36.1497
G01 X23.7890 Y36.1443
G01 X23.7664 Y36.1418
G01 X23.6779 Y36.1267
G01 X23.6557 Y36.1217
G01 X23.5695 Y36.0968
G01 X23.5480 Y36.0893
G01 X23.4651 Y36.0550
G01 X23.4446 Y36.0451
G01 X23.3661 Y36.0017
G01 X23.3491 Y35.9912
G01 X23.2736 Y35.9377
G01 X23.2558 Y35.9234
G01 X23.1889 Y35.8637
G01 X23.1752 Y35.8499
G01 X20.1850 Y35.8499
G01 X16.4190 Y39.6159
G01 X16.3689 Y39.6611
G01 X16.3511 Y39.6753
G01 X16.3053 Y39.7078
G01 X16.2860 Y39.7199
G01 X16.2369 Y39.7470
G01 X16.2175 Y39.7565
G01 X16.1646 Y39.7784
G01 X16.1431 Y39.7859
G01 X16.0892 Y39.8014
G01 X16.0715 Y39.8057
G01 X16.0116 Y39.8159
G01 X15.9890 Y39.8185
G01 X15.9330 Y39.8216
G01 X12.8330 Y39.8219
G01 X11.6395 Y41.0154
G01 X11.6395 Y41.4534
G01 X11.6771 Y41.4801
G01 X11.6949 Y41.4943
G01 X11.7785 Y41.5690
G01 X11.7946 Y41.5852
G01 X11.8693 Y41.6688
G01 X11.8836 Y41.6866
G01 X11.9484 Y41.7781
G01 X11.9606 Y41.7973
G01 X12.0148 Y41.8955
G01 X12.0242 Y41.9149
G01 X12.0676 Y42.0196
G01 X12.0751 Y42.0411
G01 X12.1062 Y42.1489
G01 X12.1104 Y42.1666
G01 X12.1300 Y42.2817
G01 X12.1326 Y42.3043
G01 X12.1392 Y42.4277
G01 X12.1326 Y42.5510
G01 X12.1300 Y42.5737
G01 X12.1113 Y42.6842
G01 X12.1062 Y42.7064
G01 X12.0751 Y42.8142
G01 X12.0676 Y42.8357
G01 X12.0247 Y42.9393
G01 X12.0148 Y42.9598
G01 X11.9606 Y43.0580
G01 X11.9501 Y43.0750
G01 X11.8836 Y43.1687
G01 X11.8693 Y43.1866
G01 X11.7946 Y43.2702
G01 X11.7785 Y43.2863
G01 X11.6949 Y43.3610
G01 X11.6771 Y43.3752
G01 X11.6395 Y43.4019
G01 X11.6395 Y50.7215
G01 X12.8530 Y51.9350
G01 X16.3830 Y51.9353
G01 X16.4390 Y51.9385
G01 X16.4616 Y51.9410
G01 X16.5170 Y51.9504
G01 X16.5392 Y51.9555
G01 X16.5931 Y51.9710
G01 X16.6146 Y51.9786
G01 X16.6664 Y52.0000
G01 X16.6869 Y52.0099
G01 X16.7360 Y52.0371
G01 X16.7553 Y52.0492
G01 X16.8011 Y52.0816
G01 X16.8189 Y52.0958
G01 X16.8690 Y52.1411
G01 X17.6388 Y52.9113
G01 X17.6762 Y52.9532
G01 X17.6904 Y52.9710
G01 X17.7229 Y53.0167
G01 X17.7350 Y53.0360
G01 X17.7622 Y53.0851
G01 X17.7716 Y53.1046
G01 X17.7935 Y53.1575
G01 X17.8010 Y53.1790
G01 X17.8166 Y53.2329
G01 X17.8208 Y53.2506
G01 X17.8310 Y53.3104
G01 X17.8336 Y53.3331
G01 X17.8371 Y53.4005
G01 X17.8371 Y55.1186
G01 X17.8747 Y55.1453
G01 X17.8925 Y55.1595
G01 X17.9761 Y55.2342
G01 X17.9922 Y55.2504
G01 X18.0669 Y55.3340
G01 X18.0812 Y55.3518
G01 X18.1460 Y55.4433
G01 X18.1582 Y55.4625
G01 X18.2124 Y55.5607
G01 X18.2218 Y55.5801
G01 X18.2652 Y55.6848
G01 X18.2727 Y55.7063
G01 X18.3038 Y55.8141
G01 X18.3080 Y55.8318
G01 X18.3276 Y55.9469
G01 X18.3302 Y55.9695
G01 X18.3368 Y56.0929
G01 X18.3302 Y56.2162
G01 X18.3276 Y56.2389
G01 X18.3089 Y56.3494
G01 X18.3038 Y56.3716
G01 X18.2727 Y56.4794
G01 X18.2652 Y56.5009
G01 X18.2223 Y56.6045
G01 X18.2124 Y56.6250
G01 X18.1582 Y56.7232
G01 X18.1477 Y56.7402
G01 X18.0812 Y56.8339
G01 X18.0669 Y56.8518
G01 X17.9922 Y56.9354
G01 X17.9761 Y56.9515
G01 X17.8925 Y57.0262
G01 X17.8747 Y57.0404
G01 X17.7832 Y57.1053
G01 X17.7639 Y57.1174
G01 X17.6658 Y57.1717
G01 X17.6463 Y57.1811
G01 X17.5416 Y57.2245
G01 X17.5201 Y57.2320
G01 X17.4124 Y57.2631
G01 X17.3947 Y57.2673
G01 X17.2796 Y57.2869
G01 X17.2570 Y57.2895
G01 X17.1336 Y57.2961
G01 X17.0102 Y57.2895
G01 X16.9876 Y57.2869
G01 X16.8770 Y57.2681
G01 X16.8548 Y57.2631
G01 X16.7471 Y57.2320
G01 X16.7256 Y57.2245
G01 X16.6220 Y57.1816
G01 X16.6014 Y57.1717
G01 X16.5033 Y57.1174
G01 X16.4863 Y57.1069
G01 X16.3925 Y57.0404
G01 X16.3747 Y57.0262
G01 X16.2911 Y56.9515
G01 X16.2750 Y56.9354
G01 X16.2003 Y56.8518
G01 X16.1860 Y56.8339
G01 X16.1212 Y56.7425
G01 X16.1090 Y56.7232
G01 X16.0548 Y56.6250
G01 X16.0449 Y56.6045
G01 X16.0020 Y56.5009
G01 X15.9945 Y56.4794
G01 X15.9634 Y56.3716
G01 X15.9592 Y56.3539
G01 X15.9396 Y56.2389
G01 X15.9370 Y56.2162
G01 X15.9304 Y56.0929
G01 X15.9370 Y55.9695
G01 X15.9396 Y55.9469
G01 X15.9583 Y55.8363
G01 X15.9634 Y55.8141
G01 X15.9945 Y55.7063
G01 X16.0020 Y55.6848
G01 X16.0449 Y55.5812
G01 X16.0548 Y55.5607
G01 X16.1090 Y55.4625
G01 X16.1195 Y55.4456
G01 X16.1860 Y55.3518
G01 X16.2003 Y55.3340
G01 X16.2750 Y55.2504
G01 X16.2911 Y55.2342
G01 X16.3747 Y55.1595
G01 X16.3925 Y55.1453
G01 X16.4301 Y55.1186
G01 X16.4301 Y53.6918
G01 X16.0802 Y53.3419
G01 X12.8530 Y53.3419
G01 X12.7571 Y53.4378
G01 X12.7571 Y55.1186
G01 X12.7947 Y55.1453
G01 X12.8125 Y55.1595
G01 X12.8961 Y55.2342
G01 X12.9122 Y55.2504
G01 X12.9869 Y55.3340
G01 X13.0012 Y55.3518
G01 X13.0660 Y55.4433
G01 X13.0782 Y55.4625
G01 X13.1324 Y55.5607
G01 X13.1418 Y55.5801
G01 X13.1852 Y55.6848
G01 X13.1927 Y55.7063
G01 X13.2238 Y55.8141
G01 X13.2280 Y55.8318
G01 X13.2476 Y55.9469
G01 X13.2502 Y55.9695
G01 X13.2568 Y56.0929
G01 X13.2502 Y56.2162
G01 X13.2476 Y56.2389
G01 X13.2289 Y56.3494
G01 X13.2238 Y56.3716
G01 X13.1927 Y56.4794
G01 X13.1852 Y56.5009
G01 X13.1423 Y56.6045
G01 X13.1324 Y56.6250
G01 X13.0782 Y56.7232
G01 X13.0660 Y56.7425
G01 X13.0012 Y56.8339
G01 X12.9869 Y56.8518
G01 X12.9122 Y56.9354
G01 X12.8961 Y56.9515
G01 X12.8125 Y57.0262
G01 X12.7947 Y57.0404
G01 X12.7032 Y57.1053
G01 X12.6839 Y57.1174
G01 X12.5858 Y57.1717
G01 X12.5663 Y57.1811
G01 X12.4616 Y57.2245
G01 X12.4401 Y57.2320
G01 X12.3324 Y57.2631
G01 X12.3147 Y57.2673
G01 X12.1996 Y57.2869
G01 X12.1770 Y57.2895
G01 X12.0536 Y57.2961
G01 X11.9302 Y57.2895
G01 X11.9076 Y57.2869
G01 X11.7970 Y57.2681
G01 X11.7748 Y57.2631
G01 X11.6671 Y57.2320
G01 X11.6456 Y57.2245
G01 X11.5420 Y57.1816
G01 X11.5214 Y57.1717
G01 X11.4233 Y57.1174
G01 X11.4063 Y57.1069
G01 X11.3125 Y57.0404
G01 X11.2947 Y57.0262
G01 X11.2111 Y56.9515
G01 X11.1950 Y56.9354
G01 X11.1203 Y56.8518
G01 X11.1060 Y56.8339
G01 X11.0793 Y56.7963
G01 X10.4879 Y56.7963
G01 X10.4612 Y56.8339
G01 X10.4469 Y56.8518
G01 X10.3722 Y56.9354
G01 X10.3561 Y56.9515
G01 X10.2725 Y57.0262
G01 X10.2547 Y57.0404
G01 X10.1632 Y57.1053
G01 X10.1439 Y57.1174
G01 X10.0458 Y57.1717
G01 X10.0263 Y57.1811
G01 X9.9216 Y57.2245
G01 X9.9001 Y57.2320
G01 X9.7924 Y57.2631
G01 X9.7747 Y57.2673
G01 X9.6596 Y57.2869
G01 X9.6370 Y57.2895
G01 X9.5136 Y57.2961
G01 X9.3902 Y57.2895
G01 X9.3676 Y57.2869
G01 X9.2570 Y57.2681
G01 X9.2348 Y57.2631
G01 X9.1271 Y57.2320
G01 X9.1056 Y57.2245
G01 X9.0020 Y57.1816
G01 X8.9814 Y57.1717
G01 X8.8833 Y57.1174
G01 X8.8663 Y57.1069
G01 X8.7725 Y57.0404
G01 X8.7547 Y57.0262
G01 X8.6711 Y56.9515
G01 X8.6550 Y56.9354
G01 X8.5803 Y56.8518
G01 X8.5660 Y56.8339
G01 X8.5012 Y56.7425
G01 X8.4890 Y56.7232
G01 X8.4348 Y56.6250
G01 X8.4254 Y56.6056
G01 X8.3820 Y56.5009
G01 X8.3745 Y56.4794
G01 X8.3434 Y56.3716
G01 X8.3392 Y56.3539
G01 X8.3196 Y56.2389
G01 X8.3170 Y56.2162
G01 X8.3107 Y56.1043
G01 X8.3107 Y56.0815
G01 X8.3170 Y55.9695
G01 X8.3196 Y55.9469
G01 X8.3383 Y55.8363
G01 X8.3434 Y55.8141
G01 X8.3745 Y55.7063
G01 X8.3820 Y55.6848
G01 X8.4249 Y55.5812
G01 X8.4348 Y55.5607
G01 X8.4890 Y55.4625
G01 X8.4995 Y55.4456
G01 X8.5660 Y55.3518
G01 X8.5803 Y55.3340
G01 X8.6550 Y55.2504
G01 X8.6711 Y55.2342
G01 X8.7547 Y55.1595
G01 X8.7725 Y55.1453
G01 X8.8101 Y55.1186
G01 X8.8101 Y53.6918
G01 X8.4602 Y53.3419
G01 X5.2330 Y53.3419
G01 X5.1371 Y53.4378
G01 X5.1371 Y55.1186
G01 X5.1747 Y55.1453
G01 X5.1925 Y55.1595
G01 X5.2761 Y55.2342
G01 X5.2922 Y55.2504
G01 X5.3669 Y55.3340
G01 X5.3812 Y55.3518
G01 X5.4460 Y55.4433
G01 X5.4582 Y55.4625
G01 X5.5124 Y55.5607
G01 X5.5218 Y55.5801
G01 X5.5652 Y55.6848
G01 X5.5727 Y55.7063
G01 X5.6038 Y55.8141
G01 X5.6080 Y55.8318
G01 X5.6276 Y55.9469
G01 X5.6302 Y55.9695
G01 X5.6365 Y56.0815
G01 X5.6365 Y56.1043
G01 X5.6302 Y56.2162
G01 X5.6276 Y56.2389
G01 X5.6089 Y56.3494
G01 X5.6038 Y56.3716
G01 X5.5727 Y56.4794
G01 X5.5652 Y56.5009
G01 X5.5223 Y56.6045
G01 X5.5124 Y56.6250
G01 X5.4582 Y56.7232
G01 X5.4477 Y56.7402
G01 X5.3812 Y56.8339
G01 X5.3669 Y56.8518
G01 X5.2922 Y56.9354
G01 X5.2761 Y56.9515
G01 X5.1925 Y57.0262
G01 X5.1747 Y57.0404
G01 X5.0832 Y57.1053
G01 X5.0639 Y57.1174
G01 X4.9658 Y57.1717
G01 X4.9463 Y57.1811
G01 X4.8416 Y57.2245
G01 X4.8201 Y57.2320
G01 X4.7124 Y57.2631
G01 X4.6947 Y57.2673
G01 X4.5796 Y57.2869
G01 X4.5570 Y57.2895
G01 X4.4450 Y57.2958
G01 X4.4222 Y57.2958
G01 X4.3102 Y57.2895
G01 X4.2876 Y57.2869
G01 X4.1770 Y57.2681
G01 X4.1548 Y57.2631
G01 X4.0471 Y57.2320
G01 X4.0256 Y57.2245
G01 X3.9220 Y57.1816
G01 X3.9014 Y57.1717
G01 X3.8033 Y57.1174
G01 X3.7863 Y57.1069
G01 X3.6925 Y57.0404
G01 X3.6747 Y57.0262
G01 X3.5911 Y56.9515
G01 X3.5750 Y56.9354
G01 X3.5003 Y56.8518
G01 X3.4860 Y56.8339
G01 X3.4212 Y56.7425
G01 X3.4090 Y56.7232
G01 X3.3548 Y56.6250
G01 X3.3454 Y56.6056
G01 X3.3020 Y56.5009
G01 X3.2945 Y56.4794
G01 X3.2634 Y56.3716
G01 X3.2592 Y56.3539
G01 X3.2396 Y56.2389
G01 X3.2374 Y56.2162
G00 Z2.5400
G00 X0.6974 Y56.2162
G01 F76.20
G01 Z-0.2000
G01 F76.20
G01 X0.6904 Y56.0929
G01 X0.6970 Y55.9695
G01 X0.6996 Y55.9469
G01 X0.7183 Y55.8363
G01 X0.7234 Y55.8141
G01 X0.7545 Y55.7063
G01 X0.7620 Y55.6848
G01 X0.8049 Y55.5812
G01 X0.8148 Y55.5607
G01 X0.8690 Y55.4625
G01 X0.8795 Y55.4456
G01 X0.9460 Y55.3518
G01 X0.9603 Y55.3340
G01 X1.0350 Y55.2504
G01 X1.0511 Y55.2342
G01 X1.1347 Y55.1595
G01 X1.1525 Y55.1453
G01 X1.2440 Y55.0804
G01 X1.2633 Y55.0683
G01 X1.3614 Y55.0141
G01 X1.3809 Y55.0046
G01 X1.4856 Y54.9613
G01 X1.5071 Y54.9537
G01 X1.6148 Y54.9227
G01 X1.6370 Y54.9176
G01 X1.7476 Y54.8988
G01 X1.7702 Y54.8963
G01 X1.8936 Y54.8897
G01 X2.0170 Y54.8963
G01 X2.0396 Y54.8988
G01 X2.1502 Y54.9176
G01 X2.1724 Y54.9227
G01 X2.2801 Y54.9537
G01 X2.3016 Y54.9613
G01 X2.4052 Y55.0042
G01 X2.4258 Y55.0141
G01 X2.5239 Y55.0683
G01 X2.5409 Y55.0788
G01 X2.6347 Y55.1453
G01 X2.6525 Y55.1595
G01 X2.7361 Y55.2342
G01 X2.7522 Y55.2504
G01 X2.8269 Y55.3340
G01 X2.8412 Y55.3518
G01 X2.9060 Y55.4433
G01 X2.9182 Y55.4625
G01 X2.9724 Y55.5607
G01 X2.9818 Y55.5801
G01 X3.0252 Y55.6848
G01 X3.0327 Y55.7063
G01 X3.0638 Y55.8141
G01 X3.0689 Y55.8363
G01 X3.0876 Y55.9469
G01 X3.0902 Y55.9695
G01 X3.0968 Y56.0929
G01 X3.0902 Y56.2162
G01 X3.0876 Y56.2389
G01 X3.0689 Y56.3494
G01 X3.0638 Y56.3716
G01 X3.0327 Y56.4794
G01 X3.0252 Y56.5009
G01 X2.9823 Y56.6045
G01 X2.9724 Y56.6250
G01 X2.9182 Y56.7232
G01 X2.9077 Y56.7402
G01 X2.8412 Y56.8339
G01 X2.8269 Y56.8518
G01 X2.7522 Y56.9354
G01 X2.7361 Y56.9515
G01 X2.6525 Y57.0262
G01 X2.6347 Y57.0404
G01 X2.5432 Y57.1053
G01 X2.5239 Y57.1174
G01 X2.4258 Y57.1717
G01 X2.4063 Y57.1811
G01 X2.3016 Y57.2245
G01 X2.2801 Y57.2320
G01 X2.1724 Y57.2631
G01 X2.1502 Y57.2681
G01 X2.0396 Y57.2869
G01 X2.0170 Y57.2895
G01 X1.8936 Y57.2961
G01 X1.7702 Y57.2895
G01 X1.7476 Y57.2869
G01 X1.6370 Y57.2681
G01 X1.6148 Y57.2631
G01 X1.5071 Y57.2320
G01 X1.4856 Y57.2245
G01 X1.3820 Y57.1816
G01 X1.3614 Y57.1717
G01 X1.2633 Y57.1174
G01 X1.2463 Y57.1069
G01 X1.1525 Y57.0404
G01 X1.1347 Y57.0262
G01 X1.0511 Y56.9515
G01 X1.0350 Y56.9354
G01 X0.9603 Y56.8518
G01 X0.9460 Y56.8339
G01 X0.8812 Y56.7425
G01 X0.8690 Y56.7232
G01 X0.8148 Y56.6250
G01 X0.8054 Y56.6056
G01 X0.7620 Y56.5009
G01 X0.7545 Y56.4794
G01 X0.7234 Y56.3716
G01 X0.7183 Y56.3494
G01 X0.6996 Y56.2389
G01 X0.6974 Y56.2162
G00 Z2.5400
G00 X4.6598 Y42.5510
G01 F76.20
G01 Z-0.2000
G01 F76.20
G01 X4.6528 Y42.4277
G01 X4.6594 Y42.3043
G01 X4.6620 Y42.2817
G01 X4.6807 Y42.1711
G01 X4.6858 Y42.1489
G01 X4.7169 Y42.0411
G01 X4.7244 Y42.0196
G01 X4.7673 Y41.9160
G01 X4.7772 Y41.8955
G01 X4.8314 Y41.7973
G01 X4.8419 Y41.7804
G01 X4.9084 Y41.6866
G01 X4.9227 Y41.6688
G01 X4.9974 Y41.5852
G01 X5.0135 Y41.5690
G01 X5.0971 Y41.4943
G01 X5.1149 Y41.4801
G01 X5.2064 Y41.4152
G01 X5.2257 Y41.4031
G01 X5.3238 Y41.3489
G01 X5.3433 Y41.3394
G01 X5.4480 Y41.2961
G01 X5.4695 Y41.2885
G01 X5.5772 Y41.2575
G01 X5.5994 Y41.2524
G01 X5.7100 Y41.2336
G01 X5.7326 Y41.2311
G01 X5.8560 Y41.2245
G01 X5.9794 Y41.2311
G01 X6.0020 Y41.2336
G01 X6.1126 Y41.2524
G01 X6.1348 Y41.2575
G01 X6.2425 Y41.2885
G01 X6.2640 Y41.2961
G01 X6.3676 Y41.3390
G01 X6.3882 Y41.3489
G01 X6.4863 Y41.4031
G01 X6.5033 Y41.4136
G01 X6.5971 Y41.4801
G01 X6.6149 Y41.4943
G01 X6.6985 Y41.5690
G01 X6.7146 Y41.5852
G01 X6.7893 Y41.6688
G01 X6.8036 Y41.6866
G01 X6.8684 Y41.7781
G01 X6.8806 Y41.7973
G01 X6.9348 Y41.8955
G01 X6.9442 Y41.9149
G01 X6.9876 Y42.0196
G01 X6.9951 Y42.0411
G01 X7.0262 Y42.1489
G01 X7.0313 Y42.1711
G01 X7.0500 Y42.2817
G01 X7.0526 Y42.3043
G01 X7.0592 Y42.4277
G01 X7.0526 Y42.5510
G01 X7.0500 Y42.5737
G01 X7.0313 Y42.6842
G01 X7.0262 Y42.7064
G01 X6.9951 Y42.8142
G01 X6.9876 Y42.8357
G01 X6.9447 Y42.9393
G01 X6.9348 Y42.9598
G01 X6.8806 Y43.0580
G01 X6.8701 Y43.0750
G01 X6.8036 Y43.1687
G01 X6.7893 Y43.1866
G01 X6.7146 Y43.2702
G01 X6.6985 Y43.2863
G01 X6.6149 Y43.3610
G01 X6.5971 Y43.3752
G01 X6.5056 Y43.4401
G01 X6.4863 Y43.4522
G01 X6.3882 Y43.5065
G01 X6.3687 Y43.5159
G01 X6.2640 Y43.5593
G01 X6.2425 Y43.5668
G01 X6.1348 Y43.5979
G01 X6.1126 Y43.6029
G01 X6.0020 Y43.6217
G01 X5.9794 Y43.6243
G01 X5.8560 Y43.6309
G01 X5.7326 Y43.6243
G01 X5.7100 Y43.6217
G01 X5.5994 Y43.6029
G01 X5.5772 Y43.5979
G01 X5.4695 Y43.5668
G01 X5.4480 Y43.5593
G01 X5.3444 Y43.5164
G01 X5.3238 Y43.5065
G01 X5.2257 Y43.4522
G01 X5.2087 Y43.4417
G01 X5.1149 Y43.3752
G01 X5.0971 Y43.3610
G01 X5.0135 Y43.2863
G01 X4.9974 Y43.2702
G01 X4.9227 Y43.1866
G01 X4.9084 Y43.1687
G01 X4.8436 Y43.0773
G01 X4.8314 Y43.0580
G01 X4.7772 Y42.9598
G01 X4.7678 Y42.9404
G01 X4.7244 Y42.8357
G01 X4.7169 Y42.8142
G01 X4.6858 Y42.7064
G01 X4.6807 Y42.6842
G01 X4.6620 Y42.5737
G01 X4.6598 Y42.5510
G00 Z2.5400
G00 X7.1998 Y42.5510
G01 F76.20
G01 Z-0.2000
G01 F76.20
G01 X7.1928 Y42.4277
G01 X7.1994 Y42.3043
G01 X7.2020 Y42.2817
G01 X7.2207 Y42.1711
G01 X7.2258 Y42.1489
G01 X7.2569 Y42.0411
G01 X7.2644 Y42.0196
G01 X7.3073 Y41.9160
G01 X7.3172 Y41.8955
G01 X7.3714 Y41.7973
G01 X7.3819 Y41.7804
G01 X7.4484 Y41.6866
G01 X7.4627 Y41.6688
G01 X7.5374 Y41.5852
G01 X7.5535 Y41.5690
G01 X7.6371 Y41.4943
G01 X7.6549 Y41.4801
G01 X7.7464 Y41.4152
G01 X7.7657 Y41.4031
G01 X7.8638 Y41.3489
G01 X7.8833 Y41.3394
G01 X7.9880 Y41.2961
G01 X8.0095 Y41.2885
G01 X8.1172 Y41.2575
G01 X8.1394 Y41.2524
G01 X8.2500 Y41.2336
G01 X8.2726 Y41.2311
G01 X8.3960 Y41.2245
G01 X8.5194 Y41.2311
G01 X8.5420 Y41.2336
G01 X8.6526 Y41.2524
G01 X8.6748 Y41.2575
G01 X8.7825 Y41.2885
G01 X8.8040 Y41.2961
G01 X8.9076 Y41.3390
G01 X8.9282 Y41.3489
G01 X9.0263 Y41.4031
G01 X9.0433 Y41.4136
G01 X9.1371 Y41.4801
G01 X9.1549 Y41.4943
G01 X9.2385 Y41.5690
G01 X9.2546 Y41.5852
G01 X9.3293 Y41.6688
G01 X9.3436 Y41.6866
G01 X9.4084 Y41.7781
G01 X9.4206 Y41.7973
G01 X9.4748 Y41.8955
G01 X9.4842 Y41.9149
G01 X9.5276 Y42.0196
G01 X9.5351 Y42.0411
G01 X9.5662 Y42.1489
G01 X9.5713 Y42.1711
G01 X9.5900 Y42.2817
G01 X9.5926 Y42.3043
G01 X9.5992 Y42.4277
G01 X9.5926 Y42.5510
G01 X9.5900 Y42.5737
G01 X9.5713 Y42.6842
G01 X9.5662 Y42.7064
G01 X9.5351 Y42.8142
G01 X9.5276 Y42.8357
G01 X9.4847 Y42.9393
G01 X9.4748 Y42.9598
G01 X9.4206 Y43.0580
G01 X9.4101 Y43.0750
G01 X9.3436 Y43.1687
G01 X9.3293 Y43.1866
G01 X9.2546 Y43.2702
G01 X9.2385 Y43.2863
G01 X9.1549 Y43.3610
G01 X9.1371 Y43.3752
G01 X9.0456 Y43.4401
G01 X9.0263 Y43.4522
G01 X8.9282 Y43.5065
G01 X8.9087 Y43.5159
G01 X8.8040 Y43.5593
G01 X8.7825 Y43.5668
G01 X8.6748 Y43.5979
G01 X8.6526 Y43.6029
G01 X8.5420 Y43.6217
G01 X8.5194 Y43.6243
G01 X8.3960 Y43.6309
G01 X8.2726 Y43.6243
G01 X8.2500 Y43.6217
G01 X8.1394 Y43.6029
G01 X8.1172 Y43.5979
G01 X8.0095 Y43.5668
G01 X7.9880 Y43.5593
G01 X7.8844 Y43.5164
G01 X7.8638 Y43.5065
G01 X7.7657 Y43.4522
G01 X7.7487 Y43.4417
G01 X7.6549 Y43.3752
G01 X7.6371 Y43.3610
G01 X7.5535 Y43.2863
G01 X7.5374 Y43.2702
G01 X7.4627 Y43.1866
G01 X7.4484 Y43.1687
G01 X7.3836 Y43.0773
G01 X7.3714 Y43.0580
G01 X7.3172 Y42.9598
G01 X7.3078 Y42.9404
G01 X7.2644 Y42.8357
G01 X7.2569 Y42.8142
G01 X7.2258 Y42.7064
G01 X7.2207 Y42.6842
G01 X7.2020 Y42.5737
G01 X7.1998 Y42.5510
G00 Z2.5400
G00 X14.2454 Y42.3986
G01 F76.20
G01 Z-0.2000
G01 F76.20
G01 X14.2384 Y42.2753
G01 X14.2450 Y42.1519
G01 X14.2476 Y42.1293
G01 X14.2663 Y42.0187
G01 X14.2714 Y41.9965
G01 X14.3025 Y41.8887
G01 X14.3100 Y41.8672
G01 X14.3529 Y41.7636
G01 X14.3628 Y41.7431
G01 X14.4170 Y41.6449
G01 X14.4275 Y41.6280
G01 X14.4940 Y41.5342
G01 X14.5083 Y41.5164
G01 X14.5830 Y41.4328
G01 X14.5991 Y41.4166
G01 X14.6827 Y41.3419
G01 X14.7005 Y41.3277
G01 X14.7920 Y41.2628
G01 X14.8113 Y41.2507
G01 X14.9094 Y41.1965
G01 X14.9289 Y41.1870
G01 X15.0336 Y41.1437
G01 X15.0551 Y41.1361
G01 X15.1628 Y41.1051
G01 X15.1850 Y41.1000
G01 X15.2956 Y41.0812
G01 X15.3182 Y41.0787
G01 X15.4416 Y41.0721
G01 X15.5650 Y41.0787
G01 X15.5876 Y41.0812
G01 X15.6982 Y41.1000
G01 X15.7204 Y41.1051
G01 X15.8281 Y41.1361
G01 X15.8496 Y41.1437
G01 X15.9532 Y41.1866
G01 X15.9738 Y41.1965
G01 X16.0719 Y41.2507
G01 X16.0889 Y41.2612
G01 X16.1827 Y41.3277
G01 X16.2005 Y41.3419
G01 X16.2841 Y41.4166
G01 X16.3002 Y41.4328
G01 X16.3749 Y41.5164
G01 X16.3892 Y41.5342
G01 X16.4540 Y41.6257
G01 X16.4662 Y41.6449
G01 X16.5204 Y41.7431
G01 X16.5298 Y41.7625
G01 X16.5732 Y41.8672
G01 X16.5807 Y41.8887
G01 X16.6118 Y41.9965
G01 X16.6169 Y42.0187
G01 X16.6356 Y42.1293
G01 X16.6382 Y42.1519
G01 X16.6448 Y42.2753
G01 X16.6382 Y42.3986
G01 X16.6356 Y42.4213
G01 X16.6169 Y42.5318
G01 X16.6118 Y42.5540
G01 X16.5807 Y42.6618
G01 X16.5732 Y42.6833
G01 X16.5303 Y42.7869
G01 X16.5204 Y42.8074
G01 X16.4662 Y42.9056
G01 X16.4557 Y42.9226
G01 X16.3892 Y43.0163
G01 X16.3749 Y43.0342
G01 X16.3002 Y43.1178
G01 X16.2841 Y43.1339
G01 X16.2005 Y43.2086
G01 X16.1827 Y43.2228
G01 X16.0912 Y43.2877
G01 X16.0719 Y43.2998
G01 X15.9738 Y43.3541
G01 X15.9543 Y43.3635
G01 X15.8496 Y43.4069
G01 X15.8281 Y43.4144
G01 X15.7204 Y43.4455
G01 X15.6982 Y43.4505
G01 X15.5876 Y43.4693
G01 X15.5650 Y43.4719
G01 X15.4416 Y43.4785
G01 X15.3182 Y43.4719
G01 X15.2956 Y43.4693
G01 X15.1850 Y43.4505
G01 X15.1628 Y43.4455
G01 X15.0551 Y43.4144
G01 X15.0336 Y43.4069
G01 X14.9300 Y43.3640
G01 X14.9094 Y43.3541
G01 X14.8113 Y43.2998
G01 X14.7943 Y43.2893
G01 X14.7005 Y43.2228
G01 X14.6827 Y43.2086
G01 X14.5991 Y43.1339
G01 X14.5830 Y43.1178
G01 X14.5083 Y43.0342
G01 X14.4940 Y43.0163
G01 X14.4292 Y42.9249
G01 X14.4170 Y42.9056
G01 X14.3628 Y42.8074
G01 X14.3534 Y42.7880
G01 X14.3100 Y42.6833
G01 X14.3025 Y42.6618
G01 X14.2714 Y42.5540
G01 X14.2663 Y42.5318
G01 X14.2476 Y42.4213
G01 X14.2454 Y42.3986
G00 Z2.5400
G00 X16.7854 Y42.3986
G01 F76.20
G01 Z-0.2000
G01 F76.20
G01 X16.7784 Y42.2753
G01 X16.7850 Y42.1519
G01 X16.7876 Y42.1293
G01 X16.8063 Y42.0187
G01 X16.8114 Y41.9965
G01 X16.8425 Y41.8887
G01 X16.8500 Y41.8672
G01 X16.8929 Y41.7636
G01 X16.9028 Y41.7431
G01 X16.9570 Y41.6449
G01 X16.9675 Y41.6280
G01 X17.0340 Y41.5342
G01 X17.0483 Y41.5164
G01 X17.1230 Y41.4328
G01 X17.1391 Y41.4166
G01 X17.2227 Y41.3419
G01 X17.2405 Y41.3277
G01 X17.2781 Y41.3010
G01 X17.2781 Y40.8611
G01 X17.2816 Y40.7937
G01 X17.2842 Y40.7710
G01 X17.2936 Y40.7157
G01 X17.2986 Y40.6935
G01 X17.3142 Y40.6396
G01 X17.3217 Y40.6181
G01 X17.3432 Y40.5662
G01 X17.3530 Y40.5457
G01 X17.3802 Y40.4966
G01 X17.3907 Y40.4796
G01 X17.4248 Y40.4316
G01 X17.4390 Y40.4138
G01 X17.4842 Y40.3636
G01 X19.2071 Y38.6412
G01 X19.2489 Y38.6038
G01 X19.2667 Y38.5896
G01 X19.3125 Y38.5572
G01 X19.3317 Y38.5451
G01 X19.3808 Y38.5179
G01 X19.4003 Y38.5085
G01 X19.4532 Y38.4866
G01 X19.4747 Y38.4790
G01 X19.5286 Y38.4635
G01 X19.5508 Y38.4584
G01 X19.6061 Y38.4490
G01 X19.6288 Y38.4465
G01 X19.6962 Y38.4430
G01 X45.1752 Y38.4430
G01 X45.1889 Y38.4293
G01 X45.2558 Y38.3695
G01 X45.2736 Y38.3553
G01 X45.3468 Y38.3034
G01 X45.3661 Y38.2912
G01 X45.4446 Y38.2478
G01 X45.4640 Y38.2384
G01 X45.5480 Y38.2036
G01 X45.5695 Y38.1961
G01 X45.6557 Y38.1713
G01 X45.6734 Y38.1670
G01 X45.7664 Y38.1512
G01 X45.7890 Y38.1486
G01 X45.8900 Y38.1433
G01 X45.9910 Y38.1486
G01 X46.0136 Y38.1512
G01 X46.1021 Y38.1662
G01 X46.1243 Y38.1713
G01 X46.2105 Y38.1961
G01 X46.2320 Y38.2036
G01 X46.3149 Y38.2380
G01 X46.3354 Y38.2478
G01 X46.4139 Y38.2912
G01 X46.4309 Y38.3017
G01 X46.5064 Y38.3553
G01 X46.5242 Y38.3695
G01 X46.5911 Y38.4293
G01 X46.6072 Y38.4454
G01 X46.6670 Y38.5123
G01 X46.6812 Y38.5301
G01 X46.7331 Y38.6033
G01 X46.7452 Y38.6226
G01 X46.7886 Y38.7011
G01 X46.7981 Y38.7205
G01 X46.8328 Y38.8045
G01 X46.8404 Y38.8260
G01 X46.8652 Y38.9122
G01 X46.8695 Y38.9299
G01 X46.8853 Y39.0229
G01 X46.8879 Y39.0455
G01 X46.8932 Y39.1465
G01 X46.8879 Y39.2474
G01 X46.8853 Y39.2701
G01 X46.8703 Y39.3585
G01 X46.8652 Y39.3807
G01 X46.8404 Y39.4669
G01 X46.8328 Y39.4885
G01 X46.7985 Y39.5713
G01 X46.7886 Y39.5919
G01 X46.7452 Y39.6704
G01 X46.7347 Y39.6874
G01 X46.6812 Y39.7628
