(G-CODE GENERATED BY FLATCAM v8.912 - www.flatcam.org - Version Date: 2019/03/17)

(Name: PCBPRUEBACNC-F.Cu.gbr_iso_cnc)
(Type: G-code from Geometry)
(Units: MM)

(Created on Thursday, 11 April 2019 at 16:16)

(TOOL DIAMETER: 0.2 mm)
(Feedrate: 76.2 mm/min)
(Feedrate_Z: 76.2 mm/min)
(Feedrate rapids 76.2 mm/min)

(Z_Cut: -0.2 mm)
(Z_Move: 2.54 mm)
(Z Toolchange: 25.4 mm)
(X,Y Toolchange: 0.0000, 0.0000 mm)
(Z Start: None mm)
(Z End: 50.8 mm)
(Steps per circle: 64)
(Postprocessor Geometry: default)

(X range:    0.1900 ...   29.1103  mm)
(Y range:    0.4997 ...   22.4303  mm)

(Spindle Speed: None RPM)

G21
G90
G94

G01 F76.20
G00 Z2.5400

M03
G00 X0.6897 Y9.6191
G01 F76.20
G01 Z-0.2000
G01 F76.20
G01 X0.6897 Y2.4200
G01 X0.6935 Y2.3528
G01 X0.7037 Y2.2919
G01 X0.7062 Y2.2810
G01 X0.7234 Y2.2217
G01 X0.7469 Y2.1647
G01 X0.7518 Y2.1546
G01 X0.7818 Y2.1006
G01 X0.8173 Y2.0502
G01 X0.8243 Y2.0415
G01 X0.8656 Y1.9956
G01 X2.1876 Y0.6736
G01 X2.2357 Y0.6307
G01 X2.2906 Y0.5918
G01 X2.3496 Y0.5592
G01 X2.4065 Y0.5354
G01 X2.4171 Y0.5317
G01 X2.4764 Y0.5148
G01 X2.5372 Y0.5043
G01 X2.5484 Y0.5031
G01 X2.6100 Y0.4997
G01 X24.9900 Y0.4997
G01 X25.0516 Y0.5031
G01 X25.0628 Y0.5043
G01 X25.1181 Y0.5137
G01 X25.1290 Y0.5162
G01 X25.1883 Y0.5334
G01 X25.2504 Y0.5592
G01 X25.3045 Y0.5889
G01 X25.3140 Y0.5949
G01 X25.3643 Y0.6307
G01 X25.4124 Y0.6736
G01 X26.4464 Y1.7076
G01 X26.4893 Y1.7558
G01 X26.5282 Y1.8106
G01 X26.5608 Y1.8696
G01 X26.5846 Y1.9265
G01 X26.5883 Y1.9371
G01 X26.6052 Y1.9964
G01 X26.6157 Y2.0572
G01 X26.6169 Y2.0684
G01 X26.6203 Y2.1300
G01 X26.6203 Y9.4991
G01 X26.7058 Y9.5600
G01 X26.7937 Y9.6383
G01 X26.8017 Y9.6463
G01 X26.8764 Y9.7299
G01 X26.8834 Y9.7386
G01 X26.9514 Y9.8348
G01 X27.0085 Y9.9377
G01 X27.0134 Y9.9478
G01 X27.0583 Y10.0567
G01 X27.0924 Y10.1752
G01 X27.1131 Y10.2968
G01 X27.1200 Y10.4200
G01 X27.1131 Y10.5432
G01 X27.0935 Y10.6593
G01 X27.0910 Y10.6702
G01 X27.0583 Y10.7833
G01 X27.0134 Y10.8922
G01 X27.0085 Y10.9023
G01 X26.9514 Y11.0052
G01 X26.8834 Y11.1014
G01 X26.8764 Y11.1101
G01 X26.8017 Y11.1937
G01 X26.7937 Y11.2017
G01 X26.7058 Y11.2800
G01 X26.6099 Y11.3483
G01 X26.6004 Y11.3542
G01 X26.4973 Y11.4111
G01 X26.3885 Y11.4563
G01 X26.3780 Y11.4600
G01 X26.2648 Y11.4924
G01 X26.1432 Y11.5131
G01 X26.0200 Y11.5200
G01 X25.8968 Y11.5131
G01 X25.7752 Y11.4924
G01 X25.6567 Y11.4583
G01 X25.5427 Y11.4111
G01 X25.4348 Y11.3514
G01 X25.3342 Y11.2800
G01 X25.2422 Y11.1978
G01 X25.1600 Y11.1058
G01 X25.0886 Y11.0052
G01 X25.0289 Y10.8973
G01 X24.9817 Y10.7833
G01 X24.9476 Y10.6648
G01 X24.9277 Y10.5487
G01 X24.9264 Y10.5376
G01 X24.9200 Y10.4200
G01 X24.9264 Y10.3024
G01 X24.9277 Y10.2913
G01 X24.9476 Y10.1752
G01 X24.9800 Y10.0620
G01 X24.9837 Y10.0515
G01 X25.0289 Y9.9427
G01 X25.0886 Y9.8348
G01 X25.1566 Y9.7386
G01 X25.1636 Y9.7299
G01 X25.2383 Y9.6463
G01 X25.2463 Y9.6383
G01 X25.3342 Y9.5600
G01 X25.4197 Y9.4991
G01 X25.4197 Y2.3786
G01 X24.7414 Y1.7003
G01 X2.8586 Y1.7003
G01 X1.8903 Y2.6686
G01 X1.8903 Y9.6191
G01 X1.9758 Y9.6800
G01 X2.0637 Y9.7583
G01 X2.0717 Y9.7663
G01 X2.1464 Y9.8499
G01 X2.1534 Y9.8586
G01 X2.2214 Y9.9548
G01 X2.2785 Y10.0577
G01 X2.2834 Y10.0678
G01 X2.3283 Y10.1767
G01 X2.3624 Y10.2952
G01 X2.3831 Y10.4168
G01 X2.3900 Y10.5400
G01 X2.3831 Y10.6632
G01 X2.3624 Y10.7848
G01 X2.3283 Y10.9033
G01 X2.2834 Y11.0122
G01 X2.2785 Y11.0223
G01 X2.2242 Y11.1204
G01 X2.2183 Y11.1299
G01 X2.1500 Y11.2258
G01 X2.0717 Y11.3137
G01 X2.0637 Y11.3217
G01 X1.9758 Y11.4000
G01 X1.8752 Y11.4714
G01 X1.7673 Y11.5311
G01 X1.6533 Y11.5783
G01 X1.5348 Y11.6124
G01 X1.4187 Y11.6323
G01 X1.4076 Y11.6336
G01 X1.2956 Y11.6398
G01 X1.2844 Y11.6398
G01 X1.1668 Y11.6331
G01 X1.0452 Y11.6124
G01 X0.9267 Y11.5783
G01 X0.8127 Y11.5311
G01 X0.7048 Y11.4714
G01 X0.6086 Y11.4034
G01 X0.5999 Y11.3964
G01 X0.5163 Y11.3217
G01 X0.5083 Y11.3137
G01 X0.4300 Y11.2258
G01 X0.3586 Y11.1252
G01 X0.2989 Y11.0173
G01 X0.2517 Y10.9033
G01 X0.2176 Y10.7848
G01 X0.1977 Y10.6687
G01 X0.1964 Y10.6576
G01 X0.1902 Y10.5456
G01 X0.1902 Y10.5344
G01 X0.1969 Y10.4168
G01 X0.2176 Y10.2952
G01 X0.2517 Y10.1767
G01 X0.2966 Y10.0678
G01 X0.3015 Y10.0577
G01 X0.3558 Y9.9596
G01 X0.3617 Y9.9501
G01 X0.4300 Y9.8542
G01 X0.5122 Y9.7622
G01 X0.6042 Y9.6800
G01 X0.6897 Y9.6191
G00 Z2.5400
G00 X3.2297 Y9.6191
G01 F76.20
G01 Z-0.2000
G01 F76.20
G01 X3.2297 Y3.9300
G01 X3.2335 Y3.8628
G01 X3.2437 Y3.8019
G01 X3.2462 Y3.7910
G01 X3.2634 Y3.7317
G01 X3.2869 Y3.6747
G01 X3.2918 Y3.6646
G01 X3.3218 Y3.6106
G01 X3.3573 Y3.5602
G01 X3.3643 Y3.5515
G01 X3.4056 Y3.5056
G01 X4.3496 Y2.5617
G01 X4.3957 Y2.5207
G01 X4.4460 Y2.4849
G01 X4.4555 Y2.4789
G01 X4.5096 Y2.4492
G01 X4.5665 Y2.4254
G01 X4.5771 Y2.4217
G01 X4.6310 Y2.4062
G01 X4.6419 Y2.4037
G01 X4.7028 Y2.3935
G01 X4.7700 Y2.3897
G01 X22.5000 Y2.3897
G01 X22.5616 Y2.3931
G01 X22.5728 Y2.3943
G01 X22.6281 Y2.4037
G01 X22.6390 Y2.4062
G01 X22.6983 Y2.4234
G01 X22.7604 Y2.4492
G01 X22.8145 Y2.4789
G01 X22.8240 Y2.4849
G01 X22.8743 Y2.5207
G01 X22.9224 Y2.5636
G01 X23.9083 Y3.5496
G01 X23.9493 Y3.5958
G01 X23.9851 Y3.6460
G01 X23.9911 Y3.6555
G01 X24.0208 Y3.7096
G01 X24.0446 Y3.7665
G01 X24.0483 Y3.7771
G01 X24.0638 Y3.8310
G01 X24.0663 Y3.8419
G01 X24.0765 Y3.9028
G01 X24.0803 Y3.9700
G01 X24.0803 Y9.4991
G01 X24.1658 Y9.5600
G01 X24.2537 Y9.6383
G01 X24.2617 Y9.6463
G01 X24.3364 Y9.7299
G01 X24.3434 Y9.7386
G01 X24.4114 Y9.8348
G01 X24.4685 Y9.9377
G01 X24.4734 Y9.9478
G01 X24.5183 Y10.0567
G01 X24.5524 Y10.1752
G01 X24.5731 Y10.2968
G01 X24.5798 Y10.4144
G01 X24.5798 Y10.4256
G01 X24.5731 Y10.5432
G01 X24.5535 Y10.6593
G01 X24.5510 Y10.6702
G01 X24.5183 Y10.7833
G01 X24.4734 Y10.8922
G01 X24.4685 Y10.9023
G01 X24.4114 Y11.0052
G01 X24.3400 Y11.1058
G01 X24.2617 Y11.1937
G01 X24.2537 Y11.2017
G01 X24.1658 Y11.2800
G01 X24.0652 Y11.3514
G01 X23.9623 Y11.4085
G01 X23.9522 Y11.4134
G01 X23.8433 Y11.4583
G01 X23.7302 Y11.4910
G01 X23.7193 Y11.4935
G01 X23.6087 Y11.5123
G01 X23.5976 Y11.5136
G01 X23.4800 Y11.5200
G01 X23.3624 Y11.5136
G01 X23.3513 Y11.5123
G01 X23.2352 Y11.4924
G01 X23.1167 Y11.4583
G01 X23.0027 Y11.4111
G01 X22.8948 Y11.3514
G01 X22.7942 Y11.2800
G01 X22.7022 Y11.1978
G01 X22.6200 Y11.1058
G01 X22.5517 Y11.0099
G01 X22.5458 Y11.0004
G01 X22.4889 Y10.8973
G01 X22.4437 Y10.7885
G01 X22.4400 Y10.7780
G01 X22.4090 Y10.6702
G01 X22.4065 Y10.6593
G01 X22.3869 Y10.5432
G01 X22.3802 Y10.4256
G01 X22.3802 Y10.4144
G01 X22.3864 Y10.3024
G01 X22.3877 Y10.2913
G01 X22.4076 Y10.1752
G01 X22.4400 Y10.0620
G01 X22.4437 Y10.0515
G01 X22.4889 Y9.9427
G01 X22.5458 Y9.8396
G01 X22.5517 Y9.8301
G01 X22.6200 Y9.7342
G01 X22.6983 Y9.6463
G01 X22.7063 Y9.6383
G01 X22.7942 Y9.5600
G01 X22.8797 Y9.4991
G01 X22.8797 Y4.2186
G01 X22.2514 Y3.5903
G01 X5.0186 Y3.5903
G01 X4.4303 Y4.1786
G01 X4.4303 Y9.6191
G01 X4.5158 Y9.6800
G01 X4.6037 Y9.7583
G01 X4.6117 Y9.7663
G01 X4.6864 Y9.8499
G01 X4.6934 Y9.8586
G01 X4.7614 Y9.9548
G01 X4.8185 Y10.0577
G01 X4.8234 Y10.0678
G01 X4.8683 Y10.1767
G01 X4.9024 Y10.2952
G01 X4.9231 Y10.4168
G01 X4.9300 Y10.5400
G01 X4.9231 Y10.6632
G01 X4.9024 Y10.7848
G01 X4.8683 Y10.9033
G01 X4.8234 Y11.0122
G01 X4.8185 Y11.0223
G01 X4.7642 Y11.1204
G01 X4.7583 Y11.1299
G01 X4.6900 Y11.2258
G01 X4.6117 Y11.3137
G01 X4.6037 Y11.3217
G01 X4.5158 Y11.4000
G01 X4.4152 Y11.4714
G01 X4.3073 Y11.5311
G01 X4.1933 Y11.5783
G01 X4.0748 Y11.6124
G01 X3.9587 Y11.6323
G01 X3.9476 Y11.6336
G01 X3.8356 Y11.6398
G01 X3.8244 Y11.6398
G01 X3.7068 Y11.6331
G01 X3.5852 Y11.6124
G01 X3.4667 Y11.5783
G01 X3.3527 Y11.5311
G01 X3.2448 Y11.4714
G01 X3.1486 Y11.4034
G01 X3.1399 Y11.3964
G01 X3.0563 Y11.3217
G01 X3.0483 Y11.3137
G01 X2.9700 Y11.2258
G01 X2.8986 Y11.1252
G01 X2.8389 Y11.0173
G01 X2.7917 Y10.9033
G01 X2.7576 Y10.7848
G01 X2.7377 Y10.6687
G01 X2.7364 Y10.6576
G01 X2.7302 Y10.5456
G01 X2.7302 Y10.5344
G01 X2.7369 Y10.4168
G01 X2.7576 Y10.2952
G01 X2.7917 Y10.1767
G01 X2.8366 Y10.0678
G01 X2.8415 Y10.0577
G01 X2.8958 Y9.9596
G01 X2.9017 Y9.9501
G01 X2.9700 Y9.8542
G01 X3.0522 Y9.7622
G01 X3.1442 Y9.6800
G01 X3.2297 Y9.6191
G00 Z2.5400
G00 X7.2909 Y11.1403
G01 F76.20
G01 Z-0.2000
G01 F76.20
G01 X7.2300 Y11.2258
G01 X7.1478 Y11.3178
G01 X7.0558 Y11.4000
G01 X6.9599 Y11.4683
G01 X6.9504 Y11.4742
G01 X6.8523 Y11.5285
G01 X6.8422 Y11.5334
G01 X6.7333 Y11.5783
G01 X6.6148 Y11.6124
G01 X6.4932 Y11.6331
G01 X6.3756 Y11.6398
G01 X6.3644 Y11.6398
G01 X6.2524 Y11.6336
G01 X6.2413 Y11.6323
G01 X6.1252 Y11.6124
G01 X6.0067 Y11.5783
G01 X5.8927 Y11.5311
G01 X5.7848 Y11.4714
G01 X5.6842 Y11.4000
G01 X5.5963 Y11.3217
G01 X5.5883 Y11.3137
G01 X5.5136 Y11.2301
G01 X5.5066 Y11.2214
G01 X5.4386 Y11.1252
G01 X5.3789 Y11.0173
G01 X5.3317 Y10.9033
G01 X5.2976 Y10.7848
G01 X5.2769 Y10.6632
G01 X5.2702 Y10.5456
G01 X5.2702 Y10.5344
G01 X5.2764 Y10.4224
G01 X5.2777 Y10.4113
G01 X5.2976 Y10.2952
G01 X5.3317 Y10.1767
G01 X5.3789 Y10.0627
G01 X5.4386 Y9.9548
G01 X5.5100 Y9.8542
G01 X5.5883 Y9.7663
G01 X5.5963 Y9.7583
G01 X5.6799 Y9.6836
G01 X5.6886 Y9.6766
G01 X5.7848 Y9.6086
G01 X5.8877 Y9.5515
G01 X5.8978 Y9.5466
G01 X6.0067 Y9.5017
G01 X6.1252 Y9.4676
G01 X6.2468 Y9.4469
G01 X6.3700 Y9.4400
G01 X6.4932 Y9.4469
G01 X6.6148 Y9.4676
G01 X6.7333 Y9.5017
G01 X6.8422 Y9.5466
G01 X6.8523 Y9.5515
G01 X6.9552 Y9.6086
G01 X7.0514 Y9.6766
G01 X7.0601 Y9.6836
G01 X7.1437 Y9.7583
G01 X7.1517 Y9.7663
G01 X7.2300 Y9.8542
G01 X7.2909 Y9.9397
G01 X9.7146 Y9.9397
G01 X9.7317 Y9.9101
G01 X9.8000 Y9.8142
G01 X9.8822 Y9.7222
G01 X9.9742 Y9.6400
G01 X10.0701 Y9.5717
G01 X10.0796 Y9.5658
G01 X10.1777 Y9.5115
G01 X10.1878 Y9.5066
G01 X10.2967 Y9.4617
G01 X10.4098 Y9.4290
G01 X10.4207 Y9.4265
G01 X10.5368 Y9.4069
G01 X10.6544 Y9.4002
G01 X10.6656 Y9.4002
G01 X10.7832 Y9.4069
G01 X10.8993 Y9.4265
G01 X10.9102 Y9.4290
G01 X11.0233 Y9.4617
G01 X11.1322 Y9.5066
G01 X11.1423 Y9.5115
G01 X11.2452 Y9.5686
G01 X11.3458 Y9.6400
G01 X11.4337 Y9.7183
G01 X11.4417 Y9.7263
G01 X11.5200 Y9.8142
G01 X11.5914 Y9.9148
G01 X11.6511 Y10.0227
G01 X11.6963 Y10.1315
G01 X11.7000 Y10.1420
G01 X11.7310 Y10.2498
G01 X11.7335 Y10.2607
G01 X11.7531 Y10.3768
G01 X11.7600 Y10.5000
G01 X11.7531 Y10.6232
G01 X11.7335 Y10.7393
G01 X11.7310 Y10.7502
G01 X11.7000 Y10.8580
G01 X11.6963 Y10.8685
G01 X11.6511 Y10.9773
G01 X11.5914 Y11.0852
G01 X11.5200 Y11.1858
G01 X11.4378 Y11.2778
G01 X11.3458 Y11.3600
G01 X11.2499 Y11.4283
G01 X11.2404 Y11.4342
G01 X11.1423 Y11.4885
G01 X11.1322 Y11.4934
G01 X11.0233 Y11.5383
G01 X10.9102 Y11.5710
G01 X10.8993 Y11.5735
G01 X10.7832 Y11.5931
G01 X10.6656 Y11.5998
G01 X10.6544 Y11.5998
G01 X10.5424 Y11.5936
G01 X10.5313 Y11.5923
G01 X10.4152 Y11.5724
G01 X10.3020 Y11.5400
G01 X10.2915 Y11.5363
G01 X10.1827 Y11.4911
G01 X10.0796 Y11.4342
G01 X10.0701 Y11.4283
G01 X9.9742 Y11.3600
G01 X9.8863 Y11.2817
G01 X9.8783 Y11.2737
G01 X9.8000 Y11.1858
G01 X9.7674 Y11.1403
G01 X7.2909 Y11.1403
G00 Z2.5400
G00 X13.4268 Y9.4244
G01 F76.20
G01 Z-0.2000
G01 F76.20
G01 X13.5997 Y9.2514
G01 X13.5997 Y8.2600
G01 X13.6031 Y8.1984
G01 X13.6043 Y8.1872
G01 X13.6148 Y8.1264
G01 X13.6334 Y8.0617
G01 X13.6592 Y7.9996
G01 X13.6889 Y7.9455
G01 X13.6949 Y7.9360
G01 X13.7307 Y7.8858
G01 X13.7756 Y7.8356
G01 X14.8756 Y6.7356
G01 X14.9257 Y6.6907
G01 X14.9806 Y6.6518
G01 X15.0396 Y6.6192
G01 X15.0965 Y6.5954
G01 X15.1071 Y6.5917
G01 X15.1664 Y6.5748
G01 X15.2272 Y6.5643
G01 X15.2384 Y6.5631
G01 X15.2972 Y6.5598
G01 X17.6800 Y6.5597
G01 X17.7472 Y6.5635
G01 X17.8136 Y6.5748
G01 X17.8729 Y6.5917
G01 X17.8835 Y6.5954
G01 X17.9404 Y6.6192
G01 X17.9945 Y6.6489
G01 X18.0040 Y6.6549
G01 X18.0543 Y6.6907
G01 X18.1024 Y6.7336
G01 X20.7132 Y9.3444
G01 X20.8168 Y9.3269
G01 X20.9344 Y9.3202
G01 X20.9456 Y9.3202
G01 X21.0576 Y9.3264
G01 X21.0687 Y9.3277
G01 X21.1848 Y9.3476
G01 X21.2980 Y9.3800
G01 X21.3085 Y9.3837
G01 X21.4173 Y9.4289
G01 X21.5252 Y9.4886
G01 X21.6258 Y9.5600
G01 X21.7137 Y9.6383
G01 X21.7217 Y9.6463
G01 X21.8000 Y9.7342
G01 X21.8714 Y9.8348
G01 X21.9311 Y9.9427
G01 X21.9783 Y10.0567
G01 X22.0124 Y10.1752
G01 X22.0331 Y10.2968
G01 X22.0400 Y10.4200
G01 X22.0331 Y10.5432
G01 X22.0124 Y10.6648
G01 X21.9783 Y10.7833
G01 X21.9311 Y10.8973
G01 X21.8714 Y11.0052
G01 X21.8000 Y11.1058
G01 X21.7178 Y11.1978
G01 X21.6258 Y11.2800
G01 X21.5299 Y11.3483
G01 X21.5204 Y11.3542
G01 X21.4173 Y11.4111
G01 X21.3033 Y11.4583
G01 X21.1848 Y11.4924
G01 X21.0687 Y11.5123
G01 X21.0576 Y11.5136
G01 X20.9400 Y11.5200
G01 X20.8224 Y11.5136
G01 X20.8113 Y11.5123
G01 X20.6952 Y11.4924
G01 X20.5820 Y11.4600
G01 X20.5715 Y11.4563
G01 X20.4678 Y11.4134
G01 X20.4577 Y11.4085
G01 X20.3596 Y11.3542
G01 X20.3501 Y11.3483
G01 X20.2542 Y11.2800
G01 X20.1622 Y11.1978
G01 X20.0800 Y11.1058
G01 X20.0117 Y11.0099
G01 X20.0058 Y11.0004
G01 X19.9489 Y10.8973
G01 X19.9017 Y10.7833
G01 X19.8690 Y10.6702
G01 X19.8665 Y10.6593
G01 X19.8469 Y10.5432
G01 X19.8402 Y10.4256
G01 X19.8402 Y10.4144
G01 X19.8469 Y10.2968
G01 X19.8644 Y10.1932
G01 X17.4314 Y7.7603
G01 X15.5486 Y7.7603
G01 X14.8002 Y8.5086
G01 X14.8002 Y9.5028
G01 X14.7965 Y9.5672
G01 X14.7863 Y9.6281
G01 X14.7838 Y9.6390
G01 X14.7666 Y9.6983
G01 X14.7408 Y9.7604
G01 X14.7082 Y9.8194
G01 X14.6693 Y9.8742
G01 X14.6244 Y9.9244
G01 X14.2756 Y10.2732
G01 X14.2931 Y10.3768
G01 X14.3000 Y10.5000
G01 X14.2931 Y10.6232
G01 X14.2735 Y10.7393
G01 X14.2710 Y10.7502
G01 X14.2383 Y10.8633
G01 X14.1934 Y10.9722
G01 X14.1885 Y10.9823
G01 X14.1342 Y11.0804
G01 X14.1283 Y11.0899
G01 X14.0600 Y11.1858
G01 X13.9817 Y11.2737
G01 X13.9737 Y11.2817
G01 X13.8858 Y11.3600
G01 X13.7899 Y11.4283
G01 X13.7804 Y11.4342
G01 X13.6773 Y11.4911
G01 X13.5685 Y11.5363
G01 X13.5580 Y11.5400
G01 X13.4448 Y11.5724
G01 X13.3287 Y11.5923
G01 X13.3176 Y11.5936
G01 X13.2000 Y11.6000
G01 X13.0824 Y11.5936
G01 X13.0713 Y11.5923
G01 X12.9552 Y11.5724
G01 X12.8367 Y11.5383
G01 X12.7227 Y11.4911
G01 X12.6148 Y11.4314
G01 X12.5186 Y11.3634
G01 X12.5099 Y11.3564
G01 X12.4263 Y11.2817
G01 X12.4183 Y11.2737
G01 X12.3400 Y11.1858
G01 X12.2686 Y11.0852
G01 X12.2089 Y10.9773
G01 X12.1617 Y10.8633
G01 X12.1276 Y10.7448
G01 X12.1077 Y10.6287
G01 X12.1064 Y10.6176
G01 X12.1002 Y10.5056
G01 X12.1002 Y10.4944
G01 X12.1069 Y10.3768
G01 X12.1276 Y10.2552
G01 X12.1617 Y10.1367
G01 X12.2089 Y10.0227
G01 X12.2686 Y9.9148
G01 X12.3366 Y9.8186
G01 X12.3436 Y9.8099
G01 X12.4183 Y9.7263
G01 X12.4263 Y9.7183
G01 X12.5142 Y9.6400
G01 X12.6148 Y9.5686
G01 X12.7227 Y9.5089
G01 X12.8315 Y9.4637
G01 X12.8420 Y9.4600
G01 X12.9498 Y9.4290
G01 X12.9607 Y9.4265
G01 X13.0768 Y9.4069
G01 X13.2000 Y9.4000
G01 X13.3232 Y9.4069
G01 X13.4268 Y9.4244
G00 Z2.5400
G00 X15.1397 Y11.4209
G01 F76.20
G01 Z-0.2000
G01 F76.20
G01 X15.0542 Y11.3600
G01 X14.9622 Y11.2778
G01 X14.8800 Y11.1858
G01 X14.8117 Y11.0899
G01 X14.8058 Y11.0804
G01 X14.7515 Y10.9823
G01 X14.7466 Y10.9722
G01 X14.7017 Y10.8633
G01 X14.6676 Y10.7448
G01 X14.6469 Y10.6232
G01 X14.6402 Y10.5056
G01 X14.6402 Y10.4944
G01 X14.6464 Y10.3824
G01 X14.6477 Y10.3713
G01 X14.6676 Y10.2552
G01 X14.7017 Y10.1367
G01 X14.7489 Y10.0227
G01 X14.8086 Y9.9148
G01 X14.8800 Y9.8142
G01 X14.9583 Y9.7263
G01 X14.9663 Y9.7183
G01 X15.0499 Y9.6436
G01 X15.0586 Y9.6366
G01 X15.1548 Y9.5686
G01 X15.2627 Y9.5089
G01 X15.3767 Y9.4617
G01 X15.4952 Y9.4276
G01 X15.6168 Y9.4069
G01 X15.7344 Y9.4002
G01 X15.7456 Y9.4002
G01 X15.8576 Y9.4064
G01 X15.8687 Y9.4077
G01 X15.9848 Y9.4276
G01 X16.1033 Y9.4617
G01 X16.2173 Y9.5089
G01 X16.3252 Y9.5686
G01 X16.4258 Y9.6400
G01 X16.5137 Y9.7183
G01 X16.5217 Y9.7263
G01 X16.5964 Y9.8099
G01 X16.6034 Y9.8186
G01 X16.6714 Y9.9148
G01 X16.7285 Y10.0177
G01 X16.7334 Y10.0278
G01 X16.7783 Y10.1367
G01 X16.8124 Y10.2552
G01 X16.8331 Y10.3768
G01 X16.8400 Y10.5000
G01 X16.8331 Y10.6232
G01 X16.8124 Y10.7448
G01 X16.7783 Y10.8633
G01 X16.7334 Y10.9722
G01 X16.7285 Y10.9823
G01 X16.6714 Y11.0852
G01 X16.6034 Y11.1814
G01 X16.5964 Y11.1901
G01 X16.5217 Y11.2737
G01 X16.5137 Y11.2817
G01 X16.4258 Y11.3600
G01 X16.3403 Y11.4209
G01 X16.3403 Y20.1014
G01 X17.4686 Y21.2297
G01 X27.6514 Y21.2297
G01 X27.9097 Y20.9714
G01 X27.9097 Y17.1186
G01 X26.7514 Y15.9603
G01 X21.7986 Y15.9603
G01 X19.0003 Y18.7586
G01 X19.0003 Y19.6900
G01 X18.9965 Y19.7572
G01 X18.9863 Y19.8181
G01 X18.9838 Y19.8290
G01 X18.9666 Y19.8883
G01 X18.9408 Y19.9504
G01 X18.9111 Y20.0045
G01 X18.9051 Y20.0140
G01 X18.8693 Y20.0642
G01 X18.8244 Y20.1144
G01 X18.7742 Y20.1593
G01 X18.7240 Y20.1951
G01 X18.7145 Y20.2011
G01 X18.6604 Y20.2308
G01 X18.6035 Y20.2546
G01 X18.5929 Y20.2583
G01 X18.5336 Y20.2752
G01 X18.4728 Y20.2857
G01 X18.4616 Y20.2869
G01 X18.4000 Y20.2903
G01 X18.3384 Y20.2869
G01 X18.3272 Y20.2857
G01 X18.2664 Y20.2752
G01 X18.2017 Y20.2566
G01 X18.1447 Y20.2331
G01 X18.1346 Y20.2282
G01 X18.0806 Y20.1982
G01 X18.0302 Y20.1627
G01 X18.0215 Y20.1557
G01 X17.9756 Y20.1144
G01 X17.9307 Y20.0642
G01 X17.8949 Y20.0140
G01 X17.8889 Y20.0045
G01 X17.8592 Y19.9504
G01 X17.8354 Y19.8935
G01 X17.8317 Y19.8829
G01 X17.8148 Y19.8236
G01 X17.8035 Y19.7572
G01 X17.7997 Y19.6900
G01 X17.7997 Y18.5100
G01 X17.8031 Y18.4484
G01 X17.8043 Y18.4372
G01 X17.8148 Y18.3764
G01 X17.8334 Y18.3117
G01 X17.8592 Y18.2496
G01 X17.8889 Y18.1955
G01 X17.8949 Y18.1860
G01 X17.9307 Y18.1358
G01 X17.9756 Y18.0856
G01 X21.1256 Y14.9356
G01 X21.1715 Y14.8943
G01 X21.1802 Y14.8873
G01 X21.2306 Y14.8518
G01 X21.2846 Y14.8218
G01 X21.2947 Y14.8169
G01 X21.3517 Y14.7934
G01 X21.4164 Y14.7748
G01 X21.4828 Y14.7635
G01 X21.5500 Y14.7597
G01 X27.0028 Y14.7598
G01 X27.0672 Y14.7635
G01 X27.1281 Y14.7737
G01 X27.1390 Y14.7762
G01 X27.1929 Y14.7917
G01 X27.2035 Y14.7954
G01 X27.2604 Y14.8192
G01 X27.3194 Y14.8518
G01 X27.3742 Y14.8907
G01 X27.4224 Y14.9336
G01 X28.9364 Y16.4476
G01 X28.9793 Y16.4957
G01 X29.0182 Y16.5506
G01 X29.0508 Y16.6096
G01 X29.0746 Y16.6665
G01 X29.0783 Y16.6771
G01 X29.0952 Y16.7364
G01 X29.1057 Y16.7972
G01 X29.1069 Y16.8084
G01 X29.1103 Y16.8700
G01 X29.1102 Y21.2228
G01 X29.1065 Y21.2872
G01 X29.0963 Y21.3481
G01 X29.0938 Y21.3590
G01 X29.0766 Y21.4183
G01 X29.0531 Y21.4753
G01 X29.0482 Y21.4854
G01 X29.0182 Y21.5394
G01 X28.9827 Y21.5898
G01 X28.9757 Y21.5985
G01 X28.9344 Y21.6444
G01 X28.3244 Y22.2544
G01 X28.2742 Y22.2993
G01 X28.2240 Y22.3351
G01 X28.2145 Y22.3411
G01 X28.1604 Y22.3708
G01 X28.1035 Y22.3946
G01 X28.0929 Y22.3983
G01 X28.0336 Y22.4152
G01 X27.9728 Y22.4257
G01 X27.9616 Y22.4269
G01 X27.9000 Y22.4303
G01 X17.2200 Y22.4303
G01 X17.1528 Y22.4265
G01 X17.0919 Y22.4163
G01 X17.0810 Y22.4138
G01 X17.0217 Y22.3966
G01 X16.9647 Y22.3731
G01 X16.9546 Y22.3682
G01 X16.9006 Y22.3382
G01 X16.8502 Y22.3027
G01 X16.8415 Y22.2957
G01 X16.7956 Y22.2544
G01 X15.3117 Y20.7704
G01 X15.2707 Y20.7242
G01 X15.2349 Y20.6740
G01 X15.2289 Y20.6645
G01 X15.1992 Y20.6104
G01 X15.1754 Y20.5535
G01 X15.1717 Y20.5429
G01 X15.1548 Y20.4836
G01 X15.1443 Y20.4228
G01 X15.1431 Y20.4116
G01 X15.1397 Y20.3500
G01 X15.1397 Y11.4209
G00 Z2.5400
M05
G00 Z2.5400
G00 Z50.80
G00 X0.0 Y0.0

