(G-CODE GENERATED BY FLATCAM v8.912 - www.flatcam.org - Version Date: 2019/03/17)

(Name: PCBPRUEBACNC-F.Cu.gbr_iso_1_cnc)
(Type: G-code from Geometry)
(Units: MM)

(Created on Friday, 12 April 2019 at 08:19)

(TOOL DIAMETER: 0.41 mm)
(Feedrate: 76.2 mm/min)
(Feedrate_Z: 76.2 mm/min)
(Feedrate rapids 76.2 mm/min)

(Z_Cut: -0.25 mm)
(Z_Move: 2.54 mm)
(Z Toolchange: 25.4 mm)
(X,Y Toolchange: 0.0000, 0.0000 mm)
(Z Start: None mm)
(Z End: 50.8 mm)
(Steps per circle: 64)
(Postprocessor Geometry: default)

(X range:    0.0868 ...   29.2135  mm)
(Y range:    0.3965 ...   22.5335  mm)

(Spindle Speed: None RPM)

G21
G90
G94

G01 F76.20
G00 Z2.5400

M03
G00 X0.5865 Y9.5657
G01 F76.20
G01 Z-0.2500
G01 F76.20
G01 X0.5865 Y2.4200
G01 X0.5910 Y2.3412
G01 X0.6020 Y2.2746
G01 X0.6070 Y2.2524
G01 X0.6260 Y2.1877
G01 X0.6516 Y2.1252
G01 X0.6614 Y2.1047
G01 X0.6944 Y2.0457
G01 X0.7332 Y1.9905
G01 X0.7474 Y1.9727
G01 X0.7886 Y1.9267
G01 X2.1167 Y0.5986
G01 X2.1714 Y0.5500
G01 X2.2357 Y0.5044
G01 X2.3048 Y0.4662
G01 X2.3670 Y0.4401
G01 X2.3885 Y0.4326
G01 X2.4535 Y0.4142
G01 X2.5200 Y0.4026
G01 X2.5426 Y0.4000
G01 X2.6100 Y0.3965
G01 X24.9900 Y0.3965
G01 X25.0574 Y0.4000
G01 X25.0800 Y0.4026
G01 X25.1354 Y0.4120
G01 X25.1576 Y0.4170
G01 X25.2223 Y0.4360
G01 X25.2952 Y0.4662
G01 X25.3544 Y0.4986
G01 X25.3737 Y0.5107
G01 X25.4286 Y0.5500
G01 X25.4833 Y0.5986
G01 X26.5252 Y1.6409
G01 X26.5700 Y1.6914
G01 X26.6156 Y1.7557
G01 X26.6538 Y1.8248
G01 X26.6799 Y1.8870
G01 X26.6874 Y1.9085
G01 X26.7058 Y1.9735
G01 X26.7174 Y2.0400
G01 X26.7200 Y2.0626
G01 X26.7235 Y2.1300
G01 X26.7235 Y9.4457
G01 X26.7702 Y9.4793
G01 X26.8625 Y9.5614
G01 X26.8786 Y9.5775
G01 X26.9607 Y9.6698
G01 X27.0388 Y9.7799
G01 X27.1040 Y9.8980
G01 X27.1557 Y10.0226
G01 X27.1930 Y10.1523
G01 X27.2156 Y10.2853
G01 X27.2229 Y10.4086
G01 X27.2229 Y10.4314
G01 X27.2156 Y10.5547
G01 X27.1953 Y10.6766
G01 X27.1902 Y10.6988
G01 X27.1557 Y10.8174
G01 X27.1087 Y10.9316
G01 X27.0988 Y10.9522
G01 X27.0388 Y11.0601
G01 X26.9676 Y11.1611
G01 X26.9533 Y11.1789
G01 X26.8786 Y11.2625
G01 X26.8625 Y11.2786
G01 X26.7702 Y11.3607
G01 X26.6696 Y11.4324
G01 X26.6503 Y11.4446
G01 X26.5420 Y11.5040
G01 X26.4280 Y11.5516
G01 X26.4065 Y11.5591
G01 X26.2877 Y11.5930
G01 X26.1547 Y11.6156
G01 X26.0200 Y11.6232
G01 X25.8853 Y11.6156
G01 X25.7523 Y11.5930
G01 X25.6226 Y11.5557
G01 X25.4980 Y11.5040
G01 X25.3897 Y11.4446
G01 X25.3704 Y11.4324
G01 X25.2698 Y11.3607
G01 X25.1692 Y11.2708
G01 X25.0793 Y11.1702
G01 X25.0076 Y11.0696
G01 X24.9954 Y11.0503
G01 X24.9360 Y10.9420
G01 X24.8884 Y10.8280
G01 X24.8809 Y10.8065
G01 X24.8498 Y10.6988
G01 X24.8447 Y10.6766
G01 X24.8244 Y10.5547
G01 X24.8171 Y10.4314
G01 X24.8171 Y10.4086
G01 X24.8234 Y10.2966
G01 X24.8260 Y10.2740
G01 X24.8470 Y10.1523
G01 X24.8809 Y10.0335
G01 X24.8884 Y10.0120
G01 X24.9360 Y9.8980
G01 X24.9954 Y9.7897
G01 X25.0076 Y9.7704
G01 X25.0793 Y9.6698
G01 X25.1614 Y9.5775
G01 X25.1775 Y9.5614
G01 X25.2698 Y9.4793
G01 X25.3165 Y9.4457
G01 X25.3165 Y2.4214
G01 X24.6986 Y1.8035
G01 X2.9014 Y1.8035
G01 X1.9935 Y2.7114
G01 X1.9935 Y9.5657
G01 X2.0402 Y9.5993
G01 X2.1325 Y9.6814
G01 X2.1486 Y9.6975
G01 X2.2307 Y9.7898
G01 X2.3088 Y9.8999
G01 X2.3740 Y10.0180
G01 X2.4257 Y10.1426
G01 X2.4630 Y10.2723
G01 X2.4856 Y10.4053
G01 X2.4932 Y10.5400
G01 X2.4856 Y10.6747
G01 X2.4630 Y10.8077
G01 X2.4257 Y10.9374
G01 X2.3740 Y11.0620
G01 X2.3088 Y11.1801
G01 X2.2307 Y11.2902
G01 X2.1408 Y11.3908
G01 X2.0402 Y11.4807
G01 X1.9301 Y11.5588
G01 X1.8120 Y11.6240
G01 X1.6874 Y11.6757
G01 X1.5688 Y11.7102
G01 X1.5466 Y11.7153
G01 X1.4360 Y11.7340
G01 X1.4134 Y11.7366
G01 X1.2900 Y11.7432
G01 X1.1553 Y11.7356
G01 X1.0223 Y11.7130
G01 X0.8926 Y11.6757
G01 X0.7680 Y11.6240
G01 X0.6597 Y11.5646
G01 X0.6404 Y11.5524
G01 X0.5489 Y11.4876
G01 X0.5311 Y11.4733
G01 X0.4392 Y11.3908
G01 X0.3493 Y11.2902
G01 X0.2712 Y11.1801
G01 X0.2060 Y11.0620
G01 X0.1543 Y10.9374
G01 X0.1198 Y10.8188
G01 X0.1147 Y10.7966
G01 X0.0960 Y10.6860
G01 X0.0934 Y10.6634
G01 X0.0868 Y10.5400
G01 X0.0944 Y10.4053
G01 X0.1170 Y10.2723
G01 X0.1543 Y10.1426
G01 X0.2060 Y10.0180
G01 X0.2654 Y9.9097
G01 X0.2776 Y9.8904
G01 X0.3493 Y9.7898
G01 X0.4314 Y9.6975
G01 X0.4475 Y9.6814
G01 X0.5311 Y9.6067
G01 X0.5489 Y9.5924
G01 X0.5865 Y9.5657
G00 Z2.5400
G00 X3.1265 Y9.5657
G01 F76.20
G01 Z-0.2500
G01 F76.20
G01 X3.1265 Y3.9300
G01 X3.1310 Y3.8512
G01 X3.1442 Y3.7735
G01 X3.1626 Y3.7085
G01 X3.1701 Y3.6870
G01 X3.1962 Y3.6248
G01 X3.2286 Y3.5656
G01 X3.2407 Y3.5463
G01 X3.2800 Y3.4914
G01 X3.3326 Y3.4326
G01 X4.2726 Y2.4926
G01 X4.3227 Y2.4474
G01 X4.3405 Y2.4332
G01 X4.3957 Y2.3944
G01 X4.4648 Y2.3562
G01 X4.5377 Y2.3260
G01 X4.6024 Y2.3070
G01 X4.6246 Y2.3020
G01 X4.6912 Y2.2910
G01 X4.7700 Y2.2865
G01 X22.5000 Y2.2865
G01 X22.5674 Y2.2900
G01 X22.5900 Y2.2926
G01 X22.6454 Y2.3020
G01 X22.6676 Y2.3070
G01 X22.7323 Y2.3260
G01 X22.8052 Y2.3562
G01 X22.8644 Y2.3886
G01 X22.8837 Y2.4007
G01 X22.9386 Y2.4400
G01 X22.9933 Y2.4886
G01 X23.9774 Y3.4726
G01 X24.0226 Y3.5227
G01 X24.0368 Y3.5405
G01 X24.0756 Y3.5957
G01 X24.1138 Y3.6648
G01 X24.1440 Y3.7377
G01 X24.1630 Y3.8024
G01 X24.1680 Y3.8246
G01 X24.1790 Y3.8913
G01 X24.1835 Y3.9700
G01 X24.1835 Y9.4457
G01 X24.2302 Y9.4793
G01 X24.3225 Y9.5614
G01 X24.3386 Y9.5775
G01 X24.4207 Y9.6698
G01 X24.4988 Y9.7799
G01 X24.5640 Y9.8980
G01 X24.6157 Y10.0226
G01 X24.6530 Y10.1523
G01 X24.6756 Y10.2853
G01 X24.6829 Y10.4086
G01 X24.6829 Y10.4314
G01 X24.6756 Y10.5547
G01 X24.6553 Y10.6766
G01 X24.6502 Y10.6988
G01 X24.6157 Y10.8174
G01 X24.5687 Y10.9316
G01 X24.5588 Y10.9522
G01 X24.4988 Y11.0601
G01 X24.4207 Y11.1702
G01 X24.3386 Y11.2625
G01 X24.3225 Y11.2786
G01 X24.2302 Y11.3607
G01 X24.1201 Y11.4388
G01 X24.0122 Y11.4988
G01 X23.9916 Y11.5087
G01 X23.8774 Y11.5557
G01 X23.7588 Y11.5902
G01 X23.7366 Y11.5953
G01 X23.6260 Y11.6140
G01 X23.6034 Y11.6166
G01 X23.4800 Y11.6232
G01 X23.3566 Y11.6166
G01 X23.3340 Y11.6140
G01 X23.2123 Y11.5930
G01 X23.0826 Y11.5557
G01 X22.9580 Y11.5040
G01 X22.8399 Y11.4388
G01 X22.7298 Y11.3607
G01 X22.6292 Y11.2708
G01 X22.5393 Y11.1702
G01 X22.4676 Y11.0696
G01 X22.4554 Y11.0503
G01 X22.3960 Y10.9420
G01 X22.3484 Y10.8280
G01 X22.3409 Y10.8065
G01 X22.3098 Y10.6988
G01 X22.3047 Y10.6766
G01 X22.2844 Y10.5547
G01 X22.2771 Y10.4314
G01 X22.2771 Y10.4086
G01 X22.2834 Y10.2966
G01 X22.2860 Y10.2740
G01 X22.3070 Y10.1523
G01 X22.3409 Y10.0335
G01 X22.3484 Y10.0120
G01 X22.3960 Y9.8980
G01 X22.4554 Y9.7897
G01 X22.4676 Y9.7704
G01 X22.5393 Y9.6698
G01 X22.6214 Y9.5775
G01 X22.6375 Y9.5614
G01 X22.7298 Y9.4793
G01 X22.7765 Y9.4457
G01 X22.7765 Y4.2614
G01 X22.2086 Y3.6935
G01 X5.0614 Y3.6935
G01 X4.5335 Y4.2214
G01 X4.5335 Y9.5657
G01 X4.5802 Y9.5993
G01 X4.6725 Y9.6814
G01 X4.6886 Y9.6975
G01 X4.7707 Y9.7898
G01 X4.8488 Y9.8999
G01 X4.9140 Y10.0180
G01 X4.9657 Y10.1426
G01 X5.0030 Y10.2723
G01 X5.0256 Y10.4053
G01 X5.0332 Y10.5400
G01 X5.0256 Y10.6747
G01 X5.0030 Y10.8077
G01 X4.9657 Y10.9374
G01 X4.9140 Y11.0620
G01 X4.8488 Y11.1801
G01 X4.7707 Y11.2902
G01 X4.6808 Y11.3908
G01 X4.5802 Y11.4807
G01 X4.4701 Y11.5588
G01 X4.3520 Y11.6240
G01 X4.2274 Y11.6757
G01 X4.1088 Y11.7102
G01 X4.0866 Y11.7153
G01 X3.9760 Y11.7340
G01 X3.9534 Y11.7366
G01 X3.8300 Y11.7432
G01 X3.6953 Y11.7356
G01 X3.5623 Y11.7130
G01 X3.4326 Y11.6757
G01 X3.3080 Y11.6240
G01 X3.1997 Y11.5646
G01 X3.1804 Y11.5524
G01 X3.0889 Y11.4876
G01 X3.0711 Y11.4733
G01 X2.9792 Y11.3908
G01 X2.8893 Y11.2902
G01 X2.8112 Y11.1801
G01 X2.7460 Y11.0620
G01 X2.6943 Y10.9374
G01 X2.6598 Y10.8188
G01 X2.6547 Y10.7966
G01 X2.6360 Y10.6860
G01 X2.6334 Y10.6634
G01 X2.6268 Y10.5400
G01 X2.6344 Y10.4053
G01 X2.6570 Y10.2723
G01 X2.6943 Y10.1426
G01 X2.7460 Y10.0180
G01 X2.8054 Y9.9097
G01 X2.8176 Y9.8904
G01 X2.8893 Y9.7898
G01 X2.9714 Y9.6975
G01 X2.9875 Y9.6814
G01 X3.0711 Y9.6067
G01 X3.0889 Y9.5924
G01 X3.1265 Y9.5657
G00 Z2.5400
G00 X7.3443 Y11.2435
G01 F76.20
G01 Z-0.2500
G01 F76.20
G01 X7.3176 Y11.2811
G01 X7.3033 Y11.2989
G01 X7.2286 Y11.3825
G01 X7.2125 Y11.3986
G01 X7.1202 Y11.4807
G01 X7.0196 Y11.5524
G01 X7.0003 Y11.5646
G01 X6.8920 Y11.6240
G01 X6.7674 Y11.6757
G01 X6.6377 Y11.7130
G01 X6.5047 Y11.7356
G01 X6.3700 Y11.7432
G01 X6.2466 Y11.7366
G01 X6.2240 Y11.7340
G01 X6.1134 Y11.7153
G01 X6.0912 Y11.7102
G01 X5.9726 Y11.6757
G01 X5.8480 Y11.6240
G01 X5.7299 Y11.5588
G01 X5.6198 Y11.4807
G01 X5.5192 Y11.3908
G01 X5.4367 Y11.2989
G01 X5.4224 Y11.2811
G01 X5.3576 Y11.1896
G01 X5.3454 Y11.1703
G01 X5.2860 Y11.0620
G01 X5.2343 Y10.9374
G01 X5.1970 Y10.8077
G01 X5.1744 Y10.6747
G01 X5.1668 Y10.5400
G01 X5.1734 Y10.4166
G01 X5.1760 Y10.3940
G01 X5.1947 Y10.2834
G01 X5.1998 Y10.2612
G01 X5.2343 Y10.1426
G01 X5.2860 Y10.0180
G01 X5.3512 Y9.8999
G01 X5.4293 Y9.7898
G01 X5.5192 Y9.6892
G01 X5.6198 Y9.5993
G01 X5.7299 Y9.5212
G01 X5.8480 Y9.4560
G01 X5.9726 Y9.4043
G01 X6.1023 Y9.3670
G01 X6.2353 Y9.3444
G01 X6.3700 Y9.3368
G01 X6.5047 Y9.3444
G01 X6.6377 Y9.3670
G01 X6.7674 Y9.4043
G01 X6.8920 Y9.4560
G01 X7.0101 Y9.5212
G01 X7.1202 Y9.5993
G01 X7.2125 Y9.6814
G01 X7.2286 Y9.6975
G01 X7.3107 Y9.7898
G01 X7.3443 Y9.8365
G01 X9.6574 Y9.8365
G01 X9.7193 Y9.7498
G01 X9.8014 Y9.6575
G01 X9.8175 Y9.6414
G01 X9.9011 Y9.5667
G01 X9.9189 Y9.5524
G01 X10.0199 Y9.4812
G01 X10.1380 Y9.4160
G01 X10.2626 Y9.3643
G01 X10.3812 Y9.3298
G01 X10.4034 Y9.3247
G01 X10.5253 Y9.3044
G01 X10.6486 Y9.2971
G01 X10.6714 Y9.2971
G01 X10.7834 Y9.3034
G01 X10.8060 Y9.3060
G01 X10.9166 Y9.3247
G01 X10.9388 Y9.3298
G01 X11.0574 Y9.3643
G01 X11.1716 Y9.4113
G01 X11.1922 Y9.4212
G01 X11.3001 Y9.4812
G01 X11.4011 Y9.5524
G01 X11.4189 Y9.5667
G01 X11.5108 Y9.6492
G01 X11.5933 Y9.7411
G01 X11.6076 Y9.7589
G01 X11.6788 Y9.8599
G01 X11.7388 Y9.9678
G01 X11.7487 Y9.9884
G01 X11.7957 Y10.1026
G01 X11.8330 Y10.2323
G01 X11.8556 Y10.3653
G01 X11.8629 Y10.4886
G01 X11.8629 Y10.5114
G01 X11.8566 Y10.6234
G01 X11.8540 Y10.6460
G01 X11.8330 Y10.7677
G01 X11.7957 Y10.8974
G01 X11.7440 Y11.0220
G01 X11.6788 Y11.1401
G01 X11.6007 Y11.2502
G01 X11.5186 Y11.3425
G01 X11.5025 Y11.3586
G01 X11.4189 Y11.4333
G01 X11.4011 Y11.4476
G01 X11.3001 Y11.5188
G01 X11.1820 Y11.5840
G01 X11.0574 Y11.6357
G01 X10.9277 Y11.6730
G01 X10.8060 Y11.6940
G01 X10.7834 Y11.6966
G01 X10.6600 Y11.7032
G01 X10.5366 Y11.6966
G01 X10.5140 Y11.6940
G01 X10.3923 Y11.6730
G01 X10.2626 Y11.6357
G01 X10.1484 Y11.5887
G01 X10.1278 Y11.5788
G01 X10.0199 Y11.5188
G01 X9.9189 Y11.4476
G01 X9.9011 Y11.4333
G01 X9.8092 Y11.3508
G01 X9.7267 Y11.2589
G01 X9.7142 Y11.2435
G01 X7.3443 Y11.2435
G00 Z2.5400
G00 X13.3915 Y9.3137
G01 F76.20
G01 Z-0.2500
G01 F76.20
G01 X13.4965 Y9.2086
G01 X13.4965 Y8.2600
G01 X13.5000 Y8.1926
G01 X13.5026 Y8.1700
G01 X13.5142 Y8.1035
G01 X13.5360 Y8.0277
G01 X13.5662 Y7.9548
G01 X13.5986 Y7.8956
G01 X13.6107 Y7.8763
G01 X13.6500 Y7.8214
G01 X13.7026 Y7.7626
G01 X14.8026 Y6.6626
G01 X14.8614 Y6.6100
G01 X14.9257 Y6.5644
G01 X14.9948 Y6.5262
G01 X15.0570 Y6.5001
G01 X15.0785 Y6.4926
G01 X15.1435 Y6.4742
G01 X15.2100 Y6.4626
G01 X15.2326 Y6.4600
G01 X15.2943 Y6.4566
G01 X17.6800 Y6.4565
G01 X17.7474 Y6.4600
G01 X17.7700 Y6.4626
G01 X17.8254 Y6.4720
G01 X17.8476 Y6.4770
G01 X17.9123 Y6.4960
G01 X17.9852 Y6.5262
G01 X18.0444 Y6.5586
G01 X18.0637 Y6.5707
G01 X18.1186 Y6.6100
G01 X18.1733 Y6.6586
G01 X20.7485 Y9.2337
G01 X20.7940 Y9.2260
G01 X20.8166 Y9.2234
G01 X20.9286 Y9.2171
G01 X20.9514 Y9.2171
G01 X21.0747 Y9.2244
G01 X21.2077 Y9.2470
G01 X21.3374 Y9.2843
G01 X21.4516 Y9.3313
G01 X21.4722 Y9.3412
G01 X21.5801 Y9.4012
G01 X21.6811 Y9.4724
G01 X21.6989 Y9.4867
G01 X21.7908 Y9.5692
G01 X21.8807 Y9.6698
G01 X21.9524 Y9.7704
G01 X21.9646 Y9.7897
G01 X22.0240 Y9.8980
G01 X22.0757 Y10.0226
G01 X22.1130 Y10.1523
G01 X22.1340 Y10.2740
G01 X22.1366 Y10.2966
G01 X22.1432 Y10.4200
G01 X22.1366 Y10.5434
G01 X22.1340 Y10.5660
G01 X22.1130 Y10.6877
G01 X22.0757 Y10.8174
G01 X22.0287 Y10.9316
G01 X22.0188 Y10.9522
G01 X21.9646 Y11.0503
G01 X21.9524 Y11.0696
G01 X21.8807 Y11.1702
G01 X21.7986 Y11.2625
G01 X21.7825 Y11.2786
G01 X21.6902 Y11.3607
G01 X21.5801 Y11.4388
G01 X21.4620 Y11.5040
G01 X21.3480 Y11.5516
G01 X21.3265 Y11.5591
G01 X21.2188 Y11.5902
G01 X21.1966 Y11.5953
G01 X21.0747 Y11.6156
G01 X20.9514 Y11.6229
G01 X20.9286 Y11.6229
G01 X20.8053 Y11.6156
G01 X20.6723 Y11.5930
G01 X20.5426 Y11.5557
G01 X20.4284 Y11.5087
G01 X20.4078 Y11.4988
G01 X20.2999 Y11.4388
G01 X20.1989 Y11.3676
G01 X20.1811 Y11.3533
G01 X20.0892 Y11.2708
G01 X20.0067 Y11.1789
G01 X19.9924 Y11.1611
G01 X19.9212 Y11.0601
G01 X19.8560 Y10.9420
G01 X19.8043 Y10.8174
G01 X19.7698 Y10.6988
G01 X19.7647 Y10.6766
G01 X19.7444 Y10.5547
G01 X19.7371 Y10.4314
G01 X19.7371 Y10.4086
G01 X19.7434 Y10.2966
G01 X19.7460 Y10.2740
G01 X19.7537 Y10.2285
G01 X17.3886 Y7.8635
G01 X15.5914 Y7.8635
G01 X14.9034 Y8.5514
G01 X14.9034 Y9.5057
G01 X14.8990 Y9.5788
G01 X14.8868 Y9.6518
G01 X14.8975 Y9.6414
G01 X14.9898 Y9.5593
G01 X15.0904 Y9.4876
G01 X15.1097 Y9.4754
G01 X15.2078 Y9.4212
G01 X15.2284 Y9.4113
G01 X15.3426 Y9.3643
G01 X15.4612 Y9.3298
G01 X15.4834 Y9.3247
G01 X15.6053 Y9.3044
G01 X15.7400 Y9.2968
G01 X15.8747 Y9.3044
G01 X15.9966 Y9.3247
G01 X16.0188 Y9.3298
G01 X16.1374 Y9.3643
G01 X16.2516 Y9.4113
G01 X16.2722 Y9.4212
G01 X16.3703 Y9.4754
G01 X16.3896 Y9.4876
G01 X16.4902 Y9.5593
G01 X16.5908 Y9.6492
G01 X16.6807 Y9.7498
G01 X16.7524 Y9.8504
G01 X16.7646 Y9.8697
G01 X16.8240 Y9.9780
G01 X16.8716 Y10.0920
G01 X16.8791 Y10.1135
G01 X16.9130 Y10.2323
G01 X16.9340 Y10.3540
G01 X16.9366 Y10.3766
G01 X16.9432 Y10.5000
G01 X16.9366 Y10.6234
G01 X16.9340 Y10.6460
G01 X16.9130 Y10.7677
G01 X16.8757 Y10.8974
G01 X16.8287 Y11.0116
G01 X16.8188 Y11.0322
G01 X16.7588 Y11.1401
G01 X16.6876 Y11.2411
G01 X16.6733 Y11.2589
G01 X16.5908 Y11.3508
G01 X16.4902 Y11.4407
G01 X16.4435 Y11.4743
G01 X16.4435 Y20.0586
G01 X17.5114 Y21.1265
G01 X27.6086 Y21.1265
G01 X27.8065 Y20.9286
G01 X27.8065 Y17.1614
G01 X26.7086 Y16.0635
G01 X21.8414 Y16.0635
G01 X19.1035 Y18.8014
G01 X19.1035 Y19.6900
G01 X19.1000 Y19.7574
G01 X19.0974 Y19.7800
G01 X19.0858 Y19.8465
G01 X19.0674 Y19.9115
G01 X19.0599 Y19.9330
G01 X19.0338 Y19.9952
G01 X18.9956 Y20.0643
G01 X18.9568 Y20.1195
G01 X18.9426 Y20.1373
G01 X18.9052 Y20.1791
G01 X18.8891 Y20.1952
G01 X18.8473 Y20.2326
G01 X18.8295 Y20.2468
G01 X18.7743 Y20.2856
G01 X18.7153 Y20.3186
G01 X18.6948 Y20.3284
G01 X18.6323 Y20.3540
G01 X18.5565 Y20.3758
G01 X18.4900 Y20.3874
G01 X18.4674 Y20.3900
G01 X18.4000 Y20.3935
G01 X18.3326 Y20.3900
G01 X18.3100 Y20.3874
G01 X18.2435 Y20.3758
G01 X18.1677 Y20.3540
G01 X18.1052 Y20.3284
G01 X18.0847 Y20.3186
G01 X18.0257 Y20.2856
G01 X17.9705 Y20.2468
G01 X17.9527 Y20.2326
G01 X17.9026 Y20.1874
G01 X17.8500 Y20.1286
G01 X17.8107 Y20.0737
G01 X17.7986 Y20.0544
G01 X17.7662 Y19.9952
G01 X17.7401 Y19.9330
G01 X17.7326 Y19.9115
G01 X17.7142 Y19.8465
G01 X17.7010 Y19.7688
G01 X17.6965 Y19.6900
G01 X17.6965 Y18.5100
G01 X17.7000 Y18.4426
G01 X17.7026 Y18.4200
G01 X17.7142 Y18.3535
G01 X17.7360 Y18.2777
G01 X17.7662 Y18.2048
G01 X17.7986 Y18.1456
G01 X17.8107 Y18.1263
G01 X17.8500 Y18.0714
G01 X17.9026 Y18.0126
G01 X21.0526 Y14.8626
G01 X21.1027 Y14.8174
G01 X21.1205 Y14.8032
G01 X21.1757 Y14.7644
G01 X21.2347 Y14.7314
G01 X21.2552 Y14.7216
G01 X21.3177 Y14.6960
G01 X21.3935 Y14.6742
G01 X21.4712 Y14.6610
G01 X21.5500 Y14.6565
G01 X27.0114 Y14.6569
G01 X27.0788 Y14.6610
G01 X27.1565 Y14.6742
G01 X27.2323 Y14.6960
G01 X27.2948 Y14.7216
G01 X27.3153 Y14.7314
G01 X27.3644 Y14.7586
G01 X27.3837 Y14.7707
G01 X27.4386 Y14.8100
G01 X27.4933 Y14.8586
G01 X29.0114 Y16.3767
G01 X29.0600 Y16.4314
G01 X29.1056 Y16.4957
G01 X29.1438 Y16.5648
G01 X29.1699 Y16.6270
G01 X29.1774 Y16.6485
G01 X29.1958 Y16.7135
G01 X29.2074 Y16.7800
G01 X29.2100 Y16.8026
G01 X29.2135 Y16.8700
G01 X29.2134 Y21.2257
G01 X29.2090 Y21.2987
G01 X29.1980 Y21.3654
G01 X29.1930 Y21.3876
G01 X29.1740 Y21.4523
G01 X29.1484 Y21.5148
G01 X29.1386 Y21.5353
G01 X29.1056 Y21.5943
G01 X29.0600 Y21.6586
G01 X29.0074 Y21.7174
G01 X28.3974 Y22.3274
G01 X28.3386 Y22.3800
G01 X28.2837 Y22.4193
G01 X28.2644 Y22.4314
G01 X28.2052 Y22.4638
G01 X28.1430 Y22.4899
G01 X28.1215 Y22.4974
G01 X28.0565 Y22.5158
G01 X27.9900 Y22.5274
G01 X27.9674 Y22.5300
G01 X27.9000 Y22.5335
G01 X17.2200 Y22.5335
G01 X17.1412 Y22.5290
G01 X17.0746 Y22.5180
G01 X17.0524 Y22.5130
G01 X16.9877 Y22.4940
G01 X16.9252 Y22.4684
G01 X16.9047 Y22.4586
G01 X16.8457 Y22.4256
G01 X16.7814 Y22.3800
G01 X16.7226 Y22.3274
G01 X15.2348 Y20.8391
G01 X15.1974 Y20.7973
G01 X15.1832 Y20.7795
G01 X15.1444 Y20.7243
G01 X15.1114 Y20.6653
G01 X15.1016 Y20.6448
G01 X15.0760 Y20.5823
G01 X15.0570 Y20.5176
G01 X15.0520 Y20.4954
G01 X15.0410 Y20.4288
G01 X15.0365 Y20.3500
G01 X15.0365 Y11.4743
G01 X14.9898 Y11.4407
G01 X14.8892 Y11.3508
G01 X14.8067 Y11.2589
G01 X14.7924 Y11.2411
G01 X14.7212 Y11.1401
G01 X14.6612 Y11.0322
G01 X14.6513 Y11.0116
G01 X14.6084 Y10.9080
G01 X14.6009 Y10.8865
G01 X14.5670 Y10.7677
G01 X14.5460 Y10.6460
G01 X14.5434 Y10.6234
G01 X14.5368 Y10.5000
G01 X14.5444 Y10.3653
G01 X14.5647 Y10.2434
G01 X14.5698 Y10.2212
G01 X14.6009 Y10.1135
G01 X14.6043 Y10.1026
G01 X14.6123 Y10.0825
G01 X14.3863 Y10.3085
G01 X14.3940 Y10.3540
G01 X14.3966 Y10.3766
G01 X14.4029 Y10.4886
G01 X14.4029 Y10.5114
G01 X14.3956 Y10.6347
G01 X14.3730 Y10.7677
G01 X14.3357 Y10.8974
G01 X14.2840 Y11.0220
G01 X14.2188 Y11.1401
G01 X14.1476 Y11.2411
G01 X14.1333 Y11.2589
G01 X14.0586 Y11.3425
G01 X14.0425 Y11.3586
G01 X13.9502 Y11.4407
G01 X13.8401 Y11.5188
G01 X13.7322 Y11.5788
G01 X13.7116 Y11.5887
G01 X13.5974 Y11.6357
G01 X13.4788 Y11.6702
G01 X13.4566 Y11.6753
G01 X13.3460 Y11.6940
G01 X13.3234 Y11.6966
G01 X13.2000 Y11.7032
G01 X13.0766 Y11.6966
G01 X13.0540 Y11.6940
G01 X12.9323 Y11.6730
G01 X12.8026 Y11.6357
G01 X12.6780 Y11.5840
G01 X12.5599 Y11.5188
G01 X12.4498 Y11.4407
G01 X12.3575 Y11.3586
G01 X12.3414 Y11.3425
G01 X12.2667 Y11.2589
G01 X12.2524 Y11.2411
G01 X12.1812 Y11.1401
G01 X12.1160 Y11.0220
G01 X12.0643 Y10.8974
G01 X12.0298 Y10.7788
G01 X12.0247 Y10.7566
G01 X12.0044 Y10.6347
G01 X11.9968 Y10.5000
G01 X12.0044 Y10.3653
G01 X12.0247 Y10.2434
G01 X12.0298 Y10.2212
G01 X12.0643 Y10.1026
G01 X12.1113 Y9.9884
G01 X12.1212 Y9.9678
G01 X12.1754 Y9.8697
G01 X12.1876 Y9.8504
G01 X12.2593 Y9.7498
G01 X12.3414 Y9.6575
G01 X12.3575 Y9.6414
G01 X12.4498 Y9.5593
G01 X12.5599 Y9.4812
G01 X12.6780 Y9.4160
G01 X12.8026 Y9.3643
G01 X12.9323 Y9.3270
G01 X13.0653 Y9.3044
G01 X13.1886 Y9.2971
G01 X13.2114 Y9.2971
G01 X13.3347 Y9.3044
G01 X13.3915 Y9.3137
G00 Z2.5400
M05
G00 Z2.5400
G00 Z50.80
G00 X0.0 Y0.0

