(G-CODE GENERATED BY FLATCAM v8.912 - www.flatcam.org - Version Date: 2019/03/17)

(Name: P3_cnc)
(Type: G-code from Excellon)
(Units: MM)

(Created on Tuesday, 16 April 2019 at 16:17)

(Feedrate: 76.2 mm/min)
(Feedrate rapids 76.2 mm/min)

(Z_Cut: -2.0 mm)
(Z_Move: 2.54 mm)
(Z Toolchange: 25.4 mm)
(X,Y Toolchange: 0.0000, 0.0000 mm)
(Z Start: None mm)
(Z End: 50.8 mm)
(Steps per circle: 64)
(Postprocessor Excellon: default)

(X range:    0.6900 ...   26.6200  mm)
(Y range:   11.8600 ...   13.1800  mm)

(Spindle Speed: None RPM)

G21
G90
G94

G01 F76.20
G00 Z2.5400

M03
G00 X10.6600 Y12.5000
G01 Z-2.0000
G01 Z0
G00 Z2.5400
G00 X13.2000 Y12.5000
G01 Z-2.0000
G01 Z0
G00 Z2.5400
G00 X15.7400 Y12.5000
G01 Z-2.0000
G01 Z0
G00 Z2.5400
G00 X20.9400 Y12.5800
G01 Z-2.0000
G01 Z0
G00 Z2.5400
G00 X23.4800 Y12.5800
G01 Z-2.0000
G01 Z0
G00 Z2.5400
G00 X26.0200 Y12.5800
G01 Z-2.0000
G01 Z0
G00 Z2.5400
G00 X6.3700 Y12.4600
G01 Z-2.0000
G01 Z0
G00 Z2.5400
G00 X3.8300 Y12.4600
G01 Z-2.0000
G01 Z0
G00 Z2.5400
G00 X1.2900 Y12.4600
G01 Z-2.0000
G01 Z0
G00 Z2.5400
M05
G00 Z50.80
G00 X0.0 Y0.0

