(G-CODE GENERATED BY FLATCAM v8.912 - www.flatcam.org - Version Date: 2019/03/17)
(Name: PCBPRUEBACNC-F.Cu.gbr_iso_cnc)
(Type: G-code from Geometry)
(Units: MM)
(Created on Tuesday, 16 April 2019 at 16:13)
(TOOL DIAMETER: 0.41 mm)
(Feedrate: 76.2 mm/min)
(Feedrate_Z: 76.2 mm/min)
(Feedrate rapids 76.2 mm/min)
(Z_Cut: -0.2 mm)
(Z_Move: 2.54 mm)
(Z Toolchange: 25.4 mm)
(X,Y Toolchange: 0.0000, 0.0000 mm)
(Z Start: None mm)
(Z End: 50.8 mm)
(Steps per circle: 64)
(Postprocessor Geometry: default)
(X range:    0.0868 ...   29.2135  mm)
(Y range:    0.4665 ...   22.6035  mm)
(Spindle Speed: None RPM)
G21
G90
G94
G01 F76.20
G00 Z2.5400
M03
G00 X0.5865 Y13.4343
G01 F76.20
G01 Z-0.2000
G01 F76.20
G01 X0.5489 Y13.4076
G01 X0.5311 Y13.3933
G01 X0.4475 Y13.3186
G01 X0.4314 Y13.3025
G01 X0.3493 Y13.2102
G01 X0.2776 Y13.1096
G01 X0.2654 Y13.0903
G01 X0.2060 Y12.9820
G01 X0.1543 Y12.8574
G01 X0.1170 Y12.7277
G01 X0.0944 Y12.5947
G01 X0.0868 Y12.4600
G01 X0.0934 Y12.3366
G01 X0.0960 Y12.3140
G01 X0.1147 Y12.2034
G01 X0.1198 Y12.1812
G01 X0.1543 Y12.0626
G01 X0.2060 Y11.9380
G01 X0.2712 Y11.8199
G01 X0.3493 Y11.7098
G01 X0.4392 Y11.6092
G01 X0.5311 Y11.5267
G01 X0.5489 Y11.5124
G01 X0.6404 Y11.4476
G01 X0.6597 Y11.4354
G01 X0.7680 Y11.3760
G01 X0.8926 Y11.3243
G01 X1.0223 Y11.2870
G01 X1.1553 Y11.2644
G01 X1.2900 Y11.2568
G01 X1.4134 Y11.2634
G01 X1.4360 Y11.2660
G01 X1.5466 Y11.2847
G01 X1.5688 Y11.2898
G01 X1.6874 Y11.3243
G01 X1.8120 Y11.3760
G01 X1.9301 Y11.4412
G01 X2.0402 Y11.5193
G01 X2.1408 Y11.6092
G01 X2.2307 Y11.7098
G01 X2.3088 Y11.8199
G01 X2.3740 Y11.9380
G01 X2.4257 Y12.0626
G01 X2.4630 Y12.1923
G01 X2.4856 Y12.3253
G01 X2.4932 Y12.4600
G01 X2.4856 Y12.5947
G01 X2.4630 Y12.7277
G01 X2.4257 Y12.8574
G01 X2.3740 Y12.9820
G01 X2.3088 Y13.1001
G01 X2.2307 Y13.2102
G01 X2.1486 Y13.3025
G01 X2.1325 Y13.3186
G01 X2.0402 Y13.4007
G01 X1.9935 Y13.4343
G01 X1.9935 Y20.2886
G01 X2.9014 Y21.1965
G01 X24.6986 Y21.1965
G01 X25.3165 Y20.5786
G01 X25.3165 Y13.5543
G01 X25.2698 Y13.5207
G01 X25.1775 Y13.4386
G01 X25.1614 Y13.4225
G01 X25.0793 Y13.3302
G01 X25.0076 Y13.2296
G01 X24.9954 Y13.2103
G01 X24.9360 Y13.1020
G01 X24.8884 Y12.9880
G01 X24.8809 Y12.9665
G01 X24.8470 Y12.8477
G01 X24.8260 Y12.7260
G01 X24.8234 Y12.7034
G01 X24.8171 Y12.5914
G01 X24.8171 Y12.5686
G01 X24.8244 Y12.4453
G01 X24.8447 Y12.3234
G01 X24.8498 Y12.3012
G01 X24.8809 Y12.1935
G01 X24.8884 Y12.1720
G01 X24.9360 Y12.0580
G01 X24.9954 Y11.9497
G01 X25.0076 Y11.9304
G01 X25.0793 Y11.8298
G01 X25.1692 Y11.7292
G01 X25.2698 Y11.6393
G01 X25.3704 Y11.5676
G01 X25.3897 Y11.5554
G01 X25.4980 Y11.4960
G01 X25.6226 Y11.4443
G01 X25.7523 Y11.4070
G01 X25.8853 Y11.3844
G01 X26.0200 Y11.3768
G01 X26.1547 Y11.3844
G01 X26.2877 Y11.4070
G01 X26.4065 Y11.4409
G01 X26.4280 Y11.4484
G01 X26.5420 Y11.4960
G01 X26.6503 Y11.5554
G01 X26.6696 Y11.5676
G01 X26.7702 Y11.6393
G01 X26.8625 Y11.7214
G01 X26.8786 Y11.7375
G01 X26.9533 Y11.8211
G01 X26.9676 Y11.8389
G01 X27.0388 Y11.9399
G01 X27.0988 Y12.0478
G01 X27.1087 Y12.0684
G01 X27.1557 Y12.1826
G01 X27.1902 Y12.3012
G01 X27.1953 Y12.3234
G01 X27.2156 Y12.4453
G01 X27.2229 Y12.5686
G01 X27.2229 Y12.5914
G01 X27.2156 Y12.7147
G01 X27.1930 Y12.8477
G01 X27.1557 Y12.9774
G01 X27.1040 Y13.1020
G01 X27.0388 Y13.2201
G01 X26.9607 Y13.3302
G01 X26.8786 Y13.4225
G01 X26.8625 Y13.4386
G01 X26.7702 Y13.5207
G01 X26.7235 Y13.5543
G01 X26.7235 Y20.8700
G01 X26.7200 Y20.9374
G01 X26.7174 Y20.9600
G01 X26.7058 Y21.0265
G01 X26.6874 Y21.0915
G01 X26.6799 Y21.1130
G01 X26.6538 Y21.1752
G01 X26.6156 Y21.2443
G01 X26.5700 Y21.3086
G01 X26.5252 Y21.3591
G01 X25.4833 Y22.4014
G01 X25.4286 Y22.4500
G01 X25.3737 Y22.4893
G01 X25.3544 Y22.5014
G01 X25.2952 Y22.5338
G01 X25.2223 Y22.5640
G01 X25.1576 Y22.5830
G01 X25.1354 Y22.5880
G01 X25.0800 Y22.5974
G01 X25.0574 Y22.6000
G01 X24.9900 Y22.6035
G01 X2.6100 Y22.6035
G01 X2.5426 Y22.6000
G01 X2.5200 Y22.5974
G01 X2.4535 Y22.5858
G01 X2.3885 Y22.5674
G01 X2.3670 Y22.5599
G01 X2.3048 Y22.5338
G01 X2.2357 Y22.4956
G01 X2.1714 Y22.4500
G01 X2.1167 Y22.4014
G01 X0.7886 Y21.0733
G01 X0.7474 Y21.0273
G01 X0.7332 Y21.0095
G01 X0.6944 Y20.9543
G01 X0.6614 Y20.8953
G01 X0.6516 Y20.8748
G01 X0.6260 Y20.8123
G01 X0.6070 Y20.7476
G01 X0.6020 Y20.7254
G01 X0.5910 Y20.6588
G01 X0.5865 Y20.5800
G01 X0.5865 Y13.4343
G00 Z2.5400
G00 X3.1265 Y13.4343
G01 F76.20
G01 Z-0.2000
G01 F76.20
G01 X3.0889 Y13.4076
G01 X3.0711 Y13.3933
G01 X2.9875 Y13.3186
G01 X2.9714 Y13.3025
G01 X2.8893 Y13.2102
G01 X2.8176 Y13.1096
G01 X2.8054 Y13.0903
G01 X2.7460 Y12.9820
G01 X2.6943 Y12.8574
G01 X2.6570 Y12.7277
G01 X2.6344 Y12.5947
G01 X2.6268 Y12.4600
G01 X2.6334 Y12.3366
G01 X2.6360 Y12.3140
G01 X2.6547 Y12.2034
G01 X2.6598 Y12.1812
G01 X2.6943 Y12.0626
G01 X2.7460 Y11.9380
G01 X2.8112 Y11.8199
G01 X2.8893 Y11.7098
G01 X2.9792 Y11.6092
G01 X3.0711 Y11.5267
G01 X3.0889 Y11.5124
G01 X3.1804 Y11.4476
G01 X3.1997 Y11.4354
G01 X3.3080 Y11.3760
G01 X3.4326 Y11.3243
G01 X3.5623 Y11.2870
G01 X3.6953 Y11.2644
G01 X3.8300 Y11.2568
G01 X3.9534 Y11.2634
G01 X3.9760 Y11.2660
G01 X4.0866 Y11.2847
G01 X4.1088 Y11.2898
G01 X4.2274 Y11.3243
G01 X4.3520 Y11.3760
G01 X4.4701 Y11.4412
G01 X4.5802 Y11.5193
G01 X4.6808 Y11.6092
G01 X4.7707 Y11.7098
G01 X4.8488 Y11.8199
G01 X4.9140 Y11.9380
G01 X4.9657 Y12.0626
G01 X5.0030 Y12.1923
G01 X5.0256 Y12.3253
G01 X5.0332 Y12.4600
G01 X5.0256 Y12.5947
G01 X5.0030 Y12.7277
G01 X4.9657 Y12.8574
G01 X4.9140 Y12.9820
G01 X4.8488 Y13.1001
G01 X4.7707 Y13.2102
G01 X4.6886 Y13.3025
G01 X4.6725 Y13.3186
G01 X4.5802 Y13.4007
G01 X4.5335 Y13.4343
G01 X4.5335 Y18.7786
G01 X5.0614 Y19.3065
G01 X22.2086 Y19.3065
G01 X22.7765 Y18.7386
G01 X22.7765 Y13.5543
G01 X22.7298 Y13.5207
G01 X22.6375 Y13.4386
G01 X22.6214 Y13.4225
G01 X22.5393 Y13.3302
G01 X22.4676 Y13.2296
G01 X22.4554 Y13.2103
G01 X22.3960 Y13.1020
G01 X22.3484 Y12.9880
G01 X22.3409 Y12.9665
G01 X22.3070 Y12.8477
G01 X22.2860 Y12.7260
G01 X22.2834 Y12.7034
G01 X22.2771 Y12.5914
G01 X22.2771 Y12.5686
G01 X22.2844 Y12.4453
G01 X22.3047 Y12.3234
G01 X22.3098 Y12.3012
G01 X22.3409 Y12.1935
G01 X22.3484 Y12.1720
G01 X22.3960 Y12.0580
G01 X22.4554 Y11.9497
G01 X22.4676 Y11.9304
G01 X22.5393 Y11.8298
G01 X22.6292 Y11.7292
G01 X22.7298 Y11.6393
G01 X22.8399 Y11.5612
G01 X22.9580 Y11.4960
G01 X23.0826 Y11.4443
G01 X23.2123 Y11.4070
G01 X23.3340 Y11.3860
G01 X23.3566 Y11.3834
G01 X23.4800 Y11.3768
G01 X23.6034 Y11.3834
G01 X23.6260 Y11.3860
G01 X23.7366 Y11.4047
G01 X23.7588 Y11.4098
G01 X23.8774 Y11.4443
G01 X23.9916 Y11.4913
G01 X24.0122 Y11.5012
G01 X24.1201 Y11.5612
G01 X24.2302 Y11.6393
G01 X24.3225 Y11.7214
G01 X24.3386 Y11.7375
G01 X24.4207 Y11.8298
G01 X24.4988 Y11.9399
G01 X24.5588 Y12.0478
G01 X24.5687 Y12.0684
G01 X24.6157 Y12.1826
G01 X24.6502 Y12.3012
G01 X24.6553 Y12.3234
G01 X24.6756 Y12.4453
G01 X24.6829 Y12.5686
G01 X24.6829 Y12.5914
G01 X24.6756 Y12.7147
G01 X24.6530 Y12.8477
G01 X24.6157 Y12.9774
G01 X24.5640 Y13.1020
G01 X24.4988 Y13.2201
G01 X24.4207 Y13.3302
G01 X24.3386 Y13.4225
G01 X24.3225 Y13.4386
G01 X24.2302 Y13.5207
G01 X24.1835 Y13.5543
G01 X24.1835 Y19.0300
G01 X24.1790 Y19.1087
G01 X24.1680 Y19.1754
G01 X24.1630 Y19.1976
G01 X24.1440 Y19.2623
G01 X24.1138 Y19.3352
G01 X24.0756 Y19.4043
G01 X24.0368 Y19.4595
G01 X24.0226 Y19.4773
G01 X23.9774 Y19.5274
G01 X22.9933 Y20.5114
G01 X22.9386 Y20.5600
G01 X22.8837 Y20.5993
G01 X22.8644 Y20.6114
G01 X22.8052 Y20.6438
G01 X22.7323 Y20.6740
G01 X22.6676 Y20.6930
G01 X22.6454 Y20.6980
G01 X22.5900 Y20.7074
G01 X22.5674 Y20.7100
G01 X22.5000 Y20.7135
G01 X4.7700 Y20.7135
G01 X4.6912 Y20.7090
G01 X4.6246 Y20.6980
G01 X4.6024 Y20.6930
G01 X4.5377 Y20.6740
G01 X4.4648 Y20.6438
G01 X4.3957 Y20.6056
G01 X4.3405 Y20.5668
G01 X4.3227 Y20.5526
G01 X4.2726 Y20.5074
G01 X3.3326 Y19.5674
G01 X3.2800 Y19.5086
G01 X3.2407 Y19.4537
G01 X3.2286 Y19.4344
G01 X3.1962 Y19.3752
G01 X3.1701 Y19.3130
G01 X3.1626 Y19.2915
G01 X3.1442 Y19.2265
G01 X3.1310 Y19.1488
G01 X3.1265 Y19.0700
G01 X3.1265 Y13.4343
G00 Z2.5400
G00 X7.3443 Y11.7565
G01 F76.20
G01 Z-0.2000
G01 F76.20
G01 X9.7142 Y11.7565
G01 X9.7267 Y11.7411
G01 X9.8092 Y11.6492
G01 X9.9011 Y11.5667
G01 X9.9189 Y11.5524
G01 X10.0199 Y11.4812
G01 X10.1278 Y11.4212
G01 X10.1484 Y11.4113
G01 X10.2626 Y11.3643
G01 X10.3923 Y11.3270
G01 X10.5140 Y11.3060
G01 X10.5366 Y11.3034
G01 X10.6600 Y11.2968
G01 X10.7834 Y11.3034
G01 X10.8060 Y11.3060
G01 X10.9277 Y11.3270
G01 X11.0574 Y11.3643
G01 X11.1820 Y11.4160
G01 X11.3001 Y11.4812
G01 X11.4011 Y11.5524
G01 X11.4189 Y11.5667
G01 X11.5025 Y11.6414
G01 X11.5186 Y11.6575
G01 X11.6007 Y11.7498
G01 X11.6788 Y11.8599
G01 X11.7440 Y11.9780
G01 X11.7957 Y12.1026
G01 X11.8330 Y12.2323
G01 X11.8540 Y12.3540
G01 X11.8566 Y12.3766
G01 X11.8629 Y12.4886
G01 X11.8629 Y12.5114
G01 X11.8556 Y12.6347
G01 X11.8330 Y12.7677
G01 X11.7957 Y12.8974
G01 X11.7487 Y13.0116
G01 X11.7388 Y13.0322
G01 X11.6788 Y13.1401
G01 X11.6076 Y13.2411
G01 X11.5933 Y13.2589
G01 X11.5108 Y13.3508
G01 X11.4189 Y13.4333
G01 X11.4011 Y13.4476
G01 X11.3001 Y13.5188
G01 X11.1922 Y13.5788
G01 X11.1716 Y13.5887
G01 X11.0574 Y13.6357
G01 X10.9388 Y13.6702
G01 X10.9166 Y13.6753
G01 X10.8060 Y13.6940
G01 X10.7834 Y13.6966
G01 X10.6714 Y13.7029
G01 X10.6486 Y13.7029
G01 X10.5253 Y13.6956
G01 X10.4034 Y13.6753
G01 X10.3812 Y13.6702
G01 X10.2626 Y13.6357
G01 X10.1380 Y13.5840
G01 X10.0199 Y13.5188
G01 X9.9189 Y13.4476
G01 X9.9011 Y13.4333
G01 X9.8175 Y13.3586
G01 X9.8014 Y13.3425
G01 X9.7193 Y13.2502
G01 X9.6574 Y13.1635
G01 X7.3443 Y13.1635
G01 X7.3107 Y13.2102
G01 X7.2286 Y13.3025
G01 X7.2125 Y13.3186
G01 X7.1202 Y13.4007
G01 X7.0101 Y13.4788
G01 X6.8920 Y13.5440
G01 X6.7674 Y13.5957
G01 X6.6377 Y13.6330
G01 X6.5047 Y13.6556
G01 X6.3700 Y13.6632
G01 X6.2353 Y13.6556
G01 X6.1023 Y13.6330
G01 X5.9726 Y13.5957
G01 X5.8480 Y13.5440
G01 X5.7299 Y13.4788
G01 X5.6198 Y13.4007
G01 X5.5192 Y13.3108
G01 X5.4293 Y13.2102
G01 X5.3512 Y13.1001
G01 X5.2860 Y12.9820
G01 X5.2343 Y12.8574
G01 X5.1998 Y12.7388
G01 X5.1947 Y12.7166
G01 X5.1760 Y12.6060
G01 X5.1734 Y12.5834
G01 X5.1668 Y12.4600
G01 X5.1744 Y12.3253
G01 X5.1970 Y12.1923
G01 X5.2343 Y12.0626
G01 X5.2860 Y11.9380
G01 X5.3454 Y11.8297
G01 X5.3576 Y11.8104
G01 X5.4224 Y11.7189
G01 X5.4367 Y11.7011
G01 X5.5192 Y11.6092
G01 X5.6198 Y11.5193
G01 X5.7299 Y11.4412
G01 X5.8480 Y11.3760
G01 X5.9726 Y11.3243
G01 X6.0912 Y11.2898
G01 X6.1134 Y11.2847
G01 X6.2240 Y11.2660
G01 X6.2466 Y11.2634
G01 X6.3700 Y11.2568
G01 X6.5047 Y11.2644
G01 X6.6377 Y11.2870
G01 X6.7674 Y11.3243
G01 X6.8920 Y11.3760
G01 X7.0003 Y11.4354
G01 X7.0196 Y11.4476
G01 X7.1202 Y11.5193
G01 X7.2125 Y11.6014
G01 X7.2286 Y11.6175
G01 X7.3033 Y11.7011
G01 X7.3176 Y11.7189
G01 X7.3443 Y11.7565
G00 Z2.5400
G00 X12.4965 Y13.4743
G01 F76.20
G01 Z-0.2000
G01 F76.20
G01 X12.4589 Y13.4476
G01 X12.4411 Y13.4333
G01 X12.3575 Y13.3586
G01 X12.3414 Y13.3425
G01 X12.2593 Y13.2502
G01 X12.1812 Y13.1401
G01 X12.1212 Y13.0322
G01 X12.1113 Y13.0116
G01 X12.0643 Y12.8974
G01 X12.0270 Y12.7677
G01 X12.0060 Y12.6460
G01 X12.0034 Y12.6234
G01 X11.9968 Y12.5000
G01 X12.0044 Y12.3653
G01 X12.0270 Y12.2323
G01 X12.0609 Y12.1135
G01 X12.0684 Y12.0920
G01 X12.1113 Y11.9884
G01 X12.1212 Y11.9678
G01 X12.1812 Y11.8599
G01 X12.2593 Y11.7498
G01 X12.3492 Y11.6492
G01 X12.4411 Y11.5667
G01 X12.4589 Y11.5524
G01 X12.5504 Y11.4876
G01 X12.5697 Y11.4754
G01 X12.6780 Y11.4160
G01 X12.7920 Y11.3684
G01 X12.8135 Y11.3609
G01 X12.9212 Y11.3298
G01 X12.9434 Y11.3247
G01 X13.0653 Y11.3044
G01 X13.2000 Y11.2968
G01 X13.3347 Y11.3044
G01 X13.4566 Y11.3247
G01 X13.4788 Y11.3298
G01 X13.5974 Y11.3643
G01 X13.7116 Y11.4113
G01 X13.7322 Y11.4212
G01 X13.8401 Y11.4812
G01 X13.9411 Y11.5524
G01 X13.9589 Y11.5667
G01 X14.0508 Y11.6492
G01 X14.1407 Y11.7498
G01 X14.2124 Y11.8504
G01 X14.2246 Y11.8697
G01 X14.2840 Y11.9780
G01 X14.3316 Y12.0920
G01 X14.3391 Y12.1135
G01 X14.3730 Y12.2323
G01 X14.3956 Y12.3653
G01 X14.4032 Y12.5000
G01 X14.3956 Y12.6347
G01 X14.3730 Y12.7677
G01 X14.3391 Y12.8865
G01 X14.3316 Y12.9080
G01 X14.2840 Y13.0220
G01 X14.2246 Y13.1303
G01 X14.2124 Y13.1496
G01 X14.1407 Y13.2502
G01 X14.0586 Y13.3425
G01 X14.0425 Y13.3586
G01 X13.9502 Y13.4407
G01 X13.9035 Y13.4743
G01 X13.9035 Y13.6228
G01 X15.4172 Y15.1365
G01 X17.3886 Y15.1365
G01 X19.7537 Y12.7715
G01 X19.7444 Y12.7147
G01 X19.7368 Y12.5800
G01 X19.7434 Y12.4566
G01 X19.7460 Y12.4340
G01 X19.7670 Y12.3123
G01 X19.8009 Y12.1935
G01 X19.8084 Y12.1720
G01 X19.8560 Y12.0580
G01 X19.9154 Y11.9497
G01 X19.9276 Y11.9304
G01 X19.9993 Y11.8298
G01 X20.0814 Y11.7375
G01 X20.0975 Y11.7214
G01 X20.1898 Y11.6393
G01 X20.2904 Y11.5676
G01 X20.3097 Y11.5554
G01 X20.4180 Y11.4960
G01 X20.5320 Y11.4484
G01 X20.5535 Y11.4409
G01 X20.6723 Y11.4070
G01 X20.7940 Y11.3860
G01 X20.8166 Y11.3834
G01 X20.9286 Y11.3771
G01 X20.9514 Y11.3771
G01 X21.0747 Y11.3844
G01 X21.2077 Y11.4070
G01 X21.3374 Y11.4443
G01 X21.4620 Y11.4960
G01 X21.5801 Y11.5612
G01 X21.6811 Y11.6324
G01 X21.6989 Y11.6467
G01 X21.7825 Y11.7214
G01 X21.7986 Y11.7375
G01 X21.8807 Y11.8298
G01 X21.9524 Y11.9304
G01 X21.9646 Y11.9497
G01 X22.0240 Y12.0580
G01 X22.0757 Y12.1826
G01 X22.1130 Y12.3123
G01 X22.1356 Y12.4453
G01 X22.1432 Y12.5800
G01 X22.1356 Y12.7147
G01 X22.1130 Y12.8477
G01 X22.0757 Y12.9774
G01 X22.0240 Y13.1020
G01 X21.9588 Y13.2201
G01 X21.8807 Y13.3302
G01 X21.7986 Y13.4225
G01 X21.7825 Y13.4386
G01 X21.6902 Y13.5207
G01 X21.5801 Y13.5988
G01 X21.4620 Y13.6640
G01 X21.3480 Y13.7116
G01 X21.3265 Y13.7191
G01 X21.2077 Y13.7530
G01 X21.0860 Y13.7740
G01 X21.0634 Y13.7766
G01 X20.9514 Y13.7829
G01 X20.9286 Y13.7829
G01 X20.8053 Y13.7756
G01 X20.7485 Y13.7663
G01 X18.1733 Y16.3414
G01 X18.1186 Y16.3900
G01 X18.0637 Y16.4293
G01 X18.0444 Y16.4414
G01 X17.9852 Y16.4738
G01 X17.9230 Y16.4999
G01 X17.9015 Y16.5074
G01 X17.8365 Y16.5258
G01 X17.7588 Y16.5390
G01 X17.6800 Y16.5435
G01 X15.1201 Y16.5434
G01 X15.0470 Y16.5390
G01 X14.9804 Y16.5280
G01 X14.9582 Y16.5230
G01 X14.9043 Y16.5074
G01 X14.8828 Y16.4999
G01 X14.8206 Y16.4738
G01 X14.7613 Y16.4414
G01 X14.7421 Y16.4293
G01 X14.6872 Y16.3900
G01 X14.6284 Y16.3374
G01 X12.7026 Y14.4116
G01 X12.6500 Y14.3528
G01 X12.6044 Y14.2885
G01 X12.5662 Y14.2194
G01 X12.5360 Y14.1466
G01 X12.5170 Y14.0818
G01 X12.5120 Y14.0596
G01 X12.5010 Y13.9930
G01 X12.4966 Y13.9199
G01 X12.4965 Y13.4743
G00 Z2.5400
G00 X15.0365 Y11.5257
G01 F76.20
G01 Z-0.2000
G01 F76.20
G01 X15.0365 Y2.6500
G01 X15.0400 Y2.5826
G01 X15.0426 Y2.5600
G01 X15.0542 Y2.4935
G01 X15.0726 Y2.4285
G01 X15.0801 Y2.4070
G01 X15.1062 Y2.3448
G01 X15.1386 Y2.2856
G01 X15.1507 Y2.2663
G01 X15.1900 Y2.2114
G01 X15.2348 Y2.1609
G01 X16.7226 Y0.6726
G01 X16.7727 Y0.6274
G01 X16.7905 Y0.6132
G01 X16.8457 Y0.5744
G01 X16.9047 Y0.5414
G01 X16.9252 Y0.5316
G01 X16.9877 Y0.5060
G01 X17.0524 Y0.4870
G01 X17.0746 Y0.4820
G01 X17.1412 Y0.4710
G01 X17.2200 Y0.4665
G01 X27.9000 Y0.4665
G01 X27.9674 Y0.4700
G01 X27.9900 Y0.4726
G01 X28.0565 Y0.4842
G01 X28.1215 Y0.5026
G01 X28.1430 Y0.5101
G01 X28.2052 Y0.5362
G01 X28.2644 Y0.5686
G01 X28.2837 Y0.5807
G01 X28.3386 Y0.6200
G01 X28.3974 Y0.6726
G01 X29.0074 Y1.2826
G01 X29.0526 Y1.3327
G01 X29.0668 Y1.3505
G01 X29.1056 Y1.4057
G01 X29.1386 Y1.4647
G01 X29.1484 Y1.4852
G01 X29.1740 Y1.5477
G01 X29.1930 Y1.6124
G01 X29.1980 Y1.6346
G01 X29.2090 Y1.7013
G01 X29.2134 Y1.7743
G01 X29.2135 Y6.1300
G01 X29.2100 Y6.1974
G01 X29.2074 Y6.2200
G01 X29.1958 Y6.2865
G01 X29.1774 Y6.3515
G01 X29.1699 Y6.3730
G01 X29.1438 Y6.4352
G01 X29.1056 Y6.5043
G01 X29.0600 Y6.5686
G01 X29.0114 Y6.6233
G01 X27.4933 Y8.1414
G01 X27.4386 Y8.1900
G01 X27.3837 Y8.2293
G01 X27.3644 Y8.2414
G01 X27.3153 Y8.2686
G01 X27.2948 Y8.2784
G01 X27.2323 Y8.3040
G01 X27.1565 Y8.3258
G01 X27.0788 Y8.3390
G01 X27.0114 Y8.3431
G01 X21.5500 Y8.3435
G01 X21.4712 Y8.3390
G01 X21.3935 Y8.3258
G01 X21.3177 Y8.3040
G01 X21.2552 Y8.2784
G01 X21.2347 Y8.2686
G01 X21.1856 Y8.2414
G01 X21.1663 Y8.2293
G01 X21.1114 Y8.1900
G01 X21.0526 Y8.1374
G01 X17.8948 Y4.9791
G01 X17.8500 Y4.9286
G01 X17.8044 Y4.8643
G01 X17.7662 Y4.7952
G01 X17.7360 Y4.7223
G01 X17.7142 Y4.6465
G01 X17.7010 Y4.5688
G01 X17.6965 Y4.4900
G01 X17.7010 Y4.4112
G01 X17.7142 Y4.3335
G01 X17.7360 Y4.2577
G01 X17.7662 Y4.1848
G01 X17.7986 Y4.1256
G01 X17.8107 Y4.1063
G01 X17.8432 Y4.0605
G01 X17.8574 Y4.0427
G01 X17.9026 Y3.9926
G01 X17.9527 Y3.9474
G01 X17.9705 Y3.9332
G01 X18.0257 Y3.8944
G01 X18.0948 Y3.8562
G01 X18.1677 Y3.8260
G01 X18.2324 Y3.8070
G01 X18.2546 Y3.8020
G01 X18.3212 Y3.7910
G01 X18.3886 Y3.7869
G01 X18.4114 Y3.7869
G01 X18.4674 Y3.7900
G01 X18.4900 Y3.7926
G01 X18.5565 Y3.8042
G01 X18.6323 Y3.8260
G01 X18.7052 Y3.8562
G01 X18.7743 Y3.8944
G01 X18.8386 Y3.9400
G01 X18.8974 Y3.9926
G01 X21.8414 Y6.9365
G01 X26.7086 Y6.9365
G01 X27.8065 Y5.8386
G01 X27.8065 Y2.0714
G01 X27.6086 Y1.8735
G01 X17.5114 Y1.8735
G01 X16.4435 Y2.9414
G01 X16.4435 Y11.5257
G01 X16.4902 Y11.5593
G01 X16.5825 Y11.6414
G01 X16.5986 Y11.6575
G01 X16.6807 Y11.7498
G01 X16.7588 Y11.8599
G01 X16.8240 Y11.9780
G01 X16.8757 Y12.1026
G01 X16.9130 Y12.2323
G01 X16.9356 Y12.3653
G01 X16.9432 Y12.5000
G01 X16.9356 Y12.6347
G01 X16.9130 Y12.7677
G01 X16.8757 Y12.8974
G01 X16.8240 Y13.0220
G01 X16.7588 Y13.1401
G01 X16.6807 Y13.2502
G01 X16.5908 Y13.3508
G01 X16.4902 Y13.4407
G01 X16.3801 Y13.5188
G01 X16.2620 Y13.5840
G01 X16.1374 Y13.6357
G01 X16.0188 Y13.6702
G01 X15.9966 Y13.6753
G01 X15.8860 Y13.6940
G01 X15.8634 Y13.6966
G01 X15.7400 Y13.7032
G01 X15.6053 Y13.6956
G01 X15.4723 Y13.6730
G01 X15.3426 Y13.6357
G01 X15.2180 Y13.5840
G01 X15.1097 Y13.5246
G01 X15.0904 Y13.5124
G01 X14.9989 Y13.4476
G01 X14.9811 Y13.4333
G01 X14.8892 Y13.3508
G01 X14.7993 Y13.2502
G01 X14.7212 Y13.1401
G01 X14.6560 Y13.0220
G01 X14.6043 Y12.8974
G01 X14.5698 Y12.7788
G01 X14.5647 Y12.7566
G01 X14.5460 Y12.6460
G01 X14.5434 Y12.6234
G01 X14.5368 Y12.5000
G01 X14.5444 Y12.3653
G01 X14.5670 Y12.2323
G01 X14.6043 Y12.1026
G01 X14.6560 Y11.9780
G01 X14.7154 Y11.8697
G01 X14.7276 Y11.8504
G01 X14.7993 Y11.7498
G01 X14.8814 Y11.6575
G01 X14.8975 Y11.6414
G01 X14.9811 Y11.5667
G01 X14.9989 Y11.5524
G01 X15.0365 Y11.5257
G00 Z2.5400
M05
G00 Z2.5400
G00 Z35.80
G00 X0.0 Y0.0
