(G-CODE GENERATED BY FLATCAM v8.912 - www.flatcam.org - Version Date: 2019/03/17)

(Name: V2-F.Cu.gbr_iso_cnc)
(Type: G-code from Geometry)
(Units: IN)

(Created on Thursday, 11 April 2019 at 15:55)

(TOOL DIAMETER: 0.016 in)
(Feedrate: 80.0 in/min)
(Feedrate_Z: 80.0 in/min)
(Feedrate rapids 3.0 in/min)

(Z_Cut: -0.2 in)
(Z_Move: 0.2 in)
(Z Toolchange: 1.0 in)
(X,Y Toolchange: 0.0000, 0.0000 in)
(Z Start: None in)
(Z End: 2.0 in)
(Steps per circle: 64)
(Postprocessor Geometry: default)

(X range:    0.0366 ...    1.9522  in)
(Y range:   -0.0006 ...    2.1473  in)

(Spindle Speed: None RPM)

G20
G90
G94

G01 F80.00
G00 Z0.2000

M03
G00 X0.3475 Y0.6787
G01 F80.00
G01 Z-0.2000
G01 F80.00
G01 X0.3396 Y0.6794
G01 X0.3295 Y0.6782
G01 X0.3194 Y0.6747
G01 X0.3108 Y0.6693
G01 X0.3033 Y0.6619
G01 X0.2997 Y0.6568
G01 X0.2953 Y0.6476
G01 X0.2930 Y0.6377
G01 X0.2929 Y0.6271
G01 X0.2939 Y0.6210
G01 X0.2973 Y0.6114
G01 X0.3030 Y0.6025
G01 X0.3101 Y0.5953
G01 X0.3152 Y0.5917
G01 X0.3244 Y0.5873
G01 X0.3343 Y0.5850
G01 X0.3453 Y0.5849
G01 X0.3556 Y0.5873
G01 X0.3652 Y0.5919
G01 X0.3735 Y0.5985
G01 X0.3801 Y0.6068
G01 X0.3847 Y0.6164
G01 X0.3871 Y0.6267
G01 X0.3867 Y0.6395
G01 X0.3956 Y0.6484
G01 X0.3929 Y0.6369
G01 X0.3929 Y0.6271
G01 X0.3939 Y0.6210
G01 X0.3971 Y0.6119
G01 X0.3999 Y0.6068
G01 X0.4033 Y0.6021
G01 X0.4105 Y0.5950
G01 X0.4152 Y0.5917
G01 X0.4239 Y0.5874
G01 X0.4351 Y0.5849
G01 X0.4449 Y0.5849
G01 X0.4505 Y0.5858
G01 X0.4561 Y0.5874
G01 X0.4652 Y0.5919
G01 X0.4735 Y0.5985
G01 X0.4803 Y0.6072
G01 X0.4829 Y0.6119
G01 X0.4861 Y0.6210
G01 X0.4874 Y0.6320
G01 X0.4862 Y0.6425
G01 X0.4825 Y0.6530
G01 X0.4767 Y0.6619
G01 X0.4665 Y0.6712
G01 X0.5450 Y0.6712
G01 X0.5707 Y0.6455
G01 X0.5700 Y0.6376
G01 X0.5713 Y0.6270
G01 X0.5747 Y0.6174
G01 X0.5804 Y0.6085
G01 X0.5842 Y0.6042
G01 X0.5922 Y0.5979
G01 X0.6013 Y0.5934
G01 X0.6073 Y0.5917
G01 X0.6174 Y0.5906
G01 X0.6279 Y0.5918
G01 X0.6379 Y0.5953
G01 X0.6466 Y0.6007
G01 X0.6541 Y0.6081
G01 X0.6577 Y0.6132
G01 X0.6621 Y0.6224
G01 X0.6644 Y0.6323
G01 X0.6645 Y0.6433
G01 X0.6621 Y0.6536
G01 X0.6575 Y0.6632
G01 X0.6506 Y0.6718
G01 X0.6426 Y0.6781
G01 X0.6326 Y0.6828
G01 X0.6222 Y0.6851
G01 X0.6098 Y0.6847
G01 X0.5737 Y0.7206
G01 X0.5681 Y0.7241
G01 X0.5600 Y0.7264
G01 X0.4069 Y0.7266
G01 X0.4008 Y0.7259
G01 X0.3949 Y0.7239
G01 X0.3893 Y0.7203
G01 X0.3475 Y0.6787
G00 Z0.2000
G00 X0.3954 Y0.9936
G01 F80.00
G01 Z-0.2000
G01 F80.00
G01 X0.3950 Y0.9997
G01 X0.3926 Y1.0101
G01 X0.3881 Y1.0192
G01 X0.3815 Y1.0275
G01 X0.3736 Y1.0339
G01 X0.3681 Y1.0369
G01 X0.3585 Y1.0402
G01 X0.3480 Y1.0414
G01 X0.3379 Y1.0403
G01 X0.3319 Y1.0386
G01 X0.3228 Y1.0341
G01 X0.3145 Y1.0275
G01 X0.3081 Y1.0196
G01 X0.3051 Y1.0141
G01 X0.3018 Y1.0045
G01 X0.3006 Y0.9940
G01 X0.3017 Y0.9839
G01 X0.3034 Y0.9779
G01 X0.3079 Y0.9688
G01 X0.3145 Y0.9605
G01 X0.3224 Y0.9541
G01 X0.3279 Y0.9511
G01 X0.3375 Y0.9478
G01 X0.3480 Y0.9466
G01 X0.3581 Y0.9477
G01 X0.3641 Y0.9494
G01 X0.3732 Y0.9539
G01 X0.3815 Y0.9605
G01 X0.3879 Y0.9684
G01 X0.3909 Y0.9739
G01 X0.3942 Y0.9835
G01 X0.3954 Y0.9936
G00 Z0.2000
G00 X0.3954 Y1.3616
G01 F80.00
G01 Z-0.2000
G01 F80.00
G01 X0.3950 Y1.3677
G01 X0.3926 Y1.3781
G01 X0.3881 Y1.3872
G01 X0.3815 Y1.3955
G01 X0.3736 Y1.4019
G01 X0.3681 Y1.4049
G01 X0.3585 Y1.4082
G01 X0.3480 Y1.4094
G01 X0.3379 Y1.4083
G01 X0.3319 Y1.4066
G01 X0.3228 Y1.4021
G01 X0.3145 Y1.3955
G01 X0.3081 Y1.3876
G01 X0.3051 Y1.3821
G01 X0.3018 Y1.3725
G01 X0.3006 Y1.3620
G01 X0.3017 Y1.3519
G01 X0.3034 Y1.3459
G01 X0.3079 Y1.3368
G01 X0.3145 Y1.3285
G01 X0.3224 Y1.3221
G01 X0.3279 Y1.3191
G01 X0.3375 Y1.3158
G01 X0.3480 Y1.3146
G01 X0.3581 Y1.3157
G01 X0.3641 Y1.3174
G01 X0.3732 Y1.3219
G01 X0.3815 Y1.3285
G01 X0.3879 Y1.3364
G01 X0.3909 Y1.3419
G01 X0.3942 Y1.3515
G01 X0.3954 Y1.3616
G00 Z0.2000
G00 X0.2954 Y1.3616
G01 F80.00
G01 Z-0.2000
G01 F80.00
G01 X0.2943 Y1.3721
G01 X0.2926 Y1.3781
G01 X0.2881 Y1.3872
G01 X0.2815 Y1.3955
G01 X0.2736 Y1.4019
G01 X0.2681 Y1.4049
G01 X0.2585 Y1.4082
G01 X0.2480 Y1.4094
G01 X0.2379 Y1.4083
G01 X0.2319 Y1.4066
G01 X0.2228 Y1.4021
G01 X0.2145 Y1.3955
G01 X0.2081 Y1.3876
G01 X0.2051 Y1.3821
G01 X0.2018 Y1.3725
G01 X0.2006 Y1.3620
G01 X0.2017 Y1.3519
G01 X0.2034 Y1.3459
G01 X0.2079 Y1.3368
G01 X0.2145 Y1.3285
G01 X0.2224 Y1.3221
G01 X0.2279 Y1.3191
G01 X0.2375 Y1.3158
G01 X0.2480 Y1.3146
G01 X0.2581 Y1.3157
G01 X0.2641 Y1.3174
G01 X0.2732 Y1.3219
G01 X0.2815 Y1.3285
G01 X0.2879 Y1.3364
G01 X0.2909 Y1.3419
G01 X0.2942 Y1.3515
G01 X0.2954 Y1.3616
G00 Z0.2000
G00 X0.4954 Y1.3616
G01 F80.00
G01 Z-0.2000
G01 F80.00
G01 X0.4950 Y1.3677
G01 X0.4926 Y1.3781
G01 X0.4881 Y1.3872
G01 X0.4815 Y1.3955
G01 X0.4736 Y1.4019
G01 X0.4681 Y1.4049
G01 X0.4585 Y1.4082
G01 X0.4480 Y1.4094
G01 X0.4379 Y1.4083
G01 X0.4319 Y1.4066
G01 X0.4228 Y1.4021
G01 X0.4145 Y1.3955
G01 X0.4081 Y1.3876
G01 X0.4051 Y1.3821
G01 X0.4018 Y1.3725
G01 X0.4006 Y1.3620
G01 X0.4017 Y1.3519
G01 X0.4034 Y1.3459
G01 X0.4079 Y1.3368
G01 X0.4145 Y1.3285
G01 X0.4224 Y1.3221
G01 X0.4279 Y1.3191
G01 X0.4375 Y1.3158
G01 X0.4480 Y1.3146
G01 X0.4581 Y1.3157
G01 X0.4641 Y1.3174
G01 X0.4732 Y1.3219
G01 X0.4815 Y1.3285
G01 X0.4879 Y1.3364
G01 X0.4909 Y1.3419
G01 X0.4942 Y1.3515
G01 X0.4954 Y1.3616
G00 Z0.2000
G00 X0.6858 Y1.3952
G01 F80.00
G01 Z-0.2000
G01 F80.00
G01 X0.6776 Y1.4019
G01 X0.6721 Y1.4049
G01 X0.6625 Y1.4082
G01 X0.6520 Y1.4094
G01 X0.6419 Y1.4083
G01 X0.6359 Y1.4066
G01 X0.6268 Y1.4021
G01 X0.6185 Y1.3955
G01 X0.6121 Y1.3876
G01 X0.6091 Y1.3821
G01 X0.6058 Y1.3725
G01 X0.6046 Y1.3620
G01 X0.6057 Y1.3519
G01 X0.6074 Y1.3459
G01 X0.6119 Y1.3368
G01 X0.6185 Y1.3285
G01 X0.6264 Y1.3221
G01 X0.6319 Y1.3191
G01 X0.6415 Y1.3158
G01 X0.6520 Y1.3146
G01 X0.6621 Y1.3157
G01 X0.6681 Y1.3174
G01 X0.6772 Y1.3219
G01 X0.6855 Y1.3285
G01 X0.6919 Y1.3364
G01 X0.6949 Y1.3419
G01 X0.6982 Y1.3515
G01 X0.6994 Y1.3620
G01 X0.6983 Y1.3721
G01 X0.6966 Y1.3781
G01 X0.6921 Y1.3872
G01 X0.6858 Y1.3952
G00 Z0.2000
G00 X0.7153 Y1.3919
G01 F80.00
G01 Z-0.2000
G01 F80.00
G01 X0.7117 Y1.3868
G01 X0.7072 Y1.3772
G01 X0.7049 Y1.3673
G01 X0.7049 Y1.3567
G01 X0.7072 Y1.3468
G01 X0.7095 Y1.3410
G01 X0.7150 Y1.3325
G01 X0.7225 Y1.3250
G01 X0.7310 Y1.3195
G01 X0.7368 Y1.3172
G01 X0.7467 Y1.3149
G01 X0.7573 Y1.3149
G01 X0.7672 Y1.3172
G01 X0.7730 Y1.3195
G01 X0.7815 Y1.3250
G01 X0.7890 Y1.3325
G01 X0.7945 Y1.3410
G01 X0.7968 Y1.3468
G01 X0.7991 Y1.3567
G01 X0.7991 Y1.3673
G01 X0.7968 Y1.3772
G01 X0.7945 Y1.3830
G01 X0.7890 Y1.3915
G01 X0.7815 Y1.3990
G01 X0.7726 Y1.4047
G01 X0.7630 Y1.4081
G01 X0.7569 Y1.4091
G01 X0.7467 Y1.4091
G01 X0.7368 Y1.4068
G01 X0.7310 Y1.4045
G01 X0.7225 Y1.3990
G01 X0.7153 Y1.3919
G00 Z0.2000
G00 X0.6963 Y1.5313
G01 F80.00
G01 Z-0.2000
G01 F80.00
G01 X0.6930 Y1.5266
G01 X0.6890 Y1.5182
G01 X0.6876 Y1.5131
G01 X0.6866 Y1.5039
G01 X0.6866 Y1.4877
G01 X0.6877 Y1.4785
G01 X0.6909 Y1.4693
G01 X0.6960 Y1.4611
G01 X0.7026 Y1.4545
G01 X0.7073 Y1.4511
G01 X0.7157 Y1.4471
G01 X0.7251 Y1.4450
G01 X0.7344 Y1.4449
G01 X0.7401 Y1.4459
G01 X0.7488 Y1.4490
G01 X0.7571 Y1.4542
G01 X0.7640 Y1.4611
G01 X0.7689 Y1.4689
G01 X0.7711 Y1.4742
G01 X0.7732 Y1.4833
G01 X0.7734 Y1.5041
G01 X0.7724 Y1.5131
G01 X0.7691 Y1.5227
G01 X0.7640 Y1.5309
G01 X0.7571 Y1.5378
G01 X0.7488 Y1.5430
G01 X0.7397 Y1.5462
G01 X0.7300 Y1.5473
G01 X0.7203 Y1.5462
G01 X0.7112 Y1.5430
G01 X0.7029 Y1.5378
G01 X0.6963 Y1.5313
G00 Z0.2000
G00 X0.7963 Y1.5313
G01 F80.00
G01 Z-0.2000
G01 F80.00
G01 X0.7930 Y1.5266
G01 X0.7890 Y1.5182
G01 X0.7876 Y1.5131
G01 X0.7866 Y1.5039
G01 X0.7866 Y1.4877
G01 X0.7877 Y1.4785
G01 X0.7909 Y1.4693
G01 X0.7960 Y1.4611
G01 X0.8026 Y1.4545
G01 X0.8073 Y1.4511
G01 X0.8157 Y1.4471
G01 X0.8251 Y1.4450
G01 X0.8344 Y1.4449
G01 X0.8401 Y1.4459
G01 X0.8488 Y1.4490
G01 X0.8571 Y1.4542
G01 X0.8640 Y1.4611
G01 X0.8689 Y1.4689
G01 X0.8711 Y1.4742
G01 X0.8732 Y1.4833
G01 X0.8734 Y1.5041
G01 X0.8724 Y1.5131
G01 X0.8691 Y1.5227
G01 X0.8640 Y1.5309
G01 X0.8571 Y1.5378
G01 X0.8488 Y1.5430
G01 X0.8397 Y1.5462
G01 X0.8300 Y1.5473
G01 X0.8203 Y1.5462
G01 X0.8112 Y1.5430
G01 X0.8029 Y1.5378
G01 X0.7963 Y1.5313
G00 Z0.2000
G00 X1.0463 Y1.6313
G01 F80.00
G01 Z-0.2000
G01 F80.00
G01 X1.0430 Y1.6266
G01 X1.0390 Y1.6182
G01 X1.0376 Y1.6131
G01 X1.0366 Y1.6039
G01 X1.0366 Y1.5877
G01 X1.0377 Y1.5785
G01 X1.0409 Y1.5693
G01 X1.0460 Y1.5611
G01 X1.0526 Y1.5545
G01 X1.0573 Y1.5511
G01 X1.0657 Y1.5471
G01 X1.0751 Y1.5450
G01 X1.0844 Y1.5449
G01 X1.0901 Y1.5459
G01 X1.0988 Y1.5490
G01 X1.1071 Y1.5542
G01 X1.1140 Y1.5611
G01 X1.1189 Y1.5689
G01 X1.1211 Y1.5742
G01 X1.1232 Y1.5833
G01 X1.1234 Y1.6041
G01 X1.1224 Y1.6131
G01 X1.1191 Y1.6227
G01 X1.1140 Y1.6309
G01 X1.1071 Y1.6378
G01 X1.0988 Y1.6430
G01 X1.0897 Y1.6462
G01 X1.0800 Y1.6473
G01 X1.0703 Y1.6462
G01 X1.0612 Y1.6430
G01 X1.0529 Y1.6378
G01 X1.0463 Y1.6313
G00 Z0.2000
G00 X1.1463 Y1.6313
G01 F80.00
G01 Z-0.2000
G01 F80.00
G01 X1.1430 Y1.6266
G01 X1.1390 Y1.6182
G01 X1.1376 Y1.6131
G01 X1.1366 Y1.6039
G01 X1.1366 Y1.5877
G01 X1.1377 Y1.5785
G01 X1.1409 Y1.5693
G01 X1.1460 Y1.5611
G01 X1.1526 Y1.5545
G01 X1.1573 Y1.5511
G01 X1.1657 Y1.5471
G01 X1.1751 Y1.5450
G01 X1.1844 Y1.5449
G01 X1.1901 Y1.5459
G01 X1.1988 Y1.5490
G01 X1.2071 Y1.5542
G01 X1.2140 Y1.5611
G01 X1.2189 Y1.5689
G01 X1.2211 Y1.5742
G01 X1.2232 Y1.5833
G01 X1.2234 Y1.6041
G01 X1.2224 Y1.6131
G01 X1.2191 Y1.6227
G01 X1.2140 Y1.6309
G01 X1.2071 Y1.6378
G01 X1.1988 Y1.6430
G01 X1.1897 Y1.6462
G01 X1.1800 Y1.6473
G01 X1.1703 Y1.6462
G01 X1.1612 Y1.6430
G01 X1.1529 Y1.6378
G01 X1.1463 Y1.6313
G00 Z0.2000
G00 X1.1963 Y1.5313
G01 F80.00
G01 Z-0.2000
G01 F80.00
G01 X1.1930 Y1.5266
G01 X1.1890 Y1.5182
G01 X1.1869 Y1.5092
G01 X1.1866 Y1.5039
G01 X1.1866 Y1.4877
G01 X1.1877 Y1.4785
G01 X1.1909 Y1.4693
G01 X1.1960 Y1.4611
G01 X1.2026 Y1.4545
G01 X1.2073 Y1.4511
G01 X1.2157 Y1.4471
G01 X1.2251 Y1.4450
G01 X1.2344 Y1.4449
G01 X1.2401 Y1.4459
G01 X1.2488 Y1.4490
G01 X1.2571 Y1.4542
G01 X1.2640 Y1.4611
G01 X1.2689 Y1.4689
G01 X1.2711 Y1.4742
G01 X1.2732 Y1.4833
G01 X1.2734 Y1.5041
G01 X1.2724 Y1.5131
G01 X1.2691 Y1.5227
G01 X1.2640 Y1.5309
G01 X1.2571 Y1.5378
G01 X1.2488 Y1.5430
G01 X1.2397 Y1.5462
G01 X1.2300 Y1.5473
G01 X1.2203 Y1.5462
G01 X1.2112 Y1.5430
G01 X1.2029 Y1.5378
G01 X1.1963 Y1.5313
G00 Z0.2000
G00 X1.0963 Y1.5313
G01 F80.00
G01 Z-0.2000
G01 F80.00
G01 X1.0930 Y1.5266
G01 X1.0890 Y1.5182
G01 X1.0869 Y1.5092
G01 X1.0866 Y1.5039
G01 X1.0866 Y1.4877
G01 X1.0877 Y1.4785
G01 X1.0909 Y1.4693
G01 X1.0960 Y1.4611
G01 X1.1026 Y1.4545
G01 X1.1073 Y1.4511
G01 X1.1157 Y1.4471
G01 X1.1251 Y1.4450
G01 X1.1344 Y1.4449
G01 X1.1401 Y1.4459
G01 X1.1488 Y1.4490
G01 X1.1571 Y1.4542
G01 X1.1640 Y1.4611
G01 X1.1689 Y1.4689
G01 X1.1711 Y1.4742
G01 X1.1732 Y1.4833
G01 X1.1734 Y1.5041
G01 X1.1724 Y1.5131
G01 X1.1691 Y1.5227
G01 X1.1640 Y1.5309
G01 X1.1571 Y1.5378
G01 X1.1488 Y1.5430
G01 X1.1397 Y1.5462
G01 X1.1300 Y1.5473
G01 X1.1203 Y1.5462
G01 X1.1112 Y1.5430
G01 X1.1029 Y1.5378
G01 X1.0963 Y1.5313
G00 Z0.2000
G00 X1.2963 Y1.5313
G01 F80.00
G01 Z-0.2000
G01 F80.00
G01 X1.2930 Y1.5266
G01 X1.2890 Y1.5182
G01 X1.2869 Y1.5092
G01 X1.2866 Y1.5039
G01 X1.2866 Y1.4877
G01 X1.2877 Y1.4785
G01 X1.2909 Y1.4693
G01 X1.2960 Y1.4611
G01 X1.3026 Y1.4545
G01 X1.3073 Y1.4511
G01 X1.3157 Y1.4471
G01 X1.3251 Y1.4450
G01 X1.3344 Y1.4449
G01 X1.3401 Y1.4459
G01 X1.3488 Y1.4490
G01 X1.3571 Y1.4542
G01 X1.3640 Y1.4611
G01 X1.3689 Y1.4689
G01 X1.3711 Y1.4742
G01 X1.3732 Y1.4833
G01 X1.3734 Y1.5041
G01 X1.3724 Y1.5131
G01 X1.3691 Y1.5227
G01 X1.3640 Y1.5309
G01 X1.3571 Y1.5378
G01 X1.3488 Y1.5430
G01 X1.3397 Y1.5462
G01 X1.3300 Y1.5473
G01 X1.3203 Y1.5462
G01 X1.3112 Y1.5430
G01 X1.3029 Y1.5378
G01 X1.2963 Y1.5313
G00 Z0.2000
G00 X1.3963 Y1.5313
G01 F80.00
G01 Z-0.2000
G01 F80.00
G01 X1.3930 Y1.5266
G01 X1.3890 Y1.5182
G01 X1.3876 Y1.5131
G01 X1.3866 Y1.5039
G01 X1.3866 Y1.4877
G01 X1.3877 Y1.4785
G01 X1.3909 Y1.4693
G01 X1.3960 Y1.4611
G01 X1.4026 Y1.4545
G01 X1.4073 Y1.4511
G01 X1.4157 Y1.4471
G01 X1.4251 Y1.4450
G01 X1.4344 Y1.4449
G01 X1.4401 Y1.4459
G01 X1.4488 Y1.4490
G01 X1.4571 Y1.4542
G01 X1.4640 Y1.4611
G01 X1.4689 Y1.4689
G01 X1.4711 Y1.4742
G01 X1.4732 Y1.4833
G01 X1.4734 Y1.5041
G01 X1.4724 Y1.5131
G01 X1.4691 Y1.5227
G01 X1.4640 Y1.5309
G01 X1.4571 Y1.5378
G01 X1.4488 Y1.5430
G01 X1.4397 Y1.5462
G01 X1.4300 Y1.5473
G01 X1.4203 Y1.5462
G01 X1.4112 Y1.5430
G01 X1.4029 Y1.5378
G01 X1.3963 Y1.5313
G00 Z0.2000
G00 X1.4963 Y1.5313
G01 F80.00
G01 Z-0.2000
G01 F80.00
G01 X1.4930 Y1.5266
G01 X1.4890 Y1.5182
G01 X1.4876 Y1.5131
G01 X1.4866 Y1.5039
G01 X1.4866 Y1.4877
G01 X1.4877 Y1.4785
G01 X1.4909 Y1.4693
G01 X1.4960 Y1.4611
G01 X1.5026 Y1.4545
G01 X1.5073 Y1.4511
G01 X1.5157 Y1.4471
G01 X1.5251 Y1.4450
G01 X1.5344 Y1.4449
G01 X1.5401 Y1.4459
G01 X1.5488 Y1.4490
G01 X1.5571 Y1.4542
G01 X1.5640 Y1.4611
G01 X1.5689 Y1.4689
G01 X1.5711 Y1.4742
G01 X1.5732 Y1.4833
G01 X1.5734 Y1.5041
G01 X1.5724 Y1.5131
G01 X1.5691 Y1.5227
G01 X1.5640 Y1.5309
G01 X1.5571 Y1.5378
G01 X1.5488 Y1.5430
G01 X1.5397 Y1.5462
G01 X1.5300 Y1.5473
G01 X1.5203 Y1.5462
G01 X1.5112 Y1.5430
G01 X1.5029 Y1.5378
G01 X1.4963 Y1.5313
G00 Z0.2000
G00 X1.5963 Y1.5313
G01 F80.00
G01 Z-0.2000
G01 F80.00
G01 X1.5930 Y1.5266
G01 X1.5890 Y1.5182
G01 X1.5869 Y1.5092
G01 X1.5866 Y1.5039
G01 X1.5866 Y1.4877
G01 X1.5877 Y1.4785
G01 X1.5909 Y1.4693
G01 X1.5960 Y1.4611
G01 X1.6026 Y1.4545
G01 X1.6073 Y1.4511
G01 X1.6157 Y1.4471
G01 X1.6251 Y1.4450
G01 X1.6344 Y1.4449
G01 X1.6401 Y1.4459
G01 X1.6488 Y1.4490
G01 X1.6571 Y1.4542
G01 X1.6640 Y1.4611
G01 X1.6689 Y1.4689
G01 X1.6711 Y1.4742
G01 X1.6732 Y1.4833
G01 X1.6734 Y1.5041
G01 X1.6724 Y1.5131
G01 X1.6691 Y1.5227
G01 X1.6640 Y1.5309
G01 X1.6571 Y1.5378
G01 X1.6488 Y1.5430
G01 X1.6397 Y1.5462
G01 X1.6300 Y1.5473
G01 X1.6203 Y1.5462
G01 X1.6112 Y1.5430
G01 X1.6029 Y1.5378
G01 X1.5963 Y1.5313
G00 Z0.2000
G00 X1.6963 Y1.5313
G01 F80.00
G01 Z-0.2000
G01 F80.00
G01 X1.6930 Y1.5266
G01 X1.6890 Y1.5182
G01 X1.6869 Y1.5092
G01 X1.6866 Y1.5039
G01 X1.6866 Y1.4877
G01 X1.6877 Y1.4785
G01 X1.6909 Y1.4693
G01 X1.6960 Y1.4611
G01 X1.7026 Y1.4545
G01 X1.7073 Y1.4511
G01 X1.7157 Y1.4471
G01 X1.7251 Y1.4450
G01 X1.7344 Y1.4449
G01 X1.7401 Y1.4459
G01 X1.7488 Y1.4490
G01 X1.7571 Y1.4542
G01 X1.7640 Y1.4611
G01 X1.7689 Y1.4689
G01 X1.7711 Y1.4742
G01 X1.7732 Y1.4833
G01 X1.7734 Y1.5041
G01 X1.7724 Y1.5131
G01 X1.7691 Y1.5227
G01 X1.7640 Y1.5309
G01 X1.7571 Y1.5378
G01 X1.7488 Y1.5430
G01 X1.7397 Y1.5462
G01 X1.7300 Y1.5473
G01 X1.7203 Y1.5462
G01 X1.7112 Y1.5430
G01 X1.7029 Y1.5378
G01 X1.6963 Y1.5313
G00 Z0.2000
G00 X1.7856 Y0.9436
G01 F80.00
G01 Z-0.2000
G01 F80.00
G01 X1.7825 Y0.9393
G01 X1.7787 Y0.9313
G01 X1.7769 Y0.9231
G01 X1.7769 Y0.9142
G01 X1.7787 Y0.9060
G01 X1.7808 Y0.9011
G01 X1.7853 Y0.8940
G01 X1.7915 Y0.8878
G01 X1.7986 Y0.8833
G01 X1.8035 Y0.8812
G01 X1.8117 Y0.8794
G01 X1.8206 Y0.8794
G01 X1.8292 Y0.8814
G01 X1.8368 Y0.8850
G01 X1.8411 Y0.8881
G01 X1.8470 Y0.8940
G01 X1.8515 Y0.9011
G01 X1.8536 Y0.9060
G01 X1.8554 Y0.9142
G01 X1.8554 Y0.9231
G01 X1.8536 Y0.9313
G01 X1.8515 Y0.9362
G01 X1.8470 Y0.9433
G01 X1.8408 Y0.9495
G01 X1.8333 Y0.9542
G01 X1.8254 Y0.9571
G01 X1.8201 Y0.9579
G01 X1.8117 Y0.9579
G01 X1.8035 Y0.9561
G01 X1.7986 Y0.9540
G01 X1.7915 Y0.9495
G01 X1.7856 Y0.9436
G00 Z0.2000
G00 X1.8556 Y0.7607
G01 F80.00
G01 Z-0.2000
G01 F80.00
G01 X1.8553 Y0.7660
G01 X1.8533 Y0.7746
G01 X1.8496 Y0.7822
G01 X1.8441 Y0.7891
G01 X1.8375 Y0.7944
G01 X1.8329 Y0.7969
G01 X1.8249 Y0.7997
G01 X1.8161 Y0.8007
G01 X1.8074 Y0.7997
G01 X1.7994 Y0.7969
G01 X1.7948 Y0.7944
G01 X1.7882 Y0.7891
G01 X1.7827 Y0.7822
G01 X1.7790 Y0.7746
G01 X1.7775 Y0.7695
G01 X1.7766 Y0.7612
G01 X1.7775 Y0.7528
G01 X1.7790 Y0.7477
G01 X1.7827 Y0.7402
G01 X1.7882 Y0.7333
G01 X1.7948 Y0.7280
G01 X1.7994 Y0.7254
G01 X1.8074 Y0.7227
G01 X1.8161 Y0.7217
G01 X1.8249 Y0.7227
G01 X1.8329 Y0.7254
G01 X1.8375 Y0.7280
G01 X1.8441 Y0.7333
G01 X1.8493 Y0.7398
G01 X1.8519 Y0.7445
G01 X1.8546 Y0.7524
G01 X1.8556 Y0.7607
G00 Z0.2000
G00 X1.8137 Y0.3281
G01 F80.00
G01 Z-0.2000
G01 F80.00
G01 X1.8027 Y0.3259
G01 X1.7915 Y0.3196
G01 X1.7829 Y0.3101
G01 X1.7787 Y0.3014
G01 X1.7769 Y0.2932
G01 X1.7769 Y0.2843
G01 X1.7789 Y0.2757
G01 X1.7829 Y0.2674
G01 X1.7882 Y0.2608
G01 X1.7955 Y0.2551
G01 X1.8035 Y0.2513
G01 X1.8137 Y0.2494
G01 X1.8069 Y0.2484
G01 X1.7990 Y0.2456
G01 X1.7919 Y0.2411
G01 X1.7879 Y0.2376
G01 X1.7827 Y0.2310
G01 X1.7790 Y0.2235
G01 X1.7775 Y0.2183
G01 X1.7766 Y0.2100
G01 X1.7775 Y0.2017
G01 X1.7790 Y0.1965
G01 X1.7827 Y0.1890
G01 X1.7882 Y0.1821
G01 X1.7948 Y0.1768
G01 X1.7994 Y0.1742
G01 X1.8074 Y0.1715
G01 X1.8161 Y0.1705
G01 X1.8245 Y0.1714
G01 X1.8296 Y0.1729
G01 X1.8372 Y0.1766
G01 X1.8441 Y0.1821
G01 X1.8493 Y0.1886
G01 X1.8519 Y0.1933
G01 X1.8546 Y0.2012
G01 X1.8556 Y0.2100
G01 X1.8547 Y0.2183
G01 X1.8533 Y0.2235
G01 X1.8496 Y0.2310
G01 X1.8444 Y0.2376
G01 X1.8404 Y0.2411
G01 X1.8333 Y0.2456
G01 X1.8254 Y0.2484
G01 X1.8186 Y0.2494
G01 X1.8254 Y0.2503
G01 X1.8333 Y0.2532
G01 X1.8404 Y0.2576
G01 X1.8444 Y0.2611
G01 X1.8496 Y0.2677
G01 X1.8533 Y0.2753
G01 X1.8547 Y0.2804
G01 X1.8556 Y0.2887
G01 X1.8547 Y0.2971
G01 X1.8533 Y0.3022
G01 X1.8496 Y0.3098
G01 X1.8444 Y0.3163
G01 X1.8404 Y0.3199
G01 X1.8333 Y0.3243
G01 X1.8254 Y0.3271
G01 X1.8186 Y0.3281
G01 X1.8254 Y0.3291
G01 X1.8333 Y0.3319
G01 X1.8404 Y0.3363
G01 X1.8444 Y0.3399
G01 X1.8496 Y0.3465
G01 X1.8533 Y0.3540
G01 X1.8547 Y0.3591
G01 X1.8556 Y0.3675
G01 X1.8547 Y0.3758
G01 X1.8534 Y0.3805
G01 X1.8498 Y0.3881
G01 X1.8467 Y0.3924
G01 X1.8408 Y0.3984
G01 X1.8337 Y0.4029
G01 X1.8288 Y0.4049
G01 X1.8206 Y0.4067
G01 X1.8122 Y0.4068
G01 X1.8069 Y0.4059
G01 X1.7990 Y0.4031
G01 X1.7915 Y0.3984
G01 X1.7853 Y0.3921
G01 X1.7808 Y0.3850
G01 X1.7787 Y0.3801
G01 X1.7769 Y0.3719
G01 X1.7769 Y0.3631
G01 X1.7787 Y0.3549
G01 X1.7808 Y0.3499
G01 X1.7853 Y0.3429
G01 X1.7915 Y0.3366
G01 X1.7986 Y0.3321
G01 X1.8069 Y0.3291
G01 X1.8137 Y0.3281
G00 Z0.2000
G00 X0.9194 Y0.9436
G01 F80.00
G01 Z-0.2000
G01 F80.00
G01 X0.9163 Y0.9393
G01 X0.9126 Y0.9313
G01 X0.9108 Y0.9231
G01 X0.9108 Y0.9142
G01 X0.9126 Y0.9060
G01 X0.9146 Y0.9011
G01 X0.9191 Y0.8940
G01 X0.9254 Y0.8878
G01 X0.9325 Y0.8833
G01 X0.9374 Y0.8812
G01 X0.9456 Y0.8794
G01 X0.9544 Y0.8794
G01 X0.9630 Y0.8814
G01 X0.9706 Y0.8850
G01 X0.9750 Y0.8881
G01 X0.9809 Y0.8940
G01 X0.9854 Y0.9011
G01 X0.9874 Y0.9060
G01 X0.9892 Y0.9142
G01 X0.9892 Y0.9231
G01 X0.9874 Y0.9313
G01 X0.9854 Y0.9362
G01 X0.9809 Y0.9433
G01 X0.9746 Y0.9495
G01 X0.9671 Y0.9542
G01 X0.9592 Y0.9571
G01 X0.9540 Y0.9579
G01 X0.9456 Y0.9579
G01 X0.9374 Y0.9561
G01 X0.9325 Y0.9540
G01 X0.9254 Y0.9495
G01 X0.9194 Y0.9436
G00 Z0.2000
G00 X0.0513 Y1.1630
G01 F80.00
G01 Z-0.2000
G01 F80.00
G01 X0.0530 Y1.1534
G01 X0.0556 Y1.1483
G01 X0.0593 Y1.1436
G01 X0.2013 Y1.0015
G01 X0.2006 Y0.9940
G01 X0.2013 Y0.9865
G01 X0.0643 Y0.8494
G01 X0.0593 Y0.8424
G01 X0.0569 Y0.8357
G01 X0.0563 Y0.8300
G01 X0.0563 Y0.1324
G01 X0.0502 Y0.1272
G01 X0.0439 Y0.1192
G01 X0.0411 Y0.1141
G01 X0.0378 Y0.1045
G01 X0.0366 Y0.0944
G01 X0.0370 Y0.0883
G01 X0.0393 Y0.0784
G01 X0.0437 Y0.0692
G01 X0.0508 Y0.0602
G01 X0.0584 Y0.0541
G01 X0.0634 Y0.0513
G01 X0.0688 Y0.0492
G01 X0.0783 Y0.0470
G01 X0.0915 Y0.0473
G01 X0.1333 Y0.0057
G01 X0.1393 Y0.0019
G01 X0.1478 Y-0.0004
G01 X0.2173 Y-0.0006
G01 X0.2262 Y0.0009
G01 X0.2318 Y0.0036
G01 X0.2365 Y0.0073
G01 X0.2765 Y0.0473
G01 X0.2840 Y0.0466
G01 X0.2915 Y0.0473
G01 X0.3333 Y0.0057
G01 X0.3393 Y0.0019
G01 X0.3478 Y-0.0004
G01 X0.5171 Y-0.0006
G01 X0.5232 Y0.0001
G01 X0.5291 Y0.0021
G01 X0.5347 Y0.0057
G01 X0.5765 Y0.0473
G01 X0.5840 Y0.0466
G01 X0.5915 Y0.0473
G01 X0.6315 Y0.0073
G01 X0.6362 Y0.0036
G01 X0.6418 Y0.0009
G01 X0.6509 Y-0.0006
G01 X0.7171 Y-0.0006
G01 X0.7228 Y-0.0000
G01 X0.7291 Y0.0021
G01 X0.7347 Y0.0057
G01 X0.7765 Y0.0473
G01 X0.7893 Y0.0469
G01 X0.7996 Y0.0493
G01 X0.8092 Y0.0539
G01 X0.8175 Y0.0605
G01 X0.8241 Y0.0688
G01 X0.8287 Y0.0784
G01 X0.8311 Y0.0887
G01 X0.8307 Y0.1015
G01 X0.9115 Y0.1823
G01 X0.9219 Y0.1823
G01 X0.9286 Y0.1768
G01 X0.9333 Y0.1742
G01 X0.9412 Y0.1715
G01 X0.9500 Y0.1705
G01 X0.9588 Y0.1715
G01 X0.9667 Y0.1742
G01 X0.9743 Y0.1789
G01 X0.9782 Y0.1824
G01 X0.9854 Y0.1925
G01 X0.9885 Y0.2012
G01 X0.9893 Y0.2140
G01 X0.9871 Y0.2235
G01 X0.9811 Y0.2343
G01 X0.9743 Y0.2411
G01 X0.9630 Y0.2473
G01 X0.9525 Y0.2494
G01 X0.9592 Y0.2503
G01 X0.9675 Y0.2534
G01 X0.9746 Y0.2579
G01 X0.9809 Y0.2641
G01 X0.9856 Y0.2716
G01 X0.9885 Y0.2800
G01 X0.9895 Y0.2887
G01 X0.9886 Y0.2971
G01 X0.9871 Y0.3022
G01 X0.9834 Y0.3098
G01 X0.9750 Y0.3193
G01 X0.9706 Y0.3224
G01 X0.9635 Y0.3259
G01 X0.9525 Y0.3281
G01 X0.9592 Y0.3291
G01 X0.9671 Y0.3319
G01 X0.9714 Y0.3343
G01 X0.9779 Y0.3396
G01 X0.9834 Y0.3465
G01 X0.9871 Y0.3540
G01 X0.9886 Y0.3591
G01 X0.9895 Y0.3678
G01 X1.9461 Y1.3247
G01 X1.9506 Y1.3328
G01 X1.9522 Y1.3417
G01 X1.9522 Y1.4985
G01 X1.9516 Y1.5042
G01 X1.9492 Y1.5109
G01 X1.9441 Y1.5181
G01 X1.6852 Y1.7767
G01 X1.6775 Y1.7810
G01 X1.6711 Y1.7825
G01 X1.6286 Y1.7827
G01 X1.6228 Y1.7820
G01 X1.6170 Y1.7800
G01 X1.6117 Y1.7767
G01 X1.6076 Y1.7726
G01 X1.6029 Y1.7641
G01 X1.6013 Y1.7546
G01 X1.6020 Y1.7488
G01 X1.6039 Y1.7434
G01 X1.6094 Y1.7354
G01 X1.6166 Y1.7303
G01 X1.6233 Y1.7279
G01 X1.6288 Y1.7273
G01 X1.6565 Y1.7273
G01 X1.8371 Y1.5467
G01 X1.8247 Y1.5470
G01 X1.8161 Y1.5450
G01 X1.8108 Y1.5428
G01 X1.8033 Y1.5381
G01 X1.7993 Y1.5346
G01 X1.7935 Y1.5273
G01 X1.7907 Y1.5223
G01 X1.7878 Y1.5140
G01 X1.7868 Y1.5087
G01 X1.7868 Y1.4833
G01 X1.7878 Y1.4780
G01 X1.7909 Y1.4693
G01 X1.7958 Y1.4614
G01 X1.7993 Y1.4574
G01 X1.8065 Y1.4516
G01 X1.8112 Y1.4490
G01 X1.8199 Y1.4459
G01 X1.8256 Y1.4449
G01 X1.8349 Y1.4450
G01 X1.8439 Y1.4470
G01 X1.8492 Y1.4492
G01 X1.8567 Y1.4539
G01 X1.8610 Y1.4577
G01 X1.8668 Y1.4650
G01 X1.8693 Y1.4697
G01 X1.8722 Y1.4780
G01 X1.8734 Y1.4879
G01 X1.8728 Y1.5110
G01 X1.8968 Y1.4870
G01 X1.8968 Y1.3534
G01 X0.9503 Y0.4070
G01 X0.9412 Y0.4060
G01 X0.9333 Y0.4032
G01 X0.9286 Y0.4007
G01 X0.9218 Y0.3951
G01 X0.9146 Y0.3850
G01 X0.9115 Y0.3763
G01 X0.9107 Y0.3635
G01 X0.9129 Y0.3540
G01 X0.9189 Y0.3432
G01 X0.9257 Y0.3363
G01 X0.9370 Y0.3302
G01 X0.9475 Y0.3281
G01 X0.9408 Y0.3271
G01 X0.9329 Y0.3243
G01 X0.9257 Y0.3199
G01 X0.9219 Y0.3164
G01 X0.9169 Y0.3164
G01 X0.8120 Y0.4214
G01 X0.8120 Y0.6704
G01 X0.8112 Y0.6767
G01 X0.8080 Y0.6845
G01 X0.8039 Y0.6897
G01 X0.5897 Y0.9039
G01 X0.6001 Y0.9039
G01 X0.6087 Y0.8989
G01 X0.6176 Y0.8974
G01 X0.6835 Y0.8974
G01 X0.6897 Y0.8982
G01 X0.6974 Y0.9014
G01 X0.7027 Y0.9055
G01 X0.7425 Y0.9453
G01 X0.7553 Y0.9449
G01 X0.7661 Y0.9474
G01 X0.7748 Y0.9517
G01 X0.7792 Y0.9547
G01 X0.7870 Y0.9625
G01 X0.7903 Y0.9672
G01 X0.7947 Y0.9764
G01 X0.7963 Y0.9819
G01 X0.7974 Y0.9916
G01 X0.7970 Y0.9977
G01 X0.7948 Y1.0072
G01 X0.7899 Y1.0176
G01 X0.7838 Y1.0252
G01 X0.7795 Y1.0290
G01 X0.7710 Y1.0345
G01 X0.7652 Y1.0368
G01 X0.7553 Y1.0391
G01 X0.7451 Y1.0391
G01 X0.7390 Y1.0381
G01 X0.7299 Y1.0349
G01 X0.7201 Y1.0287
G01 X0.7133 Y1.0219
G01 X0.7099 Y1.0172
G01 X0.7054 Y1.0081
G01 X0.7038 Y1.0025
G01 X0.7026 Y0.9924
G01 X0.7033 Y0.9845
G01 X0.6944 Y0.9756
G01 X0.6971 Y0.9867
G01 X0.6970 Y0.9977
G01 X0.6948 Y1.0072
G01 X0.6929 Y1.0121
G01 X0.6867 Y1.0219
G01 X0.6832 Y1.0258
G01 X0.6756 Y1.0319
G01 X0.6656 Y1.0367
G01 X0.6549 Y1.0391
G01 X0.6451 Y1.0391
G01 X0.6399 Y1.0383
G01 X0.6294 Y1.0347
G01 X0.6201 Y1.0287
G01 X0.6133 Y1.0219
G01 X0.6101 Y1.0176
G01 X0.6052 Y1.0072
G01 X0.6030 Y0.9977
G01 X0.6026 Y0.9924
G01 X0.6038 Y0.9815
G01 X0.6075 Y0.9710
G01 X0.6127 Y0.9628
G01 X0.6162 Y0.9588
G01 X0.4798 Y0.9589
G01 X0.4879 Y0.9684
G01 X0.4926 Y0.9779
G01 X0.4951 Y0.9887
G01 X0.4947 Y1.0015
G01 X0.4988 Y1.0057
G01 X0.5779 Y1.0058
G01 X0.5868 Y1.0082
G01 X0.5928 Y1.0120
G01 X1.0259 Y1.4449
G01 X1.0349 Y1.4450
G01 X1.0443 Y1.4471
G01 X1.0531 Y1.4514
G01 X1.0607 Y1.4574
G01 X1.0665 Y1.4647
G01 X1.0693 Y1.4697
G01 X1.0723 Y1.4785
G01 X1.0734 Y1.4877
G01 X1.0734 Y1.5041
G01 X1.0723 Y1.5135
G01 X1.0691 Y1.5227
G01 X1.0640 Y1.5309
G01 X1.0574 Y1.5375
G01 X1.0527 Y1.5409
G01 X1.0443 Y1.5449
G01 X1.0353 Y1.5470
G01 X1.0296 Y1.5473
G01 X1.0203 Y1.5462
G01 X1.0116 Y1.5432
G01 X1.0065 Y1.5404
G01 X0.9996 Y1.5349
G01 X0.9960 Y1.5309
G01 X0.9911 Y1.5231
G01 X0.9890 Y1.5182
G01 X0.9868 Y1.5083
G01 X0.9868 Y1.4841
G01 X0.9645 Y1.4618
G01 X0.9691 Y1.4693
G01 X0.9723 Y1.4785
G01 X0.9734 Y1.4877
G01 X0.9734 Y1.5039
G01 X0.9731 Y1.5092
G01 X0.9710 Y1.5182
G01 X0.9689 Y1.5231
G01 X0.9640 Y1.5309
G01 X0.9574 Y1.5375
G01 X0.9527 Y1.5409
G01 X0.9443 Y1.5449
G01 X0.9349 Y1.5470
G01 X0.9256 Y1.5471
G01 X0.9199 Y1.5461
G01 X0.9112 Y1.5430
G01 X0.9029 Y1.5378
G01 X0.8960 Y1.5309
G01 X0.8911 Y1.5231
G01 X0.8889 Y1.5178
G01 X0.8868 Y1.5087
G01 X0.8869 Y1.4828
G01 X0.8890 Y1.4738
G01 X0.8932 Y1.4650
G01 X0.8993 Y1.4574
G01 X0.9065 Y1.4516
G01 X0.9152 Y1.4473
G01 X0.9208 Y1.4457
G01 X0.9300 Y1.4447
G01 X0.9397 Y1.4458
G01 X0.9488 Y1.4490
G01 X0.9563 Y1.4536
G01 X0.5638 Y1.0611
G01 X0.4874 Y1.0611
G01 X0.4812 Y1.0604
G01 X0.4754 Y1.0583
G01 X0.4701 Y1.0550
G01 X0.4555 Y1.0407
G01 X0.4427 Y1.0411
G01 X0.4324 Y1.0387
G01 X0.4224 Y1.0339
G01 X0.4181 Y1.0307
G01 X0.4113 Y1.0239
G01 X0.4051 Y1.0141
G01 X0.4019 Y1.0050
G01 X0.4009 Y0.9989
G01 X0.4009 Y0.9891
G01 X0.4018 Y0.9835
G01 X0.4051 Y0.9739
G01 X0.4081 Y0.9684
G01 X0.4142 Y0.9608
G01 X0.4185 Y0.9570
G01 X0.4232 Y0.9537
G01 X0.4324 Y0.9493
G01 X0.4379 Y0.9477
G01 X0.4480 Y0.9466
G01 X0.4537 Y0.9470
G01 X0.4619 Y0.9488
G01 X0.2183 Y0.7049
G01 X0.2150 Y0.6997
G01 X0.2129 Y0.6934
G01 X0.2123 Y0.6704
G01 X0.2065 Y0.6655
G01 X0.2001 Y0.6576
G01 X0.1971 Y0.6521
G01 X0.1939 Y0.6430
G01 X0.1926 Y0.6316
G01 X0.1937 Y0.6219
G01 X0.1953 Y0.6164
G01 X0.1999 Y0.6068
G01 X0.2065 Y0.5985
G01 X0.2148 Y0.5919
G01 X0.2248 Y0.5872
G01 X0.2351 Y0.5849
G01 X0.2449 Y0.5849
G01 X0.2501 Y0.5857
G01 X0.2606 Y0.5893
G01 X0.2695 Y0.5950
G01 X0.2770 Y0.6025
G01 X0.2827 Y0.6114
G01 X0.2862 Y0.6215
G01 X0.2874 Y0.6320
G01 X0.2862 Y0.6425
G01 X0.2829 Y0.6521
G01 X0.2770 Y0.6615
G01 X0.2677 Y0.6704
G01 X0.2677 Y0.6762
G01 X0.4954 Y0.9039
G01 X0.5505 Y0.9039
G01 X0.5450 Y0.8959
G01 X0.5431 Y0.8905
G01 X0.5424 Y0.8848
G01 X0.5440 Y0.8752
G01 X0.5485 Y0.8671
G01 X0.7324 Y0.6829
G01 X0.7231 Y0.6850
G01 X0.7178 Y0.6854
G01 X0.7073 Y0.6843
G01 X0.6968 Y0.6807
G01 X0.6879 Y0.6750
G01 X0.6804 Y0.6675
G01 X0.6745 Y0.6581
G01 X0.6725 Y0.6532
G01 X0.6704 Y0.6437
G01 X0.6703 Y0.6327
G01 X0.6713 Y0.6270
G01 X0.6745 Y0.6179
G01 X0.6806 Y0.6081
G01 X0.6875 Y0.6013
G01 X0.6922 Y0.5979
G01 X0.7013 Y0.5934
G01 X0.7068 Y0.5918
G01 X0.7125 Y0.5909
G01 X0.7222 Y0.5909
G01 X0.7335 Y0.5934
G01 X0.7422 Y0.5977
G01 X0.7469 Y0.6010
G01 X0.7512 Y0.6048
G01 X0.7566 Y0.6115
G01 X0.7566 Y0.4097
G01 X0.7580 Y0.4012
G01 X0.7609 Y0.3951
G01 X0.7647 Y0.3903
G01 X0.8882 Y0.2671
G01 X0.8934 Y0.2638
G01 X0.8997 Y0.2617
G01 X0.9219 Y0.2610
G01 X0.9257 Y0.2576
G01 X0.9329 Y0.2532
G01 X0.9408 Y0.2503
G01 X0.9475 Y0.2494
G01 X0.9408 Y0.2484
G01 X0.9329 Y0.2456
G01 X0.9257 Y0.2411
G01 X0.9219 Y0.2377
G01 X0.8965 Y0.2375
G01 X0.8884 Y0.2351
G01 X0.8827 Y0.2317
G01 X0.7915 Y0.1407
G01 X0.7787 Y0.1411
G01 X0.7684 Y0.1387
G01 X0.7588 Y0.1341
G01 X0.7505 Y0.1275
G01 X0.7439 Y0.1192
G01 X0.7393 Y0.1096
G01 X0.7369 Y0.0993
G01 X0.7373 Y0.0865
G01 X0.7284 Y0.0776
G01 X0.7311 Y0.0887
G01 X0.7311 Y0.0993
G01 X0.7287 Y0.1096
G01 X0.7241 Y0.1192
G01 X0.7175 Y0.1275
G01 X0.7092 Y0.1341
G01 X0.6996 Y0.1387
G01 X0.6893 Y0.1411
G01 X0.6783 Y0.1410
G01 X0.6688 Y0.1388
G01 X0.6639 Y0.1369
G01 X0.6545 Y0.1310
G01 X0.6470 Y0.1235
G01 X0.6411 Y0.1141
G01 X0.6392 Y0.1092
G01 X0.6370 Y0.0997
G01 X0.6369 Y0.0887
G01 X0.6396 Y0.0776
G01 X0.6307 Y0.0865
G01 X0.6314 Y0.0944
G01 X0.6302 Y0.1045
G01 X0.6286 Y0.1101
G01 X0.6241 Y0.1192
G01 X0.6178 Y0.1272
G01 X0.6135 Y0.1310
G01 X0.6050 Y0.1365
G01 X0.5996 Y0.1387
G01 X0.5889 Y0.1411
G01 X0.5836 Y0.1414
G01 X0.5739 Y0.1403
G01 X0.5634 Y0.1367
G01 X0.5541 Y0.1307
G01 X0.5470 Y0.1235
G01 X0.5413 Y0.1146
G01 X0.5392 Y0.1092
G01 X0.5370 Y0.0997
G01 X0.5373 Y0.0865
G01 X0.5284 Y0.0776
G01 X0.5311 Y0.0891
G01 X0.5311 Y0.0989
G01 X0.5302 Y0.1045
G01 X0.5265 Y0.1150
G01 X0.5213 Y0.1232
G01 X0.5175 Y0.1275
G01 X0.5088 Y0.1343
G01 X0.5001 Y0.1386
G01 X0.4945 Y0.1402
G01 X0.4889 Y0.1411
G01 X0.4791 Y0.1411
G01 X0.4684 Y0.1387
G01 X0.4630 Y0.1365
G01 X0.4548 Y0.1313
G01 X0.4470 Y0.1235
G01 X0.4437 Y0.1188
G01 X0.4394 Y0.1101
G01 X0.4369 Y0.0993
G01 X0.4366 Y0.0936
G01 X0.4377 Y0.0839
G01 X0.4413 Y0.0734
G01 X0.4473 Y0.0641
G01 X0.4575 Y0.0548
G01 X0.4105 Y0.0548
G01 X0.4172 Y0.0602
G01 X0.4210 Y0.0645
G01 X0.4243 Y0.0692
G01 X0.4286 Y0.0779
G01 X0.4311 Y0.0891
G01 X0.4314 Y0.0944
G01 X0.4303 Y0.1041
G01 X0.4265 Y0.1150
G01 X0.4213 Y0.1232
G01 X0.4175 Y0.1275
G01 X0.4088 Y0.1343
G01 X0.4001 Y0.1386
G01 X0.3945 Y0.1402
G01 X0.3889 Y0.1411
G01 X0.3791 Y0.1411
G01 X0.3684 Y0.1387
G01 X0.3584 Y0.1339
G01 X0.3508 Y0.1278
G01 X0.3473 Y0.1239
G01 X0.3411 Y0.1141
G01 X0.3379 Y0.1050
G01 X0.3370 Y0.0997
G01 X0.3369 Y0.0887
G01 X0.3396 Y0.0776
G01 X0.3307 Y0.0865
G01 X0.3314 Y0.0944
G01 X0.3302 Y0.1045
G01 X0.3267 Y0.1146
G01 X0.3213 Y0.1232
G01 X0.3172 Y0.1278
G01 X0.3092 Y0.1341
G01 X0.3001 Y0.1386
G01 X0.2945 Y0.1402
G01 X0.2836 Y0.1414
G01 X0.2739 Y0.1403
G01 X0.2688 Y0.1388
G01 X0.2588 Y0.1341
G01 X0.2505 Y0.1275
G01 X0.2439 Y0.1192
G01 X0.2393 Y0.1096
G01 X0.2369 Y0.0993
G01 X0.2373 Y0.0865
G01 X0.2284 Y0.0776
G01 X0.2303 Y0.0839
G01 X0.2314 Y0.0940
G01 X0.2303 Y0.1041
G01 X0.2286 Y0.1101
G01 X0.2241 Y0.1192
G01 X0.2178 Y0.1272
G01 X0.2132 Y0.1313
G01 X0.2046 Y0.1367
G01 X0.1992 Y0.1388
G01 X0.1897 Y0.1410
G01 X0.1783 Y0.1410
G01 X0.1688 Y0.1388
G01 X0.1634 Y0.1367
G01 X0.1584 Y0.1339
G01 X0.1508 Y0.1278
G01 X0.1437 Y0.1188
G01 X0.1394 Y0.1101
G01 X0.1378 Y0.1045
G01 X0.1369 Y0.0989
G01 X0.1369 Y0.0891
G01 X0.1396 Y0.0776
G01 X0.1307 Y0.0865
G01 X0.1310 Y0.0997
G01 X0.1288 Y0.1092
G01 X0.1267 Y0.1146
G01 X0.1210 Y0.1235
G01 X0.1117 Y0.1324
G01 X0.1117 Y0.8185
G01 X0.2405 Y0.9473
G01 X0.2533 Y0.9469
G01 X0.2636 Y0.9493
G01 X0.2732 Y0.9539
G01 X0.2815 Y0.9605
G01 X0.2879 Y0.9684
G01 X0.2909 Y0.9739
G01 X0.2942 Y0.9835
G01 X0.2954 Y0.9940
G01 X0.2943 Y1.0041
G01 X0.2926 Y1.0101
G01 X0.2881 Y1.0192
G01 X0.2815 Y1.0275
G01 X0.2732 Y1.0341
G01 X0.2636 Y1.0387
G01 X0.2533 Y1.0411
G01 X0.2405 Y1.0407
G01 X0.1067 Y1.1745
G01 X0.1067 Y1.5229
G01 X0.2201 Y1.6363
G01 X0.2400 Y1.6363
G01 X0.2400 Y1.6296
G01 X0.2410 Y1.6261
G01 X0.2441 Y1.6230
G01 X0.2476 Y1.6220
G01 X0.3284 Y1.6220
G01 X0.3333 Y1.6240
G01 X0.3358 Y1.6283
G01 X0.4716 Y1.6283
G01 X0.4808 Y1.6187
G01 X0.4890 Y1.6135
G01 X0.4948 Y1.6112
G01 X0.5043 Y1.6090
G01 X0.5100 Y1.6086
G01 X0.5201 Y1.6097
G01 X0.5261 Y1.6114
G01 X0.5356 Y1.6161
G01 X0.5399 Y1.6193
G01 X0.5467 Y1.6261
G01 X0.5527 Y1.6354
G01 X0.5562 Y1.6455
G01 X0.5574 Y1.6564
G01 X0.5563 Y1.6661
G01 X0.5548 Y1.6712
G01 X0.5501 Y1.6812
G01 X0.5432 Y1.6898
G01 X0.5352 Y1.6961
G01 X0.5261 Y1.7006
G01 X0.5201 Y1.7023
G01 X0.5096 Y1.7034
G01 X0.4995 Y1.7022
G01 X0.4890 Y1.6985
G01 X0.4801 Y1.6927
G01 X0.4716 Y1.6837
G01 X0.3360 Y1.6837
G01 X0.3357 Y1.7002
G01 X0.3340 Y1.7033
G01 X0.3302 Y1.7057
G01 X0.2458 Y1.7057
G01 X0.2427 Y1.7040
G01 X0.2406 Y1.7010
G01 X0.2400 Y1.6917
G01 X0.2055 Y1.6915
G01 X0.1991 Y1.6900
G01 X0.1914 Y1.6857
G01 X0.0593 Y1.5538
G01 X0.0539 Y1.5460
G01 X0.0520 Y1.5405
G01 X0.0513 Y1.5346
G01 X0.0513 Y1.1630
G00 Z0.2000
G00 X0.2820 Y1.8060
G01 F80.00
G01 Z-0.2000
G01 F80.00
G01 X0.2731 Y1.8050
G01 X0.2677 Y1.8035
G01 X0.2597 Y1.7996
G01 X0.2523 Y1.7937
G01 X0.2467 Y1.7867
G01 X0.2440 Y1.7818
G01 X0.2411 Y1.7733
G01 X0.2400 Y1.7644
G01 X0.2403 Y1.7589
G01 X0.2424 Y1.7501
G01 X0.2462 Y1.7420
G01 X0.2495 Y1.7375
G01 X0.2558 Y1.7312
G01 X0.2634 Y1.7264
G01 X0.2686 Y1.7242
G01 X0.2773 Y1.7223
G01 X0.2983 Y1.7222
G01 X0.3074 Y1.7242
G01 X0.3167 Y1.7287
G01 X0.3255 Y1.7363
G01 X0.4670 Y1.7363
G01 X0.4733 Y1.7261
G01 X0.4801 Y1.7193
G01 X0.4848 Y1.7159
G01 X0.4948 Y1.7112
G01 X0.5043 Y1.7090
G01 X0.5100 Y1.7086
G01 X0.5205 Y1.7098
G01 X0.5306 Y1.7133
G01 X0.5395 Y1.7190
G01 X0.5484 Y1.7283
G01 X1.1727 Y1.7283
G01 X1.1793 Y1.7291
G01 X1.1870 Y1.7323
G01 X1.1923 Y1.7364
G01 X1.4517 Y1.9961
G01 X1.4560 Y2.0038
G01 X1.4575 Y2.0102
G01 X1.4577 Y2.0547
G01 X1.4637 Y2.0607
G01 X1.4668 Y2.0650
G01 X1.4708 Y2.0734
G01 X1.4724 Y2.0789
G01 X1.4734 Y2.0879
G01 X1.4734 Y2.1039
G01 X1.4722 Y2.1140
G01 X1.4670 Y2.1266
G01 X1.4607 Y2.1346
G01 X1.4527 Y2.1409
G01 X1.4401 Y2.1461
G01 X1.4296 Y2.1473
G01 X1.4161 Y2.1450
G01 X1.4069 Y2.1406
G01 X1.3990 Y2.1343
G01 X1.3930 Y2.1266
G01 X1.3878 Y2.1140
G01 X1.3866 Y2.1043
G01 X1.3866 Y2.0879
G01 X1.3877 Y2.0785
G01 X1.3909 Y2.0693
G01 X1.3960 Y2.0611
G01 X1.4023 Y2.0547
G01 X1.4023 Y2.0248
G01 X1.1612 Y1.7837
G01 X0.5484 Y1.7837
G01 X0.5432 Y1.7898
G01 X0.5348 Y1.7963
G01 X0.5256 Y1.8007
G01 X0.5149 Y1.8031
G01 X0.5047 Y1.8031
G01 X0.4948 Y1.8008
G01 X0.4852 Y1.7963
G01 X0.4789 Y1.7917
G01 X0.3255 Y1.7917
G01 X0.3167 Y1.7993
G01 X0.3079 Y1.8036
G01 X0.2987 Y1.8057
G01 X0.2820 Y1.8060
G00 Z0.2000
G00 X0.2820 Y1.9060
G01 F80.00
G01 Z-0.2000
G01 F80.00
G01 X0.2727 Y1.9049
G01 X0.2638 Y1.9018
G01 X0.2558 Y1.8968
G01 X0.2492 Y1.8902
G01 X0.2442 Y1.8822
G01 X0.2411 Y1.8733
G01 X0.2400 Y1.8640
G01 X0.2412 Y1.8542
G01 X0.2442 Y1.8458
G01 X0.2492 Y1.8378
G01 X0.2558 Y1.8312
G01 X0.2638 Y1.8262
G01 X0.2722 Y1.8232
G01 X0.2777 Y1.8222
G01 X0.2942 Y1.8220
G01 X0.3038 Y1.8232
G01 X0.3122 Y1.8262
G01 X0.3198 Y1.8309
G01 X0.3240 Y1.8346
G01 X0.3296 Y1.8417
G01 X0.3336 Y1.8501
G01 X0.3357 Y1.8589
G01 X0.3360 Y1.8644
G01 X0.3348 Y1.8738
G01 X0.3318 Y1.8822
G01 X0.3271 Y1.8898
G01 X0.3234 Y1.8940
G01 X0.3163 Y1.8996
G01 X0.3083 Y1.9035
G01 X0.3029 Y1.9050
G01 X0.2944 Y1.9060
G01 X0.2820 Y1.9060
G00 Z0.2000
G00 X0.2820 Y2.0060
G01 F80.00
G01 Z-0.2000
G01 F80.00
G01 X0.2731 Y2.0050
G01 X0.2677 Y2.0035
G01 X0.2597 Y1.9996
G01 X0.2526 Y1.9940
G01 X0.2489 Y1.9898
G01 X0.2442 Y1.9822
G01 X0.2412 Y1.9738
G01 X0.2403 Y1.9687
G01 X0.2402 Y1.9597
G01 X0.2412 Y1.9542
G01 X0.2442 Y1.9458
G01 X0.2489 Y1.9382
G01 X0.2526 Y1.9340
G01 X0.2597 Y1.9284
G01 X0.2642 Y1.9260
G01 X0.2727 Y1.9231
G01 X0.2820 Y1.9220
G01 X0.2944 Y1.9220
G01 X0.3033 Y1.9231
G01 X0.3118 Y1.9260
G01 X0.3163 Y1.9284
G01 X0.3255 Y1.9363
G01 X0.6835 Y1.9363
G01 X0.7346 Y1.8853
G01 X0.7393 Y1.8816
G01 X0.7444 Y1.8790
G01 X0.7544 Y1.8773
G01 X0.7602 Y1.8780
G01 X0.7664 Y1.8803
G01 X0.7713 Y1.8833
G01 X0.7757 Y1.8877
G01 X0.7790 Y1.8930
G01 X0.7810 Y1.8988
G01 X0.7817 Y1.9050
G01 X0.7810 Y1.9112
G01 X0.7790 Y1.9170
G01 X0.7754 Y1.9226
G01 X0.7144 Y1.9837
G01 X0.7074 Y1.9887
G01 X0.7012 Y1.9910
G01 X0.6950 Y1.9917
G01 X0.3255 Y1.9917
G01 X0.3167 Y1.9993
G01 X0.3079 Y2.0036
G01 X0.2987 Y2.0057
G01 X0.2820 Y2.0060
G00 Z0.2000
G00 X0.6963 Y2.1313
G01 F80.00
G01 Z-0.2000
G01 F80.00
G01 X0.6930 Y2.1266
G01 X0.6890 Y2.1182
G01 X0.6876 Y2.1131
G01 X0.6866 Y2.1039
G01 X0.6866 Y2.0877
G01 X0.6877 Y2.0785
G01 X0.6909 Y2.0693
G01 X0.6960 Y2.0611
G01 X0.7026 Y2.0545
G01 X0.7073 Y2.0511
G01 X0.7157 Y2.0471
G01 X0.7251 Y2.0450
G01 X0.7344 Y2.0449
G01 X0.7401 Y2.0459
G01 X0.7488 Y2.0490
G01 X0.7571 Y2.0542
G01 X0.7640 Y2.0611
G01 X0.7689 Y2.0689
G01 X0.7711 Y2.0742
G01 X0.7732 Y2.0833
G01 X0.7734 Y2.1041
G01 X0.7724 Y2.1131
G01 X0.7691 Y2.1227
G01 X0.7640 Y2.1309
G01 X0.7571 Y2.1378
G01 X0.7488 Y2.1430
G01 X0.7397 Y2.1462
G01 X0.7300 Y2.1473
G01 X0.7203 Y2.1462
G01 X0.7112 Y2.1430
G01 X0.7029 Y2.1378
G01 X0.6963 Y2.1313
G00 Z0.2000
G00 X0.7963 Y2.1313
G01 F80.00
G01 Z-0.2000
G01 F80.00
G01 X0.7930 Y2.1266
G01 X0.7890 Y2.1182
G01 X0.7876 Y2.1131
G01 X0.7866 Y2.1039
G01 X0.7866 Y2.0877
G01 X0.7877 Y2.0785
G01 X0.7909 Y2.0693
G01 X0.7960 Y2.0611
G01 X0.8026 Y2.0545
G01 X0.8073 Y2.0511
G01 X0.8157 Y2.0471
G01 X0.8251 Y2.0450
G01 X0.8344 Y2.0449
G01 X0.8401 Y2.0459
G01 X0.8488 Y2.0490
G01 X0.8571 Y2.0542
G01 X0.8640 Y2.0611
G01 X0.8689 Y2.0689
G01 X0.8711 Y2.0742
G01 X0.8732 Y2.0833
G01 X0.8734 Y2.1041
G01 X0.8724 Y2.1131
G01 X0.8691 Y2.1227
G01 X0.8640 Y2.1309
G01 X0.8571 Y2.1378
G01 X0.8488 Y2.1430
G01 X0.8397 Y2.1462
G01 X0.8300 Y2.1473
G01 X0.8203 Y2.1462
G01 X0.8112 Y2.1430
G01 X0.8029 Y2.1378
G01 X0.7963 Y2.1313
G00 Z0.2000
G00 X0.8963 Y2.1313
G01 F80.00
G01 Z-0.2000
G01 F80.00
G01 X0.8930 Y2.1266
G01 X0.8890 Y2.1182
G01 X0.8869 Y2.1092
G01 X0.8866 Y2.1039
G01 X0.8866 Y2.0877
G01 X0.8877 Y2.0785
G01 X0.8909 Y2.0693
G01 X0.8960 Y2.0611
G01 X0.9026 Y2.0545
G01 X0.9073 Y2.0511
G01 X0.9157 Y2.0471
G01 X0.9251 Y2.0450
G01 X0.9344 Y2.0449
G01 X0.9401 Y2.0459
G01 X0.9488 Y2.0490
G01 X0.9571 Y2.0542
G01 X0.9640 Y2.0611
G01 X0.9689 Y2.0689
G01 X0.9711 Y2.0742
G01 X0.9732 Y2.0833
G01 X0.9734 Y2.1041
G01 X0.9724 Y2.1131
G01 X0.9691 Y2.1227
G01 X0.9640 Y2.1309
G01 X0.9571 Y2.1378
G01 X0.9488 Y2.1430
G01 X0.9397 Y2.1462
G01 X0.9300 Y2.1473
G01 X0.9203 Y2.1462
G01 X0.9112 Y2.1430
G01 X0.9029 Y2.1378
G01 X0.8963 Y2.1313
G00 Z0.2000
G00 X0.9963 Y2.1313
G01 F80.00
G01 Z-0.2000
G01 F80.00
G01 X0.9930 Y2.1266
G01 X0.9890 Y2.1182
G01 X0.9869 Y2.1092
G01 X0.9866 Y2.1039
G01 X0.9866 Y2.0877
G01 X0.9877 Y2.0785
G01 X0.9909 Y2.0693
G01 X0.9960 Y2.0611
G01 X1.0026 Y2.0545
G01 X1.0073 Y2.0511
G01 X1.0157 Y2.0471
G01 X1.0251 Y2.0450
G01 X1.0344 Y2.0449
G01 X1.0401 Y2.0459
G01 X1.0488 Y2.0490
G01 X1.0571 Y2.0542
G01 X1.0640 Y2.0611
G01 X1.0689 Y2.0689
G01 X1.0711 Y2.0742
G01 X1.0732 Y2.0833
G01 X1.0734 Y2.1041
G01 X1.0724 Y2.1131
G01 X1.0691 Y2.1227
G01 X1.0640 Y2.1309
G01 X1.0571 Y2.1378
G01 X1.0488 Y2.1430
G01 X1.0397 Y2.1462
G01 X1.0300 Y2.1473
G01 X1.0203 Y2.1462
G01 X1.0112 Y2.1430
G01 X1.0029 Y2.1378
G01 X0.9963 Y2.1313
G00 Z0.2000
G00 X1.0963 Y2.1313
G01 F80.00
G01 Z-0.2000
G01 F80.00
G01 X1.0930 Y2.1266
G01 X1.0890 Y2.1182
G01 X1.0869 Y2.1092
G01 X1.0866 Y2.1039
G01 X1.0866 Y2.0877
G01 X1.0877 Y2.0785
G01 X1.0909 Y2.0693
G01 X1.0960 Y2.0611
G01 X1.1026 Y2.0545
G01 X1.1073 Y2.0511
G01 X1.1157 Y2.0471
G01 X1.1251 Y2.0450
G01 X1.1344 Y2.0449
G01 X1.1401 Y2.0459
G01 X1.1488 Y2.0490
G01 X1.1571 Y2.0542
G01 X1.1640 Y2.0611
G01 X1.1689 Y2.0689
G01 X1.1711 Y2.0742
G01 X1.1732 Y2.0833
G01 X1.1734 Y2.1041
G01 X1.1724 Y2.1131
G01 X1.1691 Y2.1227
G01 X1.1640 Y2.1309
G01 X1.1571 Y2.1378
G01 X1.1488 Y2.1430
G01 X1.1397 Y2.1462
G01 X1.1300 Y2.1473
G01 X1.1203 Y2.1462
G01 X1.1112 Y2.1430
G01 X1.1029 Y2.1378
G01 X1.0963 Y2.1313
G00 Z0.2000
G00 X1.1963 Y2.1313
G01 F80.00
G01 Z-0.2000
G01 F80.00
G01 X1.1930 Y2.1266
G01 X1.1890 Y2.1182
G01 X1.1869 Y2.1092
G01 X1.1866 Y2.1039
G01 X1.1866 Y2.0877
G01 X1.1877 Y2.0785
G01 X1.1909 Y2.0693
G01 X1.1960 Y2.0611
G01 X1.2026 Y2.0545
G01 X1.2073 Y2.0511
G01 X1.2157 Y2.0471
G01 X1.2251 Y2.0450
G01 X1.2344 Y2.0449
G01 X1.2401 Y2.0459
G01 X1.2488 Y2.0490
G01 X1.2571 Y2.0542
G01 X1.2640 Y2.0611
G01 X1.2689 Y2.0689
G01 X1.2711 Y2.0742
G01 X1.2732 Y2.0833
G01 X1.2734 Y2.1041
G01 X1.2724 Y2.1131
G01 X1.2691 Y2.1227
G01 X1.2640 Y2.1309
G01 X1.2571 Y2.1378
G01 X1.2488 Y2.1430
G01 X1.2397 Y2.1462
G01 X1.2300 Y2.1473
G01 X1.2203 Y2.1462
G01 X1.2112 Y2.1430
G01 X1.2029 Y2.1378
G01 X1.1963 Y2.1313
G00 Z0.2000
G00 X1.2963 Y2.1313
G01 F80.00
G01 Z-0.2000
G01 F80.00
G01 X1.2930 Y2.1266
G01 X1.2890 Y2.1182
G01 X1.2869 Y2.1092
G01 X1.2866 Y2.1039
G01 X1.2866 Y2.0877
G01 X1.2877 Y2.0785
G01 X1.2909 Y2.0693
G01 X1.2960 Y2.0611
G01 X1.3026 Y2.0545
G01 X1.3073 Y2.0511
G01 X1.3157 Y2.0471
G01 X1.3251 Y2.0450
G01 X1.3344 Y2.0449
G01 X1.3401 Y2.0459
G01 X1.3488 Y2.0490
G01 X1.3571 Y2.0542
G01 X1.3640 Y2.0611
G01 X1.3689 Y2.0689
G01 X1.3711 Y2.0742
G01 X1.3732 Y2.0833
G01 X1.3734 Y2.1041
G01 X1.3724 Y2.1131
G01 X1.3691 Y2.1227
G01 X1.3640 Y2.1309
G01 X1.3571 Y2.1378
G01 X1.3488 Y2.1430
G01 X1.3397 Y2.1462
G01 X1.3300 Y2.1473
G01 X1.3203 Y2.1462
G01 X1.3112 Y2.1430
G01 X1.3029 Y2.1378
G01 X1.2963 Y2.1313
G00 Z0.2000
G00 X1.4963 Y2.1313
G01 F80.00
G01 Z-0.2000
G01 F80.00
G01 X1.4930 Y2.1266
G01 X1.4890 Y2.1182
G01 X1.4876 Y2.1131
G01 X1.4866 Y2.1039
G01 X1.4866 Y2.0877
G01 X1.4877 Y2.0785
G01 X1.4909 Y2.0693
G01 X1.4960 Y2.0611
G01 X1.5026 Y2.0545
G01 X1.5073 Y2.0511
G01 X1.5157 Y2.0471
G01 X1.5251 Y2.0450
G01 X1.5344 Y2.0449
G01 X1.5401 Y2.0459
G01 X1.5488 Y2.0490
G01 X1.5571 Y2.0542
G01 X1.5640 Y2.0611
G01 X1.5689 Y2.0689
G01 X1.5711 Y2.0742
G01 X1.5732 Y2.0833
G01 X1.5734 Y2.1041
G01 X1.5724 Y2.1131
G01 X1.5691 Y2.1227
G01 X1.5640 Y2.1309
G01 X1.5571 Y2.1378
G01 X1.5488 Y2.1430
G01 X1.5397 Y2.1462
G01 X1.5300 Y2.1473
G01 X1.5203 Y2.1462
G01 X1.5112 Y2.1430
G01 X1.5029 Y2.1378
G01 X1.4963 Y2.1313
G00 Z0.2000
G00 X1.5963 Y2.1313
G01 F80.00
G01 Z-0.2000
G01 F80.00
G01 X1.5930 Y2.1266
G01 X1.5890 Y2.1182
G01 X1.5869 Y2.1092
G01 X1.5866 Y2.1039
G01 X1.5866 Y2.0877
G01 X1.5877 Y2.0785
G01 X1.5909 Y2.0693
G01 X1.5960 Y2.0611
G01 X1.6026 Y2.0545
G01 X1.6073 Y2.0511
G01 X1.6157 Y2.0471
G01 X1.6251 Y2.0450
G01 X1.6344 Y2.0449
G01 X1.6401 Y2.0459
G01 X1.6488 Y2.0490
G01 X1.6571 Y2.0542
G01 X1.6640 Y2.0611
G01 X1.6689 Y2.0689
G01 X1.6711 Y2.0742
G01 X1.6732 Y2.0833
G01 X1.6734 Y2.1041
G01 X1.6724 Y2.1131
G01 X1.6691 Y2.1227
G01 X1.6640 Y2.1309
G01 X1.6571 Y2.1378
G01 X1.6488 Y2.1430
G01 X1.6397 Y2.1462
G01 X1.6300 Y2.1473
G01 X1.6203 Y2.1462
G01 X1.6112 Y2.1430
G01 X1.6029 Y2.1378
G01 X1.5963 Y2.1313
G00 Z0.2000
G00 X1.6963 Y2.1313
G01 F80.00
G01 Z-0.2000
G01 F80.00
G01 X1.6930 Y2.1266
G01 X1.6890 Y2.1182
G01 X1.6869 Y2.1092
G01 X1.6866 Y2.1039
G01 X1.6866 Y2.0877
G01 X1.6877 Y2.0785
G01 X1.6909 Y2.0693
G01 X1.6960 Y2.0611
G01 X1.7026 Y2.0545
G01 X1.7073 Y2.0511
G01 X1.7157 Y2.0471
G01 X1.7251 Y2.0450
G01 X1.7344 Y2.0449
G01 X1.7401 Y2.0459
G01 X1.7488 Y2.0490
G01 X1.7571 Y2.0542
G01 X1.7640 Y2.0611
G01 X1.7689 Y2.0689
G01 X1.7711 Y2.0742
G01 X1.7732 Y2.0833
G01 X1.7734 Y2.1041
G01 X1.7724 Y2.1131
G01 X1.7691 Y2.1227
G01 X1.7640 Y2.1309
G01 X1.7571 Y2.1378
G01 X1.7488 Y2.1430
G01 X1.7397 Y2.1462
G01 X1.7300 Y2.1473
G01 X1.7203 Y2.1462
G01 X1.7112 Y2.1430
G01 X1.7029 Y2.1378
G01 X1.6963 Y2.1313
G00 Z0.2000
G00 X1.7963 Y2.1313
G01 F80.00
G01 Z-0.2000
G01 F80.00
G01 X1.7930 Y2.1266
G01 X1.7890 Y2.1182
G01 X1.7869 Y2.1092
G01 X1.7866 Y2.1039
G01 X1.7866 Y2.0877
G01 X1.7877 Y2.0785
G01 X1.7909 Y2.0693
G01 X1.7960 Y2.0611
G01 X1.8026 Y2.0545
G01 X1.8073 Y2.0511
G01 X1.8157 Y2.0471
G01 X1.8251 Y2.0450
G01 X1.8344 Y2.0449
G01 X1.8401 Y2.0459
G01 X1.8488 Y2.0490
G01 X1.8571 Y2.0542
G01 X1.8640 Y2.0611
G01 X1.8689 Y2.0689
G01 X1.8711 Y2.0742
G01 X1.8732 Y2.0833
G01 X1.8734 Y2.1041
G01 X1.8724 Y2.1131
G01 X1.8691 Y2.1227
G01 X1.8640 Y2.1309
G01 X1.8571 Y2.1378
G01 X1.8488 Y2.1430
G01 X1.8397 Y2.1462
G01 X1.8300 Y2.1473
G01 X1.8203 Y2.1462
G01 X1.8112 Y2.1430
G01 X1.8029 Y2.1378
G01 X1.7963 Y2.1313
G00 Z0.2000
M05
G00 Z0.2000
G00 Z2.00
G00 X0.0 Y0.0

